ChristianCella/workcell_optimization/results/data/complete_beta_trend_wide.csv
piece1_joint1,piece1_joint2,piece1_joint3,piece1_joint4,piece2_joint1,piece2_joint2,piece2_joint3,piece2_joint4,piece3_joint1,piece3_joint2,piece3_joint3,piece3_joint4,piece4_joint1,piece4_joint2,piece4_joint3,piece4_joint4,piece5_joint1,piece5_joint2,piece5_joint3,piece5_joint4,piece6_joint1,piece6_joint2,piece6_joint3,piece6_joint4,piece7_joint1,piece7_joint2,piece7_joint3,piece7_joint4,piece8_joint1,piece8_joint2,piece8_joint3,piece8_joint4
0.13202841374402438,-0.3061798146414878,0.009421451862328893,0.1881110499345225,0.1774797038842825,-0.20766782549962656,0.002734216282630736,0.02519130023507122,0.21814257727494646,-0.32541120290379527,0.10981379641475723,-0.1335878963533139,0.24218670816882104,-0.3140478877779845,0.1425179919593598,-0.10483739894946287,0.21600531620508429,-0.2709073153777759,0.14505102126003994,-0.07947947131689492,0.0670227337944791,-0.06170605723476672,-0.05408212527229524,0.25395342757128847,0.08424870935913113,0.010840198299145003,0.09440421407106642,0.25114936981883296,1000000000000.0,1000000000000.0,1000000000000.0,1000000000000.0
0.16195679976507305,-0.17863478665003416,0.08837634460300105,-0.1083606900665501,1000000000000.0,1000000000000.0,1000000000000.0,1000000000000.0,0.15582314192402394,-0.12322449403789347,0.09412557681380082,-0.03266751115473473,0.22992185354669917,-0.2249150057396828,0.13595754612125865,-0.1403273136498017,0.08174221975873519,0.11465712461545494,0.17715504006152077,0.2539519828767527,0.18428660511187717,-0.0004781275187277028,0.10048254129392238,-0.08987699099450736,0.09038174768273863,-0.007239592834993223,0.15438831206394416,-0.13594268428223752,0.23778382522828487,-0.30000713544600627,0.13804172116726152,-0.1894208028580642
0.09600797590730588,0.03276786988172055,0.21896755796495504,-0.20827142749777622,0.10168818471821559,-0.286901640712443,0.16226530939995387,-0.05228103403842344,0.04017720776209153,-0.26350489815271705,0.14375972497758344,-0.07148051146310262,0.13603345018870258,-0.1883239853666754,0.07507044236341542,-0.08960754736524093,0.17789166287351146,-0.1911560132530835,0.008490224758332846,0.025112182469831296,0.17253665912713356,-0.361879493021018,0.09764122195224742,0.031016307392738196,0.1627562220112658,-0.0847075780963738,0.17814554587662956,-0.1180929761626193,0.12282564068535176,-0.3184954676471343,-0.04595518343431639,0.03146902285866483
0.19220275540430373,-0.22561842885918035,0.04843955730485836,-0.0006270815488370884,0.08009009035910941,-0.2839884290835931,0.2657200844490001,-0.05479590095057553,0.09662637240832936,-0.13386311712349952,0.2639333382892578,-0.14948932627742648,0.23334516736331284,-0.2463487913228667,0.27236408781432786,0.13248962620293406,0.2057839733780012,-0.2644006084845766,0.1268060979166235,-0.13944173795763268,0.21859164915965068,-0.2616829694390523,0.14567194707610567,-0.06970491203420041,0.17213742462704704,-0.049059660251652634,0.11986227922768833,-0.15143806157704326,0.101351911428056,-0.22924088551251204,0.04644155975226564,-0.05202884118014899
0.08104883197517135,-0.2446694515997981,0.018952078670931627,-0.06786024170954688,0.08600907696075472,-0.28858415687997824,-2.3038810785712405e-05,0.036648564713206516,0.17624805541444077,-0.09939037441031655,0.12821839929895704,-0.08692634025716163,0.08133492343474351,-0.2919486218819066,0.19703978146416212,0.05240823781796611,0.31656740348109524,-0.20265086544570537,0.3904808331501725,0.025815674148372228,0.25500628083233073,-0.21578881158599267,0.2602727555566128,0.1924560939786575,0.07872663413782002,-0.15161363787993293,0.1432523867086375,-0.10817420346407405,0.21836445941944166,-0.17672442425337803,0.0719482277946483,0.015605650701093808
0.2713118411080041,-0.02582400534149805,0.2416965198804715,-0.15758028114503034,0.10614470500937653,-0.33969682728028305,-0.02960399218669825,-0.0377420702051708,0.13553357383502745,-0.28457934345818414,-0.10156431136625137,0.026083062480423472,0.12807586556847478,-0.27299779149507664,0.040498736361210166,0.20535648611200372,0.10798709797854004,-0.09198534533169096,0.12305021384957517,-0.11307705327037665,0.21374232166871157,-0.27044328540218987,0.12519517823910178,-0.13762122928675896,0.06993796012488672,-0.15975473537658322,0.053044272470668036,0.24370677695803444,0.058065960750501765,-0.34271252199508656,0.11251556379768204,-0.15280047605170105
0.017656366600511453,-0.3303015314592341,-0.023189321501868865,0.07092870769486687,0.17751118960429974,-0.0189909210976308,0.11136957693955626,-0.10839850990226771,0.08781465377929881,-0.30024540677077977,-0.08342567531970521,0.21975030546719132,0.07284433472714397,-0.3720968189457352,0.059994267351630624,0.03355801038716208,0.07243764494347363,-0.2334029092777798,0.02221970866897232,0.2509140337625258,0.16682648090320662,-0.18274429268278217,0.10621946273649457,-0.1141394623006214,0.14044432317221817,-0.38130461126600446,0.10222250150371763,0.0683488815313404,0.07697249692269872,-0.08009853467848511,-0.05106842675963484,0.25373860783897534
0.08480447584050685,-0.3519537458504055,0.02917241207478044,0.0063527157845629095,0.19125758652275826,-0.41474604246250346,0.14630329509103168,0.1256220495065038,0.20094537854226613,-0.2503006316499975,0.24991951824846778,0.21125191439181548,0.2140226103433729,-0.10761562061733773,0.25789200317605854,0.1541337859771737,0.0779337884634189,-0.31826859693017334,-0.026455196871770364,0.007127613414495831,0.009278912917350446,-0.32017226940319565,0.09472662014469785,0.10646753970340772,0.2487220612744637,-0.25458566166997765,0.18929497540954696,0.1965877419405293,0.14051176902239254,-0.2875494467849852,0.06065491888694849,0.1459181905268486
0.022575289793223263,-0.32537254334555543,0.08146612791600645,-0.006082699376753202,0.09835931134161054,-0.1793468181105667,0.17395056799886302,-0.020626454746796904,0.11455954423944373,-0.35107663831946145,-0.0773679203889718,-0.00544608320164499,0.05189935623854148,-0.07800847657231574,0.09850196213687537,0.25060875288121315,0.08649392404252304,-0.29648874733242514,0.07435662424342783,0.01690639611703586,0.08498545075359702,-0.29759212993486706,0.13829294411295356,-0.07082976904526918,0.06963920020702505,-0.32599585883191917,0.06047234185749237,-0.12505674556522514,0.1569371004331992,-0.23857715510050434,0.08474643569332703,0.22616507252761603
0.029343090520385973,-0.3305905103458857,0.0016136477492570411,-0.014717616940812972,0.02477162854613149,-0.25416005625129656,0.13299637008263296,0.0035385746609422272,0.20827079107968194,-0.232596987785248,0.2542015861751428,-0.07793809705589941,0.24514581487743478,-0.20701350130946966,0.25564770900172673,-0.11941467572184439,0.19610571370182903,-0.11568816592596569,0.0954684855552201,-0.1301315278814588,0.31340330699701435,0.18661516555069868,0.4101809442838557,0.17645598296335407,0.048307374834057275,-0.2642385938604081,0.08031081149147612,0.2538947680915434,0.2431148311338558,-0.08111295787312633,0.2761261827425731,-0.0743940903862317
1000000000000.0,1000000000000.0,1000000000000.0,1000000000000.0,1000000000000.0,1000000000000.0,1000000000000.0,1000000000000.0,0.20659819703162563,-0.027018043269388003,0.2353587046762178,-0.11796975020753962,0.36555403985619517,0.08894537782408835,0.3748330085487454,-0.1352654604654981,0.16926048556885326,-0.38288640399937485,0.11496088048524088,0.12701685665786067,0.24526252789324082,0.148820881284594,0.33117412544664826,0.16471104303284054,0.044350644477534264,-0.332555259069241,-0.0032512980741269126,-0.055956487216330564,0.13993517115504356,-0.1502850373780042,0.00993581702595539,-0.02122185873624273
1000000000000.0,1000000000000.0,1000000000000.0,1000000000000.0,0.19979070216586314,-0.05755903900789113,0.14176280252695442,-0.12111295647303459,0.27358066059317204,-0.13641238242974202,0.2679014409572828,0.19736505278436195,0.08501214260456119,0.1459331955930967,0.21175852938566145,0.24774633891224263,1000000000000.0,1000000000000.0,1000000000000.0,1000000000000.0,0.1401813724129633,-0.11336146334585893,0.16402952459643133,-0.12872189123660283,0.20919059033772885,-0.44445136967099047,0.1789722330851244,0.048882059022906835,1000000000000.0,1000000000000.0,1000000000000.0,1000000000000.0
0.3946682312740281,0.19103031227886866,0.4071644003096395,0.02613892108372245,1000000000000.0,1000000000000.0,1000000000000.0,1000000000000.0,1000000000000.0,1000000000000.0,1000000000000.0,1000000000000.0,0.27510588164359207,-0.19897200406719437,0.360530021719528,-0.020947414163187898,0.10993246100141618,-0.2805094033181256,0.0616787693569119,0.07300469978724636,0.12527582354970568,-0.054114888695800584,0.2505934802225276,-0.11370038689580042,1000000000000.0,1000000000000.0,1000000000000.0,1000000000000.0,0.19338150589186773,-0.004277315207834807,0.10866717798833887,-0.10455026384305702
-0.048286789129106805,-0.3844143358312709,0.1726153412097352,0.07260750979423392,0.09111305291002966,-0.2804735206043423,0.0632213092095017,0.044076798376140904,0.25503510051763867,-0.31821521136090875,0.17303630500297684,0.0812321452610503,1000000000000.0,1000000000000.0,1000000000000.0,1000000000000.0,0.2282882118881966,0.09021775722720302,0.25304256418955984,-0.2799900175397787,0.15743306135912652,-0.39653659384112794,0.08304095876402498,0.17684385911565342,1000000000000.0,1000000000000.0,1000000000000.0,1000000000000.0,0.22569935090126134,0.09624576648875273,0.1941938360663813,-0.11113619222762958
0.15425613868630472,-0.3338204795182577,0.1441439048164257,-0.026200753138984102,0.12969081539756427,-0.3888241399152922,0.08776179270342357,0.10202857686118458,0.07103668262518226,-0.3383923921929024,0.07318086186180991,-0.010734551249596005,0.13760825273576494,0.03126348676654163,0.17334904760855552,-0.11358950563769887,0.21173720920056854,-0.09757750515020949,0.25245469086046624,-0.23829013766628082,-0.013816418120940047,-0.26489651661304403,0.04408111577766073,-0.011673089441942518,0.08861371835370668,-0.2565275162324607,-0.02270470462410857,0.23848913651472556,0.3309042348301734,0.13553372609231124,0.28777318214443093,0.047706833154862544
1000000000000.0,1000000000000.0,1000000000000.0,1000000000000.0,0.188185772123462,-0.37606312970716116,0.11433284232074267,0.1570224355773365,0.2727260286831006,-0.29446444933396904,0.23044170108651588,0.17306853434892555,0.09726130164985576,-0.3528169591314313,0.02154400302359214,0.01018418661880565,0.24203494656509336,0.04331842617754256,0.21376099775506954,-0.16631144304754955,0.1264911048530517,-0.1857191350127477,0.04048348445145289,-0.13048811396551047,0.2703054716993346,-0.2767254449657612,0.21833526946744067,0.2114361545492029,0.10525178425935822,-0.12107842903789615,-0.0018619488514324267,-0.0365885976509681
0.1213741427958238,-0.3128485517336338,-0.07484005863560378,0.1605466488116782,0.09308256718851593,-0.29545739088900147,0.07635669083805849,0.00167403640402599,0.21640520338745564,-0.21627503440899568,0.1438570052988061,-0.09614642927942117,0.10366627641438733,-0.3173607140106889,0.17905354457526962,-0.06875842145653446,0.15717215817183494,-0.34805408990523684,0.08122045004507324,0.07908954242279756,0.10064228991328794,-0.3597583937882292,0.006520004770579967,0.02747605153446409,0.1286863230820627,-0.1633242299286437,0.07243781772546609,-0.027862538482553434,1000000000000.0,1000000000000.0,1000000000000.0,1000000000000.0
0.09526909071460746,-0.23473623309541608,0.027456063235016974,0.21627161803738307,0.07175456035812157,-0.08815281225184042,0.06740959637716362,0.251607512751883,0.11422463379913912,-0.2601775696967664,0.13980023893462268,-0.11689919889754613,0.07776674843469172,-0.012335234793733607,-0.07570282333268344,0.24930595841411238,0.1463306811941998,-0.26072711516381963,0.09881375292381704,-0.04902760241553266,0.23347063496594941,-0.1685865805359915,0.12007441411288462,0.012337731663779467,0.1264655108667859,-0.30848300263283307,-0.10383354368206427,0.194379212183426,0.05423823597637375,-0.32766357230109516,0.017639603224159202,0.027368261173679125
0.19132295663713664,-0.29849196882933726,0.18508669293262364,0.17415740663124948,0.3079441689804857,0.27924345771182,0.33631814885695926,0.10645594428821976,0.18125791248774992,-0.26292229105828185,0.14908054411236266,-0.06558209548403159,0.285764789855748,0.1886595532576623,0.3058723048795818,0.20031702292886291,0.02186551460129697,-0.39482453947643037,0.04416439879204724,-0.08211277965568659,0.10999006855037982,-0.2262507846653578,0.18191025435058772,-0.06526923073494305,0.10412642467581258,0.0249106478297604,-0.06090569021890781,0.22401846593149072,0.24842756674424218,-0.27796844304800583,0.35999001427641003,0.13605428169474526
1000000000000.0,1000000000000.0,1000000000000.0,1000000000000.0,1000000000000.0,1000000000000.0,1000000000000.0,1000000000000.0,0.10172226997734403,-0.3276562757859032,-0.09479015261951391,0.17256795684635912,0.25910487288389644,-0.011326471652863102,0.284400978315566,-0.11232032199459346,0.15762088988887663,-0.280205189625757,0.11512944974810987,0.21400709194332682,0.1259592216594266,-0.3632773897693924,0.0613747436142064,0.003516110397778634,1000000000000.0,1000000000000.0,1000000000000.0,1000000000000.0,0.0901905464479758,-0.21638319725002159,0.01242866002270357,-0.09929814193266298
0.07647846112631584,-0.22608604854533526,0.1506413297637103,0.252185096324577,0.16394262222221254,0.08769566611488566,0.2139256308079427,-0.11373796244664844,1000000000000.0,1000000000000.0,1000000000000.0,1000000000000.0,1000000000000.0,1000000000000.0,1000000000000.0,1000000000000.0,0.0842866431782274,-0.02910352727432236,-0.09216328687749481,0.24298057040972398,0.11932338544808667,-0.37977185393868207,0.06616624221588888,0.0803859410381705,0.10584937724247707,-0.24866206831391768,0.31649372898214173,0.029235689232037884,0.21161271667848514,-0.2769008117380524,0.14219728487221306,-0.13817939280053101
1000000000000.0,1000000000000.0,1000000000000.0,1000000000000.0,0.10985009793485213,-0.2752348526972154,0.12824507550798897,-0.032126589451204716,0.1199992108512569,-0.25272553897271754,-0.08575849113151919,0.03212792757495521,0.07992550904416013,-0.2283156703446886,-0.030005511583189835,0.25073154901617034,1000000000000.0,1000000000000.0,1000000000000.0,1000000000000.0,1000000000000.0,1000000000000.0,1000000000000.0,1000000000000.0,0.13095218901587036,0.01840656118619012,0.07286729394531041,0.24358148953539832,0.03103864409687044,-0.36551992504620934,0.11715224638270416,0.04299032132816652
0.075069859135363,-0.24919017416971312,-0.025305030572105047,0.23973540592795334,-0.038621635804453956,-0.39327403575973574,0.030369965558295242,-0.007857969045091971,1000000000000.0,1000000000000.0,1000000000000.0,1000000000000.0,0.12142353625009109,-0.329081318328153,-0.00524022415810238,0.21229865418294533,1000000000000.0,1000000000000.0,1000000000000.0,1000000000000.0,1000000000000.0,1000000000000.0,1000000000000.0,1000000000000.0,0.07242726626677753,-0.332869417539045,-0.04103085323299929,-0.07165521521229784,0.10122018222953061,-0.15156366811728675,0.12134924926327843,-0.14462349342292766
0.13315878058584335,-0.19381989710576447,0.0702653384975684,-0.05433522504051247,1000000000000.0,1000000000000.0,1000000000000.0,1000000000000.0,0.07587969855391016,-0.27205458343497335,-0.05256516854093833,0.24759691353525468,1000000000000.0,1000000000000.0,1000000000000.0,1000000000000.0,0.15516221973632846,0.04150415669692026,0.20691461190292026,-0.18947397092260457,1000000000000.0,1000000000000.0,1000000000000.0,1000000000000.0,0.06713609455894848,-0.14208021030489904,-0.0729719275142237,0.2520918209743107,0.22309009818428382,-0.15896516750537382,0.21383297969332693,-0.04292573797556698
0.22382260577827426,-0.4490623090565285,0.1775984227070473,0.06802007386548975,0.14948544357575233,-0.3780489121237324,0.07792289276001164,0.09034235358374293,0.13610202494820225,-0.19990537809592185,0.019683532461299946,-0.10415387387730515,0.17466921605376884,-0.4026712188710746,0.11880406304123112,0.19561928417288385,0.32257336463931263,-0.05665266463722538,0.3512062636916611,0.009234120698949036,0.16924537201105347,-0.30722296607852473,-0.07738686495859928,0.2181707429403017,0.15909853565124207,-0.39559803872058913,0.10965053200108493,0.09464246888779838,0.1271627054179243,-0.17750516293718593,0.06324427363315906,-0.015833372985647735
0.20897240512248405,-0.20648316890837232,0.059526049686378694,-0.023883091521593715,0.23641451581367,-0.0008522084359929294,0.27655517598081836,-0.22150162623206948,0.1964219774539552,-0.33982382278260115,0.09923714787319979,0.10955293530916119,0.12079466358870586,-0.2312417217654311,0.20164249572691328,-0.08981326103813671,0.24217556494392328,-0.28205243546258923,0.13402274194147318,-0.22834877849038182,0.12498213408773653,-0.3203048620329692,-0.07840384813298099,0.19654011635632324,0.1802655043384202,-0.38409236020074194,0.07313930879526111,0.13665369703567026,0.12789121288202193,-0.279217941067987,-0.030833730875718217,0.02870554392065762
1000000000000.0,1000000000000.0,1000000000000.0,1000000000000.0,0.10609665735332971,-0.12271865656836804,0.17453546879279405,-0.10763847934332052,0.19904659973698222,-0.2691154825066847,0.009977450901573707,0.02987285722488162,0.20437914626792936,-0.14878370647710998,0.1653774389047223,0.06795227734448808,0.10089315593054213,-0.2549162454732989,0.1720346799819739,-0.06445411529910514,0.030384882233855243,-0.3242805599931202,-0.05380404823095955,-0.11206927296811606,0.16372679899410741,-0.27213723187331007,0.144991110264448,0.07716819398070762,0.11235676015813234,-0.4047469288578528,0.09300113072990235,0.08917212987618714
0.240072035024969,-0.22761822996900052,0.11387654173750679,-0.11739333744354777,0.14928186099383411,-0.034456054489562425,0.18356701233400458,-0.12385814157023506,0.10395144338074142,-0.19014989282227823,0.1479273956890344,-0.07922965641953272,0.1991804525627382,0.04688584557117222,0.2385428861943327,-0.23552340057626237,0.10142084448962829,0.041632461576230795,0.17626959170343268,-0.19820135388874832,0.046876219172035695,-0.22642377341266756,0.14690852920026046,-0.08860275233531466,-0.06875442548529707,-0.3844779488152657,-0.023367055325307612,-0.0901471368654023,0.10084064196782472,-0.044331376778970734,0.138732301154102,-0.11050191992175344
0.14179693589850456,-0.34441162766128974,0.0527775749408764,0.11833643335064595,0.0613331235890236,-0.3828721004658336,0.07148566359280877,-0.025578397865765812,0.22348410339710056,-0.43918587891218885,0.17664385411222389,0.07145961416596958,0.19465636973381617,-0.0978982934247093,0.13932939899501667,-0.06500584037595136,0.16974096583876874,0.030855400209455937,0.2095057434352851,-0.20082651460813455,0.15669203588171499,-0.27053149246257774,-0.06354406962656736,0.032306809090073864,0.0708445610943507,-0.25445377180157275,0.042024392872926974,-0.08518678363504745,0.16565578315193016,-0.27653102721439193,0.14367224046205776,0.23799105173059187
0.14096970498520756,-0.3685015459451153,0.1004620019418663,0.08176336355191441,0.17379061001830512,-0.40495799637339636,0.05053700267348463,-0.08351122178259685,0.07829639580084358,-0.33199682972209454,0.14341965719520322,-0.1363752211277252,0.006859957313732304,-0.30848077236798427,-0.011497998597094855,0.07294135592922238,1000000000000.0,1000000000000.0,1000000000000.0,1000000000000.0,0.21094943416374562,-0.11013416006577828,0.09955866883153487,-0.1308719098543408,0.2484540330953894,-0.24667417096369576,0.3122876016978029,0.12615443138410382,0.2962563446312304,0.08755994672687381,0.2719805699793618,-0.17199246211592062
0.02544696645394237,-0.3537656997178328,0.08900661948250983,0.09703890302835935,-0.003568191524513209,-0.26273947742162607,0.09959922595184512,-0.018929852282684026,0.09773256893420612,-0.2968749354620345,-0.0861460602555239,0.024648457171883884,0.06554118050571095,-0.28707020115088744,0.05266440067659995,-0.0851568418973978,0.24029501889670296,-0.15492825853242387,0.19191849454485968,0.07290793184726135,0.09043937371913802,-0.2165843483707901,0.09893048052870693,0.011788053812070393,0.13912950595627865,-0.32341241252002007,0.015071916091848214,-0.01756848935031608,0.117182177025765,-0.14593063040752308,0.017388836696459187,-0.03681177564799473
-0.0036785293748881343,-0.31528954502877715,0.09073229066097847,0.06340524805771774,0.35405211840855766,0.22191922504975214,0.41803657097277214,0.05295362168685459,0.13037207784221166,-0.34047284136440775,0.035191187874853286,0.04241351844927487,1000000000000.0,1000000000000.0,1000000000000.0,1000000000000.0,0.060520846080929516,-0.14720774949328808,0.14905822315988784,-0.1442111843918979,0.1772825696365107,-0.3455107549445711,0.019091038498334205,0.014348299064731507,0.08940695188182465,-0.3409927017707929,0.024949994578500785,0.0009428336098930568,-0.002463977170892029,-0.32838167475547864,0.07923568685740644,0.04683300588219692
0.09567571863674076,-0.3788502666416961,0.06322271354638917,0.0271841582803126,0.17185977108684847,0.03486994771063572,0.24810851613614796,-0.24141370361534956,0.1907223865195002,-0.35529516946010953,0.13375807844426651,0.08037361355873547,0.210516955034212,-0.33095801136962194,0.16164804559061266,0.12445739990385397,0.10451284028268829,-0.31284471052455376,-0.09750218480267683,-0.03509994202955281,0.17413721219769734,-0.3786975234498665,0.1621967121079123,-0.10369085143322859,0.11085764853185684,-0.24056913597694118,0.08315216188970448,-0.1345984500697806,0.021080302961765725,-0.3367530682127301,0.1317414295125423,-0.004413240729922045
0.006042581045281742,-0.413559475928029,0.11856827163038619,0.00632333692772874,-0.011738478965723914,-0.2925680535852174,0.08128760819893768,0.008069970633116631,0.1948705429905231,-0.34133401967680765,0.12618612138974444,0.08908289031141395,0.0695564522013101,-0.28902254543610684,0.03919267761350326,-0.1292204680167292,0.12889227657499538,-0.3620167249482864,0.12069489407967451,0.03966559649988785,-0.05485609314858532,-0.3888370058474668,0.11725932600088342,0.056667174593972316,-0.0021904761640331033,-0.3363513032988353,0.09568880404956356,0.05236665422798767,-0.011945815729137263,-0.3061142298848457,0.07949143679138973,0.09075342790556436
0.10705322055939023,0.026432072357904207,0.21095717279002377,-0.07333176700335292,-0.02065749155948096,-0.40941434989379044,0.09426096727719135,0.0400352608874911,0.017469580593724887,-0.3347500166941105,0.08886058638098857,-0.04587754596335623,-0.024001177261387938,-0.3014008205435076,0.08934585126077343,0.07607152741205951,-0.046385116871374886,-0.39501989589813824,0.11873830806823346,0.05022473055994761,0.17402798730514152,-0.35613331314288155,0.0992859439915985,0.14851605100725856,0.17794882103547902,-0.06157977572434584,0.242629301831164,-0.20196214527887174,0.1602146949003586,-0.14488551747892342,0.1682622431269597,-0.11366846656166256
0.010438343853896623,-0.29297076191701843,-0.12536488604310628,0.07924726818972337,0.09479794068197414,-0.12693750451782415,0.03671298619670696,-0.03281146547376247,0.012270524494782928,-0.33558122089735487,0.09745814529689137,0.03803451924980729,0.13407492128135592,-0.3864334414149079,0.11928668862073724,0.09871719370882821,-0.026366796304374135,-0.4071277565714452,0.11736404633777453,-0.021337100622675916,0.11517685009457951,-0.3317155318984391,-0.02012600228394211,0.15712344391795008,-0.0508378314860885,-0.40199131362537605,0.10912029353554178,0.01972191547256623,0.13722496542649926,-0.3308732351960648,-0.056224116137554084,0.028384533853672986
0.13903287117542193,-0.3730726627934563,0.11786862622684083,0.1954758050681325,-0.028247261313861557,-0.39552145629393504,0.01899209371852284,0.03561595637150144,-0.011631683313724397,-0.23775864400547633,0.14211603330125483,0.05712826796333809,0.20021306500483618,-0.03854557408468276,0.1328219913748775,-0.10402510853915818,-0.0042609290727940174,-0.27167188356463456,0.09636423140740023,0.07135925077018132,0.0003214389151649927,-0.33370673059852185,0.09869535767158516,0.051498223299848,0.0004500241737320221,-0.4012591582667534,0.10248275625076698,0.0630481944245704,0.13227380912925663,0.06666623475712935,0.17460609908416375,-0.1291924526163354
0.04935767725331886,-0.2767402398911635,0.14986327284381026,-0.05774331330986195,0.06109002977467774,-0.38974830195341403,0.04642892375125901,0.02844577580895201,0.012668287998177229,-0.34220337276241025,0.09403963627859713,0.11747281205206747,0.08452853024424484,-0.10520125561090539,-0.017618616548569555,-0.04282614570747996,0.03377955372692398,-0.30651420976484944,-0.02883898315923758,-0.011220373908858404,-0.006653847757858045,-0.32137329867898473,0.08498812623230684,0.05310577422792208,0.026492889090400165,-0.3187290189647513,0.09940256354866656,0.06624641473769698,-0.05232899015491136,-0.270998584879656,0.078671480377146,0.04366456151937199
-0.03360732425797191,-0.09071064532120819,0.049463600712456285,-0.02022298773178135,-0.02458033451001182,-0.41169799617848535,0.12007952366985775,0.003361068951686072,0.03078479652468647,-0.30066110113658007,0.07018642007121283,0.040463646383574574,-0.002730309165611053,-0.3176713910124547,0.08798821755843611,0.05006752211113233,0.14492641923431554,-0.2869260754430597,0.06646955643138808,0.19522341927109543,0.009300641039566543,-0.40525700425096134,0.11801047507116011,0.012467852647877482,-0.001141517874764686,-0.3214490489027993,0.06669378179646546,0.06973651553101172,-0.011476793981271785,-0.24222300875846653,0.08005211199652586,0.006261050432964939
-0.015400174503230904,-0.31080024478116564,0.07022341913105033,0.030367962036987283,-0.006862365745828547,-0.31807067966064906,0.07731706496004749,0.060901777477826796,-0.003406347980522806,-0.3132149236870643,0.09829129836858211,0.05602350698583206,-0.005902590712890385,-0.28714274892956215,0.13297642546601865,0.061794764532083046,-0.017020191156703432,-0.2976076580366577,0.0790050237797929,0.055236293054713156,0.21397989581792998,0.01767082668438845,0.2700446471806778,-0.25757364120855075,0.05027378560908292,-0.3182071914912735,0.050778284869914064,-0.011372842340162732,0.03875840314301376,-0.2792563311300691,0.08054845161843263,0.13580694187246717
-0.01110860525567145,-0.3953657625825473,0.0937503740611212,0.052459928346731265,-0.0015029960249560298,-0.2936700850143124,-0.05097609617210065,0.081414275944904,-0.0001825526996550586,-0.3121464968021225,0.0872533731832986,0.038541245404827666,0.09133115222880739,-0.2947182654030654,0.05876214989142478,0.12937948097457186,0.045443172540296756,-0.26267413311035764,0.00418768822746321,-0.06077852668802321,-0.0526676351206737,-0.4009276304551763,0.147794634936752,-0.09305535529381885,0.10730147283669297,-0.2005344834817963,0.04784591328253014,-0.024332453530085178,0.1095216632652897,-0.28700906265328063,0.06931986418599849,0.13376384622320855
0.12258198200745439,-0.3334976926944181,0.09789776373413106,0.0833014223059965,0.048782241229190615,-0.33362319274072827,-0.052087942158526745,-0.02352761556164571,-0.008567105086606727,-0.2599264946058063,0.07192615845455134,-0.018301174078899612,0.17857900318408626,-0.2801231230687405,0.09947580107830178,0.058015908344395864,0.2501134579335512,-0.2885013645984704,0.20404016139656003,0.07449254833338446,-0.03106732618899713,-0.3965322884886602,0.05052262407284719,0.05013666973284308,0.0768749665367291,-0.40240878206111963,0.13618078886071033,-0.10261846494993973,-0.017606011382275535,-0.3012987719190402,0.08403189649855355,0.06819842777622634
0.2976066250612445,0.09755559151617671,0.3032470900972409,-0.26518835833705995,0.12198160978389763,-0.12309500046522356,0.19150386449610438,-0.1909539749181841,0.13158645667692492,0.05243953796843385,0.21073389194197756,-0.10396492361664167,0.04948659990881493,-0.2650836617623849,0.10454978791488148,0.0026766604160328514,0.08128583663829927,-0.2558497582411131,0.03630634647089234,-0.08611032275826477,0.13619029016146064,-0.3265192753169406,0.021803722628218246,0.1898573048280092,0.15197834182828002,-0.3231146696119874,0.026595874175363972,0.17119159100710235,0.35249483595504794,0.018878412786900667,0.36580735856065133,-0.13557794524250544
0.07789412128214179,-0.35389922229846305,0.04346520304723865,0.022592669244515442,0.09618911917429242,-0.17027141830748974,0.04964618233954382,0.013848415636516571,0.11935628179782437,-0.23209016131211307,0.06103028571960564,-0.10429406082758712,0.06088269425605549,-0.31656698986400555,-0.07820328687255151,0.25391935871414606,0.2790201635019844,-0.0029451040800218403,0.30327908129446585,-0.10420035133011775,0.12640391975369183,-0.3921429843327264,0.10597333650701668,0.0815871134887409,-0.005781487455856701,-0.3201201834439278,0.06861277318640913,0.0407012632237955,0.23753643044835934,-0.0036113755894529864,0.2616885010479954,-0.13664563550649292
0.17094898331981295,-0.09323644057885301,0.10403829357867031,-0.1245022607548588,1000000000000.0,1000000000000.0,1000000000000.0,1000000000000.0,0.14686021958153128,-0.20307222103450004,0.016340511135906226,0.1975487196860285,0.11812754806587758,-0.3120979176067833,-0.004866866446941377,0.20937666538575797,0.17600653949155076,-0.018507776784604017,0.1299562243669504,-0.10550988261965423,1000000000000.0,1000000000000.0,1000000000000.0,1000000000000.0,0.14090395757026064,-0.3822968406609504,0.13069379117379815,0.11922441046128299,1000000000000.0,1000000000000.0,1000000000000.0,1000000000000.0
0.06652428191218206,-0.16867841853348553,0.04269566738171487,0.2502527460252364,0.09083112299843585,-0.13361732267161888,0.13821343052839302,-0.12817278929628304,0.158724892449716,-0.39524228962584906,0.14320511809480585,-0.056187883242183614,0.10334521957368087,-0.3174538851501715,-0.003495796591485037,-0.03342811550198262,0.13089286095311378,-0.2645020473686066,0.031454565484011,-0.05959383358144385,0.06319733904761009,-0.18096936006716752,-0.042863154349974,0.25373171773785885,0.2278648189126556,0.17228675392291018,0.2895254007692141,0.2348584837166498,0.19419902880389403,-0.014818704942222552,0.10787188663213475,-0.11242827655271462
0.0957306236557218,-0.3208827918527145,-0.061671055411827186,0.019562967240209794,0.21245368820237848,-0.265651541542338,0.1455072053132723,-0.07744401038206948,-0.00985930855694904,-0.3149628159992841,0.07144859584690991,0.03170128466794446,0.08191795372749096,-0.17864164845386662,0.1437628867839038,-0.10894469265833893,0.11816112544321788,-0.3232868477050179,-0.01989215848810727,0.22143560678661892,0.21186466975645668,-0.03727834677624198,0.12495487569129941,-0.055954820877785,0.18511815359065414,-0.0742244944038897,0.09428768437549706,-0.14112254588930473,0.1955946464422767,-0.11183652987932206,0.0947218006703159,0.04018051127032365
0.09439541525608616,-0.09041451792731282,0.06261315576674335,0.22320675075195034,0.07500561713399935,-0.14086274283482697,0.1824307633151677,-0.12896695711384093,0.16712395574361916,-0.31852622406868714,0.054952228267399796,0.20107887330359708,-0.05494590943665181,-0.3857493785069337,0.03586003987446708,0.0719581444180875,0.14182268340467588,-0.012976478911743472,0.24771049322161398,-0.21897860138047723,0.10258035481052319,-0.19364818012025822,-0.005009397764242723,0.24162988754035117,0.263386560212592,0.12299264336134433,0.23426371515337027,-0.17565015497864778,0.13128773182486073,-0.2914531573790731,0.013804616986817855,0.027369056783481376
0.10849768574502625,-0.20548296138644254,0.02531637265671055,-0.024151969882800467,0.3249604093283397,0.14075953897544496,0.315691224489845,0.11013475535527356,0.16041904089819775,-0.11672370774249845,0.07599959490843351,-0.14841144639249787,0.07502836863916343,-0.2749991172217536,0.04300563794513728,-0.12416714244503652,0.12730450114385064,-0.2499459721005431,-0.07653776417733815,0.00766724419087942,0.016829242177712714,-0.29327268927343986,0.07113943541303192,-0.117402352630535,0.14700613881668817,-0.09278458114072749,0.2307935621549732,-0.11259184270087573,0.12145828885559745,0.029655321958520806,0.20987420577840202,-0.1643094693589915
0.16423348102527582,-0.14467864322069243,0.0814397672079361,-0.03494170608003462,0.15590733309208216,-0.1955971028091944,0.02428760097813934,-0.021463185766515427,0.13477343319517124,-0.014544952452962088,0.10650351868278088,-0.127660624463324,0.09864288172390179,-0.1390756654522716,0.022639192898120997,-0.009802448263561851,0.1573828380368209,0.13232560178275837,0.190195397261694,-0.19200181330432414,0.18588573669537845,0.06333378895780004,0.22211355889710221,-0.24355942556848187,0.203583661983161,-0.19346351314086108,0.005155436116075177,0.24767414683574868,0.14347976823142253,-0.24981096987334478,0.15087766753903348,-0.0930552192880385
0.16492233848877788,0.04238614842085438,0.05452869597161378,-0.042710865097672274,0.1915209961456765,-0.33621428240859547,0.20048143336431187,-0.12598204720145847,0.10303697433695475,0.05555039598571303,0.19959620114004706,-0.08996707111544756,0.08890536098772481,-0.17950988061743683,0.15747442705456507,-0.16285594590251098,0.18438310683528228,-0.07291990674140286,0.12114011285301354,-0.1192362648483544,0.12961885272855672,0.04929052004745609,0.0312800577948867,-0.05124715589236205,0.12177662554851054,-0.30281072176668655,-0.07438851921079902,0.03568601795517365,1000000000000.0,1000000000000.0,1000000000000.0,1000000000000.0
0.08648839352630483,-0.2229273110276137,0.1429885377414376,-0.13008862182188238,0.14311286187554947,-0.15850527990496197,0.09383729376517397,-0.1357968761761204,0.14116755793540925,-0.2954312028631862,-0.0914144927514125,0.010083513025863779,0.17999301225570008,-0.1197432023710807,0.12537649312471172,-0.13750767942645736,0.12237257361914838,-0.2532419190893585,0.024317007573790933,0.23875004632403615,0.0640067742726813,-0.3053966573134391,-0.013022946130461482,-0.10477609497659135,0.11521717162722021,0.020525343874151752,0.14098592421542067,-0.12234710681944677,0.03813605723089513,-0.31489936621949427,0.016688544978295167,-0.10144494269107018
-0.011228062834486907,-0.3026712542884531,0.08843309310841982,0.05716193763928215,0.08554111498824711,-0.2185898820344519,0.06305059710059308,0.020755762328586398,0.1661665223063593,0.05657955108584739,0.04528480533686083,-0.03732227402977257,1000000000000.0,1000000000000.0,1000000000000.0,1000000000000.0,0.1310004609930235,-0.3232181616806109,0.008162751675697822,0.17773842659048253,0.10735364516358406,-0.13789605686003925,0.22081163934926795,-0.2821171455253074,0.07619630259241642,-0.28353792349428014,0.025728093466581156,-0.12335375445210281,0.11230336470927355,-0.2133086771976026,0.07469300825407743,-0.07862944210163028
0.11757019037595748,0.027282303094207226,0.16233867511565048,-0.06791243540175584,0.09500398382005393,-0.09505390322741339,0.019506024393548732,-0.029396596473189263,0.10517593068244022,-0.3038980023754071,-0.05319722839044622,0.006138764329036982,0.1487697499313262,-0.1426771060157079,0.2370540356538794,-0.2348224866633029,0.19615585409704078,-0.1679424919132308,0.13401662751429605,-0.13098391264133982,0.08952421926405005,-0.1956421269210072,0.1429544911245983,-0.0969784784213859,-0.0047269044338368316,-0.30956679727944314,0.10430948538795151,0.024890232929602466,0.059793718621925854,-0.04189111596780354,0.07845140972010627,0.24858956992747147
0.11073626241617406,-0.22154708699734227,0.027372248204788244,-0.09302319608136884,0.053884413688825884,-0.3044244671547388,-0.09071261530759381,-0.005656463660913571,0.12644990703733638,-0.34351158005973015,0.12144792790703016,-0.005229243375554464,0.15198862951851091,-0.3124772463214203,-0.024682699182804142,0.027543839557119733,0.10339899545524991,-0.3498061809396916,-0.030329538488207658,0.03747827589304286,0.06673630875970152,-0.2926146878795736,-0.09060954409784334,0.03515252308757914,0.08405482049296367,-0.3154344021705068,-0.08682490478692717,0.1648112873411836,-0.00257516351584125,-0.2979994891929356,0.09968462591020213,0.060668247544836885
0.1799004610613094,-0.26461581572572224,0.011632268006006453,0.030588438883487303,-0.013595426080042633,-0.260940830572508,0.05538221437599,-0.020727004690070175,0.07304123497518955,-0.13665459874797617,0.16451833325346882,-0.07049503044146543,-0.0036904104963818435,-0.2968652323218136,-0.06060220845655894,0.07860250035684815,1000000000000.0,1000000000000.0,1000000000000.0,1000000000000.0,0.1240821443279706,0.0705470823168929,0.1893886758657748,-0.0699279749526437,1000000000000.0,1000000000000.0,1000000000000.0,1000000000000.0,0.14770472126443587,-0.24843628882831126,0.012686948985025641,0.19783607495117048
0.1488516717988037,-0.13637722075890696,0.06688756048650589,-0.04122028940926663,0.13628539524384586,-0.311200784453444,-0.10397340053895653,0.033561534113709754,-0.04948127122830313,-0.4000517351125593,0.12625419292942866,0.06510695872135396,0.12748431294066145,-0.3636516867625351,0.1396160510743767,0.04229926681234454,0.05644018155591432,-0.3256236987123161,0.14105262627967727,0.020778829990674486,0.16346922793960883,-0.030534044480780696,0.25556223991353033,-0.24919102237444504,0.07168036274110307,-0.18210842223050522,0.1378852062649778,-0.007113863909583809,0.1192080507471857,0.08395737093599326,-0.0050933479193718545,-0.06012184637589331
0.14422777056765615,-0.1707456543017919,0.23657081043933792,-0.13017976762854547,1000000000000.0,1000000000000.0,1000000000000.0,1000000000000.0,0.04645125359914158,-0.29720330799039874,0.1490787481354801,-0.03754628341189271,-0.023528736695955996,-0.2872266369933341,-0.04823167404547969,0.07538136087886597,0.06581164248098555,-0.27578981672866004,-0.004522740090737443,-0.13129763952483448,0.02684918581038276,-0.3395653807208419,0.028866420575189733,-0.13381294742170696,0.0711517635976719,-0.21305579659554086,0.16089589742452237,-0.059655659567629346,0.09566533097312599,-0.29960175924057664,0.026753492943813517,0.15737725885622394
0.020697178743998276,-0.3147395895373517,0.08902980731158597,0.0598790181919068,0.10688402173571217,-0.17905193419922444,0.053341701174617305,-0.00029827332898328673,-0.012429409050396883,-0.3166909560170701,0.07640833694473824,0.0610859005088069,-0.039672726353076206,-0.39707112540204914,0.04143160666884353,-0.04164404211579535,0.07037567539892312,-0.30054752016437175,0.05889890350850181,0.14949411531393803,0.09435090080100558,-0.007017115727730897,0.1915240051063343,-0.20236052492040701,0.15731895940235816,-0.15828628298096709,0.07339061722659843,-0.13949177307289823,0.0769241702650306,-0.24437022016823418,0.02542666012604608,-0.05893732575092228
0.042377974298809094,-0.3859614829760388,0.03923824251901405,-0.04702282875606146,0.1086107305980657,-0.24571978267858804,0.04610965185771601,-0.047826040386311594,0.13477777169886365,-0.3207061433430113,0.011902990724849273,0.17326550217727255,0.11159452835679994,-0.12101140639441403,0.2044476270631021,-0.07593026481530202,0.13710916672251733,-0.16302321721208915,0.037427985112318596,-0.03369415026048565,0.019860914697677312,-0.31417408573735606,0.08155048121757934,0.053493144272816553,-0.013246887886100123,-0.2865594054753269,0.16790964171876105,0.07617144782766003,0.021836644903586867,-0.28836689830860907,-0.05316661322848146,0.08155498943186133
-0.009581170691644991,-0.30721403525547364,0.09554288372262328,0.09181467415177824,-0.01013649070116901,-0.26132182993927533,0.10281777027742144,0.055120476857487694,0.07033765581521946,-0.2923478013813478,0.012956919252921917,-0.05640262746659873,0.028877334979064383,-0.2992397330894892,0.06996218714029245,0.026561480484100095,0.06278407488487361,-0.38460009375392157,0.03908924984654866,-0.0702328840516473,0.017757311090612668,-0.3005188746414767,0.05528938531262212,0.040243845632629824,0.03408672293826659,-0.34797870802854747,-0.02204162224213123,0.0372267246770719,-0.016051160679542903,-0.25416024252485697,0.11830072051879684,-0.013273960634143343
-0.020323947427241168,-0.41563481639837097,0.11077421310800828,0.00410061198364603,0.10779944654451636,-0.28516532647925463,0.06831945720721926,-0.03145085065919255,0.027906412910186997,-0.286136778377973,-0.12012403514827905,0.07928474605654531,0.002346646938421418,-0.2910884016201526,-0.12400663107438478,0.07769962972479505,0.09733750361564855,-0.3756549728155456,0.10039429277031861,-0.09750390417849335,0.11834775487667154,-0.39541028586358307,0.05799007115533723,-0.09869877057101069,0.17365347198753434,-0.289516887932318,0.16044355123539777,-0.01884845985288739,-0.005070047169871694,-0.4056444229772058,0.10873240489202848,0.059361186181014956
0.14323465138026342,-0.22921613266023183,0.06389992615258613,-0.0527662708792179,0.007572443794797795,-0.39186136285890527,0.010947011519716526,0.07225920154687476,0.08401834300139485,-0.30090875118706356,-0.07753610160187106,0.02634272551095781,-0.0033046124815188094,-0.2870325450108312,-0.04478152662086242,0.0729574668434275,0.03563981534161813,-0.2822626016701984,-0.0028769200011736495,0.08056179630017256,-0.002758410520753693,-0.26205845663896776,0.1680293988093344,0.06229708247938347,-0.0029207197552375413,-0.3063819397037433,0.08580140325706807,0.08084533306563682,0.08153850453918102,-0.3915069131484389,0.06737759945972051,0.04342517848196678
-0.00795316351048228,-0.29288896879855686,0.13056274075696886,0.06837511621012163,0.09041858290960647,-0.24041242224247933,0.06315461643818535,-0.061879758725503026,-0.009162024966025903,-0.3187219429098373,0.09153093746261894,0.060128587044127386,-0.03710581136578519,-0.3855582501114406,0.005794694324327471,-0.06845851639718961,0.0746333208362795,-0.23578486482468844,0.025706644401004092,-0.08725766089554923,0.014943865832804458,-0.3153591078248622,-0.02015440113731788,0.074331534894541,-0.03746929069615278,-0.22264160426270801,0.0987950605967928,0.017828408043002737,-0.04004535019019563,-0.3850769227327936,0.05155577092716904,-0.06606116906482999
-0.05140663336380426,-0.3858739414782453,0.062373555174853795,-0.009989623931872117,0.04623832513821158,-0.2771318155255947,-0.0682133061370865,-0.12622519645935215,0.11511986879562128,-0.2503885586253319,0.014306935144478505,-0.13176425367276284,0.15084133517048218,-0.09298773449027768,0.0407690024522723,-0.03801235341743581,0.09559422932952819,-0.22704765669850438,0.05534006758410659,-0.06244410858655064,0.11532227752501992,-0.2055781879855026,0.06517943787039494,-0.04817506676804838,0.07789145417816237,-0.23587432774959788,-0.043173629312871206,-0.08898015932016579,0.0931685780229386,-0.1057357849889617,0.00259215120744255,-0.0017038324418037348
-0.06807688081380579,-0.38924122172550113,-0.0055430212645299765,-0.0370060524573365,0.06355994310722704,-0.2661218578295613,-0.033567305886805524,-0.15101336119333858,-0.042972218263019044,-0.37826792622735195,0.04423641537261487,-0.07433085257033079,0.11249931730165694,-0.27739082697488765,0.050277712618593234,-0.048054529265311,0.0711883084522693,-0.2543700426990222,0.01745180477065028,-0.14120041014400062,0.14412049413394087,-0.1409717857227,0.08155209199190716,-0.0809493687035353,0.04674288286364726,-0.33080748005629235,0.007012832788119386,0.0075876458831558025,0.10630116466826897,-0.24705663481809378,0.04794879439936713,-0.13835139748165565
-0.039657015470465413,-0.4029736100552833,-0.02481994215705341,-0.11681126965884912,0.1348756139947265,-0.27134966958878537,0.06786631730462238,-0.10061121798726774,0.03654751234107059,-0.28284371625753624,0.005125957033557851,-0.12516881583579945,0.06973412369439644,-0.2507282744810221,0.03283093771541637,-0.021393129059525284,0.07705927070966027,-0.2508844001732844,-0.009518513903144274,-0.057352476225083424,0.10348838969057246,-0.23395218435242365,0.023115784282947763,-0.0628933264808244,0.036179254569774534,-0.2674678359920205,0.036608775451458964,-0.014190673096540596,0.036154187335136236,-0.2776936053241364,-0.11524772193109367,0.07871993700207093
0.018567397619574426,-0.32662647844785375,0.0808577640504695,0.03464796519101034,0.10994502675500596,-0.2935406376056017,-0.057547403975178685,0.02693170461642072,0.13238002023199968,-0.15649763173998232,0.07356756601763115,-0.025895704129214957,0.1294818834189542,-0.15923430164237548,0.029342937629706176,-0.02856260011491508,-0.059540957764723845,-0.28139472267436993,0.12066413942018664,0.06494740642443587,0.07571581998414498,-0.20382389044303445,0.15650375564288388,-0.03149844393461111,-0.04191642979318095,-0.36348375664160554,-0.038922285825774144,0.06911218585387408,0.08181591966723689,-0.28308287335610344,0.023037060229243414,0.037701906124571825
0.11136194928420884,-0.23108752098957397,0.06952804135110546,0.13949504102359048,0.020927461215757802,-0.27579642754064404,-0.07869090975818303,0.09309451790872969,0.03242918476269105,-0.3119125593991344,-0.0166840398851245,0.08561534953522415,0.0017355694437638652,-0.3016360967499516,-0.12443261594531121,0.08220543043252507,0.022021813996413307,-0.2869612640798398,-0.03837810697265416,0.07327832084677803,-0.014603743697837832,-0.284480384354504,0.11857698772001028,0.047676395647032764,0.02685070652316527,-0.31830031432447153,0.07638860010836764,0.046660345401500394,-0.03199312200619241,-0.19339345181976636,0.04551671832920379,-0.1228424960669291
-0.004761072014361448,-0.28504408740742415,0.13650619421692745,0.05731621798908986,-0.022018333853957336,-0.41251012294166944,0.08712932858204908,-0.018713814691190885,-0.003976210445022485,-0.30874747810758724,0.0626710956117248,0.03748701982215226,-0.034634521778086666,-0.3940514805465278,0.08965717459845822,0.05526644201540151,0.08755076448951717,-0.39855876717982797,0.11524589697748366,0.06139602843329041,-0.00592316545533407,-0.31560573657747026,0.09267403278071887,0.027785397183625188,-0.047671089694393334,-0.4006487332829753,0.12334679607458571,0.006641788191546857,0.08995251397863122,-0.31214840604652494,-0.08234560918096367,0.17850802848999703
-0.05211932859347868,-0.38950647577370023,-0.03577501130742619,0.07448144101646718,-0.021813014675249758,-0.2839841502360414,0.09700694308200111,0.046996101962561314,-0.027352084978424646,-0.40381347549893626,0.10046120832599939,0.046609193976801924,-0.04112343388836007,-0.2794098125071328,-0.04800823332952957,0.07220549292440395,-0.017257995817873906,-0.2370804153286877,0.008439242923820811,-0.01978802893857283,-0.014186181003304765,-0.28898785307218466,0.15281940433153213,0.07242503522662928,-0.037559655308018546,-0.3936730707086482,0.097716004604394,0.0631759577504936,-0.04857527546466206,-0.3971662218253193,0.07502798653401946,0.02369449772758117
-0.04460266256661123,-0.4019521368407919,0.12227592900046884,-0.016124459474395496,-0.02328480639147769,-0.29654817105448794,0.091302307158639,-0.022236841388252777,0.08689294520106375,-0.16131418555036992,0.021371922060681087,-0.08041856987495834,-0.056811807909437954,-0.38306851777288764,-0.037810108403655576,0.06337231292617064,0.08045462268069814,-0.1724790955127316,0.10510271493611592,-0.027397023910982345,-0.014302610026379753,-0.2901005827182028,0.0589299077516221,-0.027730287786002145,0.024584661406477484,-0.3008762405995305,0.07586721308646929,0.01773937014876728,-0.013087741048325968,-0.26868934768459246,0.08815368449467509,0.04920015083245979
-0.004389223019763092,-0.2794624376777221,0.11169828366393751,0.058994533195635926,-0.049547736537654916,-0.3988367986316079,0.05491525990550636,0.014617337289409511,-0.049588765808426374,-0.39270640544527347,0.12457530883501586,0.032462049829522104,-0.05268384942167909,-0.3988393904247646,0.12079583658813096,0.06872636739684107,0.09481669982440524,-0.18230970333687518,0.047645602922862865,-0.025963729168880616,0.04594329406922821,-0.24555549447560082,-0.005987305159041605,-0.15505448176851377,-0.0005761749578472031,-0.31694876388564774,0.00485000732998328,0.06802379113751875,0.1029234650037235,-0.2981085064358439,-0.013394051839066223,0.17237709464173323
0.08937863563088724,-0.2442516071368855,0.03591034671062509,-0.14559146786788646,-0.052276278287094205,-0.39034100670194627,0.06845191710496928,-0.08807248255008,0.10929222659425328,-0.2956868640464587,0.0074566050596862055,0.029221229200449922,0.05497045861840996,-0.2751482522902574,-0.11741179074602312,-0.12664269603910794,0.08231070522968019,-0.25328043693482455,0.051123634613698815,-0.10733029442428818,-0.050289307096178196,-0.3883419564864255,-0.01646227962514922,0.06897706478879853,0.024887134097566398,-0.27977302284550354,-0.07472012261934603,0.08408585326997066,-0.0021360357644087946,-0.31722192899172685,0.1046166011695108,0.0583322941861885
0.04348638825006398,-0.2886351229561366,-0.1475386773090626,0.02934084390392166,0.11494335254262418,-0.17834361738602628,0.06372508198757612,-0.12804640791103422,0.08024308156357203,-0.22230670018457796,0.04060971657275894,-0.13345669189015597,0.05905453311386165,-0.28949734182988895,-0.13748427508707328,-0.08330165431671212,-0.03283584041691007,-0.4051876485812647,0.11643830032466576,0.0018491973171685452,0.10281769697539317,-0.2560958772856053,0.03252337166986558,-0.1075374564582843,0.057300885252449446,-0.28780882652858863,-0.140489510163377,0.012970011115311736,0.11883726373301753,-0.2634632851652429,-0.04765334568657785,0.005876527572191679
0.05242733133463645,-0.2913041782379628,-0.11269003373200046,0.04289348285987802,0.012322643915168505,-0.2815892216527173,-0.14391613659369962,0.08487267724356053,0.12086089230328918,-0.2607417859245334,-0.06321286912845407,0.016224195603139722,0.1047303925711509,-0.28556433936239645,-0.0924514181082202,0.009939668452649292,0.12261118217008013,-0.2778839198026048,-0.06804958528161288,0.0015647519959796213,0.03845743704248193,-0.258568445819513,-0.12051825678991071,-0.09646834362356257,0.07049964471411377,-0.3879950216383103,0.027202826603855396,0.014567961021426205,0.15982946763137962,-0.2186202735605199,0.06676636944299053,0.010206918735455919
0.15387147262731746,-0.2755408939179761,-0.036976503784402606,0.004834048217364023,0.04964004942077595,-0.2618080969398198,-0.06470578670164692,-0.11213671864941768,0.12486485205338052,-0.2748311342651414,0.024193168284947518,-0.015574028297774734,0.16761629739547557,-0.19859067732157068,0.01627628542256028,0.17810560786655727,0.05357066757437099,-0.2960074837802413,-0.1474114177206864,0.03456288762217666,0.031046750293174365,-0.31283451305664667,-0.06543140499293774,0.03904293441622021,0.07754398070966698,-0.27293517079384283,-0.12989875966917988,0.00829497631453096,0.1235600681208924,-0.2823836610686858,-0.13455244401998662,-0.011709004151777391
0.08190525227329087,-0.2251614641098742,0.027166051953100942,-0.09209504053162154,0.08247264092127884,-0.2731875640807076,-0.035980032323504024,-0.006648422543946295,0.07790791655820599,-0.2906943316883363,-0.11138973001117812,0.01736587515647351,0.12903914197107164,-0.24666898960581773,0.06684205211521138,-0.14406417728934046,-0.03254757842701615,-0.285020960533758,-0.02795070874908076,0.07169377840392993,0.04161526983599892,-0.38383490543215715,0.023287300844323455,-0.08681631716165836,1000000000000.0,1000000000000.0,1000000000000.0,1000000000000.0,0.09731194139727425,-0.27734810742368377,-0.09930597721960954,-0.01776624742660498
1000000000000.0,1000000000000.0,1000000000000.0,1000000000000.0,0.14524084321028494,-0.25820885431214213,0.08422168818777605,-0.10303219480380968,0.1710251064294255,-0.26241125559214307,0.008820136072134489,0.030174079464247404,0.0734126522625328,-0.31643844511778996,-0.06768949011882924,0.03566308129287426,1000000000000.0,1000000000000.0,1000000000000.0,1000000000000.0,0.0646716314930906,-0.31347489990111305,-0.0853115955670235,0.03522061553694692,1000000000000.0,1000000000000.0,1000000000000.0,1000000000000.0,1000000000000.0,1000000000000.0,1000000000000.0,1000000000000.0
-0.0047520119853778076,-0.3214653152038274,0.10389365350637263,0.0994626253383116,0.07610816893168489,-0.29167686656531394,-0.1048807855573498,-0.0053874694604191965,1000000000000.0,1000000000000.0,1000000000000.0,1000000000000.0,1000000000000.0,1000000000000.0,1000000000000.0,1000000000000.0,1000000000000.0,1000000000000.0,1000000000000.0,1000000000000.0,0.05385925351935071,-0.29059820814497517,-0.1316801453385199,0.01535500499296032,1000000000000.0,1000000000000.0,1000000000000.0,1000000000000.0,1000000000000.0,1000000000000.0,1000000000000.0,1000000000000.0
0.14077218391513824,-0.267355789983572,-0.002303870176407527,0.01912167334251936,0.005896806290697054,-0.29421671211769745,-0.14329422636719963,0.08489824361720219,0.08690708769612515,-0.3052497227544707,-0.01071876009872065,0.035425592281497345,0.03236346516042414,-0.2909008182360928,-0.14146426650182076,0.03319519412855067,0.04565482778528708,-0.3037774165400231,0.06831130104328993,0.03662684323867373,0.06665691508711755,-0.277554009913391,-0.12854246843135858,-0.10968959300918915,0.01833734914433792,-0.30913833285196624,-0.03399755030176202,0.08366359147915355,1000000000000.0,1000000000000.0,1000000000000.0,1000000000000.0
0.11682820407267283,-0.28580943180833546,-0.09804567397466973,0.02348114757736617,1000000000000.0,1000000000000.0,1000000000000.0,1000000000000.0,0.051312580331644285,-0.2945774513333175,-0.08027409174200738,0.02974467916580048,0.12227316758787721,-0.25458930921141654,0.031776738263991355,-0.13276647829610067,1000000000000.0,1000000000000.0,1000000000000.0,1000000000000.0,0.024726169642663595,-0.309623371076103,0.060262577659353195,0.040567108257893204,0.04214911495607229,-0.2844313709755639,-0.07549094680899371,0.0821522258258639,0.047199862128992964,-0.3185306389587679,-0.053578882381310394,0.03450428712240437
0.09098306734089237,-0.24584804836363325,0.022191123868738047,-0.05324575430773608,0.0625517906369572,-0.2798996725425855,0.027059806385480348,-0.14399568206518,0.0960074114213895,-0.30405716664711563,-0.010891664920058476,0.02957970756428519,0.015304364711449539,-0.29087989356891686,-0.0707640624102839,0.08495405931327964,0.07577770786319699,-0.28682597785956837,-0.1243090200367429,-0.028275621706657345,1000000000000.0,1000000000000.0,1000000000000.0,1000000000000.0,0.08829398045191247,-0.3011569188092814,0.04173836354187664,-0.06864558810919828,0.13390332961201362,-0.25852470331594446,0.03873110030792861,-0.014992880638303691
0.046064040016708684,-0.2854793958981618,-0.020014156776180562,-0.14538658861517795,0.03978416291575826,-0.28622727610860743,-0.13437627463028842,-0.08816741760683316,1000000000000.0,1000000000000.0,1000000000000.0,1000000000000.0,0.0820104656092577,-0.28336415307444196,-0.024615306968822318,-0.09621763603541496,0.08171585611734065,-0.30788624464491565,-0.010811365853902813,-0.01057409556585854,0.043500549555295885,-0.2922009757469486,-0.13617041294708293,-0.03066146485248026,0.1263049306241755,-0.2575293427402069,0.056752134383919114,-0.14543572099798818,1000000000000.0,1000000000000.0,1000000000000.0,1000000000000.0
0.059911124770421494,-0.3920864668601804,0.10540594096332022,-0.08203518577782873,0.0523966697585319,-0.2559209750307477,-0.019161993095095954,-0.12698206401402262,1000000000000.0,1000000000000.0,1000000000000.0,1000000000000.0,0.09899251971398396,-0.2932088355873258,-0.00485312116560907,0.010070456006425883,0.033679714085617374,-0.30269635806262574,0.06086331021133798,0.03938416015776204,0.03485536532701592,-0.27069297751182875,-0.032444566617783076,0.07478518117072044,0.12438324077192728,-0.2559611284707184,-0.016561715186023035,0.027368014007435316,0.011208190753120129,-0.2851304091252331,-0.059280693897886136,0.07177486734294712
0.08875658911950918,-0.25999280625562143,0.07195741054384272,-0.14672773980847784,0.06473946914376262,-0.3098105508767654,0.020272433773412257,-0.006964338425681595,0.07343870836359881,-0.2556755799718927,0.0476120587078684,-0.05861996877935258,0.042486915922302124,-0.2888011183581068,-0.029171055820676473,0.08433430980592042,0.07139155535930648,-0.38238025432812583,0.01247706550680526,-0.0653662133438702,0.04462156355555359,-0.28361910359142095,-0.03086431315359145,-0.1464600424217839,0.05381097764404649,-0.27615054583395515,-0.09692698148256085,-0.1009054889348838,0.05741719415065798,-0.39094688626469914,0.09007004286672622,-0.025726349098745008
0.04914161534825051,-0.3823638805714782,0.08967374065180381,-0.08554360507091371,0.023790292738715267,-0.28802417787669005,-0.15564553446583113,0.0860103662375783,0.0690951415302195,-0.2843653996118506,-0.12429942216897887,-0.07031839599741778,0.04056177951220176,-0.1298760594814493,0.009667803648446424,-0.12125812514961637,0.09083493578483728,-0.27659584446734437,-0.08974164469970852,-0.10404549626848962,0.01875920798119235,-0.2907902536541868,-0.11403043097326324,0.07857066906572178,-0.043148140094725534,-0.2852574855891811,-0.11689800867260927,0.07204621172007392,0.07320317334379603,-0.24718727624571357,0.0457183135422381,-0.09722731156299239
0.09499841333963635,-0.23660583313742603,0.02469735902503821,-0.08232992035794912,0.07222694664109086,-0.29125504358799714,0.0006243726028115626,-0.02060153855421118,0.12275594786957866,-0.27148375343926623,0.008315333786676773,-0.08851930490629585,0.018358850719676086,-0.18531577081374834,0.05954094618875367,-0.11846378664678209,0.03980725607932276,-0.2785879609319587,-0.14846866228042566,0.08208205117173314,0.1303841013545505,-0.28813129701631246,-0.13080222668837072,0.018645620018838745,0.06814205997386766,-0.25800445583729154,-0.06822986238934567,-0.14800291468078242,0.06432239751979182,-0.2853146054312207,-0.1310716243452814,-0.07044800573086112
0.10443124198203133,-0.249239622377583,0.10674223647615408,-0.14098884975708212,0.06778002093450103,-0.2813336628322196,-0.09418137691808293,-0.08705855436020635,0.07105319401556984,-0.28257129249564344,-0.09204816277033077,-0.12756780789152428,0.043107791874873035,-0.24918618863824793,-0.09524280841588564,-0.1255918800819687,0.04775001934988231,-0.27548292704286637,-0.009148782682198035,-0.14975073854544457,0.058018813724883905,-0.2855003702014147,-0.11507775005372162,-0.1003426211045853,0.06319460702766923,-0.26120552665719987,-0.013155583512939627,-0.13421444997790544,0.11928036360863445,-0.2932714465061691,-0.13983801566123416,0.023664970971521336
0.11894509996346117,-0.22618895842914832,0.06545903206403625,-0.07270830045236679,0.15198000510828102,-0.2719570899035172,-0.006886729913298091,-0.018158902281642658,0.08283773421967924,-0.29249714914682035,-0.1066123849911284,0.026760049381978124,0.07752646880341665,-0.2674544817116421,-0.12239731460497641,-0.08365269757307642,0.09800805933737029,-0.2335634539100181,0.05456364875998426,-0.15177680012781758,0.0676833351180748,-0.22957234620928946,-0.06126593373012938,-0.1544778470118952,0.11318118552625983,-0.24546003935991598,0.07231107370667575,-0.14420524159298487,0.08359021868322405,-0.28210381365330595,-0.12191201245651609,-0.04441029848183162
0.11521242165873362,-0.2567460112008947,0.045016042548493604,-0.14257438266534384,0.14035640607921077,-0.2637307283400797,0.01615519365131564,-0.05587726657092217,0.13098691183233901,-0.2658427194874414,0.023538717407524102,-0.0906459751240796,0.07877500269237536,-0.3025691241219169,-0.06382597485559459,0.03731737751279246,0.0736479740901392,-0.2871392119992135,0.03800858009068449,-0.0701969444982214,0.06090058319778818,-0.29936175344750904,0.046243388345040055,0.019706205062072185,0.1260203909624595,-0.2610077450825418,-0.005590123447331528,-0.08929233553629883,0.06038350402603682,-0.3075797323464607,0.048640881879491005,0.035175636297160626
0.0988845872127262,-0.2932611434896296,-0.12205927183859477,0.0279073672089579,0.06432565053885092,-0.27443832105592597,-0.08169729548792436,-0.13213840083827522,0.14137977406039054,-0.25855130870136855,0.06516523644235431,-0.060953949117602324,0.09420201536718864,-0.2687355536369823,0.06117542381171146,-0.07468294085969301,0.09041625518246099,-0.266030094927325,0.05950612597098665,-0.1304976237644918,0.11620503160220287,-0.17209880880465475,0.05509569681080236,-0.11643749283330733,0.07791656340683197,-0.27705649726909565,0.018216847225061478,-0.1179679445027486,0.12314807757423754,-0.23919718303842236,0.07501258140248461,-0.14365133862987375
0.07208927651826312,-0.13955344035233463,0.0793512757104656,-0.14517568293977906,0.0951178339383886,-0.28266976367582786,0.003589366382242387,-0.022402607079944372,0.024242878943066627,-0.2997524795932314,-0.05395843343886658,0.07831513500134141,0.0979658507023139,-0.27106284886530324,0.05177405103293543,-0.11569654763352574,0.08061878915456494,-0.30651228908111144,-0.016447800492107978,-0.0027244816944231726,0.10949286495380797,-0.31110769919475406,-0.08898091665248785,0.0325554912060529,0.13819223273803907,-0.3061651099171961,-0.041921806007148316,0.02772834795782325,0.1011556409503475,-0.25394398986466726,-0.08137282147100156,-0.07866495367514081
0.11494052176561523,-0.2483290851779914,0.06445485994805247,-0.14334768380780083,0.13167610729881746,-0.3145091383502337,0.008579409325308037,0.03139494041484362,0.16669967110500916,-0.21157304598537569,0.05212723974999635,-0.115202729857228,0.096634677104488,-0.2737464252710746,-0.016699425915849414,-0.034926306676230326,0.17821043213541315,-0.15951284670629337,0.08439915102963674,-0.0733026086149665,0.11340101761679286,-0.28239365136933353,0.07204824530293781,-0.04547484470136117,0.14363834727330765,-0.2428824056328409,0.07674178285091848,-0.11028880011901701,0.03390104919563813,-0.29308576800027547,-0.1326000955038723,0.036076033693892784
0.09087817871942591,-0.2929948758808201,0.03640591963863046,0.009558555106672173,0.13320783696981753,-0.2749249700876151,-0.1051026674769164,0.01886898769983291,0.08427170242489446,-0.27976500928046477,0.033603152832583305,-0.12501201216403107,0.19304147014423317,-0.22107781000584795,-0.05672660324644755,0.02442107941764369,0.06792609741813632,-0.2501984326117193,0.07260850563057347,-0.13600873711690953,0.10361106217169375,-0.2918687489204339,-0.028034869197173733,0.007207482020705326,0.07652314857864305,-0.26727038027312894,-0.02581210220881602,-0.14847937304453013,0.09502003820732799,-0.24996705279164957,0.04690970389150462,-0.09214115103749959
0.10317223262865133,-0.2474611319406785,0.05381611299323796,-0.14178753306675784,0.06322248052046488,-0.2916348635407277,-0.12656046144265823,0.0016804052443535333,0.08670431329196684,-0.26724521687735064,-0.08764866308375292,-0.10075585008407825,0.09276522593125403,-0.3063925300399148,-0.04912074900204374,0.03274555558853019,0.07113662010821979,-0.2579206684419394,0.042430110762558995,-0.08890281872960586,0.13543185464805402,-0.15997687401535302,0.06917423284337618,-0.12046763487283799,0.10618803947095115,-0.2558455574809332,0.060820058195330304,-0.14752111996384554,0.14869412657251502,-0.25033843959511287,-0.006282820803040559,0.0336026887463318
0.14456991211696257,-0.2704447285393897,-0.056154391805036674,0.022682860849951258,0.08769223237214584,-0.26342233421568956,0.025644364859998978,-0.12211469389388156,0.12552904154142505,-0.2565397210820786,0.05599206975193789,-0.10218745373945559,0.12525704174825947,-0.287790573663938,-0.023373312368188497,0.028843517655801842,0.06518548696458365,-0.27991460266285473,-0.07052003282455774,-0.11319264376172294,0.062305551679515986,-0.30919749005766617,-0.02824205628838561,0.033944555941530605,0.04128639550352648,-0.2725138998138326,-0.02066626916908835,0.0798653724383171,0.07782863083891556,-0.2876794593995222,0.03707986215121237,-0.05056805718009015
0.12597489577161444,-0.2780475184732748,-0.07341116344997028,0.026131669867736674,0.07559669756778348,-0.28718169371976165,0.04581899143491105,-0.0665281059197273,0.09021455759240866,-0.2802390335156731,-0.008639968266872612,0.0031884131555803587,0.09247057493247707,-0.27754405752440875,-0.08674120231583868,-0.08349614629729601,0.09099306183358404,-0.24738314926403815,0.03397920985533307,-0.14596377089900142,0.05903582991254495,-0.2984751766786978,0.04217083959598156,-0.021339720645326677,0.012145566092636749,-0.27347389647398657,-0.10383442847614634,0.08700782108043464,0.0876602369246514,-0.23947500187438786,0.06226558145055832,-0.10830652456648002
0.09390473648195787,-0.22071716561466403,-0.07302072407169885,0.03609201525319067,0.07829554107032444,-0.2741069008047204,0.020674097460284514,-0.02574337344623323,0.04620251026834897,-0.2804499682683834,-0.05920816182986072,-0.1528892454102644,0.07784920243058163,-0.28374152502288763,-0.13184827460785212,0.007829013444704852,0.09039856810377467,-0.27388370991899835,-0.11208672870180234,-0.03302026708988777,0.0986943861450532,-0.27882252450472406,-0.11231465947068285,-0.060435191715337205,0.12595131857331734,-0.23482949252543509,0.07813304964101558,-0.12782428087565478,0.06418664337634673,-0.2910663958573101,-0.10184455226438777,0.03495197002741938
0.1307482453268653,-0.2866139325258461,-0.09417626616778725,0.01370875343523157,0.13568915855524477,-0.267448780627142,-0.004113537379222355,-0.025047892276895165,0.1477638632821769,-0.2953541770570822,-0.04313346846884697,0.026416580009462978,0.04919874080122445,-0.3097902839726511,-0.010313607913556289,0.014615005085628019,0.04583135576795074,-0.2847324171183276,-0.07317443758534009,-0.10011861698718408,0.10123071257059046,-0.266693125435135,-0.011340663293919237,-0.08777751805708539,0.12873444873233422,-0.2578101792420436,0.022692452670245694,-0.12277166339479352,0.014972030487065302,-0.30093440154134565,0.06071981533324079,0.06518953394149815
