ChristianCella/workcell_optimization/results/data/complete_beta_trend_wide.csv
piece1_joint1,piece1_joint2,piece1_joint3,piece1_joint4,piece2_joint1,piece2_joint2,piece2_joint3,piece2_joint4,piece3_joint1,piece3_joint2,piece3_joint3,piece3_joint4,piece4_joint1,piece4_joint2,piece4_joint3,piece4_joint4,piece5_joint1,piece5_joint2,piece5_joint3,piece5_joint4,piece6_joint1,piece6_joint2,piece6_joint3,piece6_joint4,piece7_joint1,piece7_joint2,piece7_joint3,piece7_joint4,piece8_joint1,piece8_joint2,piece8_joint3,piece8_joint4,piece9_joint1,piece9_joint2,piece9_joint3,piece9_joint4,piece10_joint1,piece10_joint2,piece10_joint3,piece10_joint4,piece11_joint1,piece11_joint2,piece11_joint3,piece11_joint4,piece12_joint1,piece12_joint2,piece12_joint3,piece12_joint4,piece13_joint1,piece13_joint2,piece13_joint3,piece13_joint4,piece14_joint1,piece14_joint2,piece14_joint3,piece14_joint4,piece15_joint1,piece15_joint2,piece15_joint3,piece15_joint4,piece16_joint1,piece16_joint2,piece16_joint3,piece16_joint4,piece17_joint1,piece17_joint2,piece17_joint3,piece17_joint4,piece18_joint1,piece18_joint2,piece18_joint3,piece18_joint4,piece19_joint1,piece19_joint2,piece19_joint3,piece19_joint4,piece20_joint1,piece20_joint2,piece20_joint3,piece20_joint4,piece21_joint1,piece21_joint2,piece21_joint3,piece21_joint4,piece22_joint1,piece22_joint2,piece22_joint3,piece22_joint4,piece23_joint1,piece23_joint2,piece23_joint3,piece23_joint4,piece24_joint1,piece24_joint2,piece24_joint3,piece24_joint4,piece25_joint1,piece25_joint2,piece25_joint3,piece25_joint4,piece26_joint1,piece26_joint2,piece26_joint3,piece26_joint4,piece27_joint1,piece27_joint2,piece27_joint3,piece27_joint4,piece28_joint1,piece28_joint2,piece28_joint3,piece28_joint4,piece29_joint1,piece29_joint2,piece29_joint3,piece29_joint4,piece30_joint1,piece30_joint2,piece30_joint3,piece30_joint4,piece31_joint1,piece31_joint2,piece31_joint3,piece31_joint4,piece32_joint1,piece32_joint2,piece32_joint3,piece32_joint4,piece33_joint1,piece33_joint2,piece33_joint3,piece33_joint4,piece34_joint1,piece34_joint2,piece34_joint3,piece34_joint4,piece35_joint1,piece35_joint2,piece35_joint3,piece35_joint4,piece36_joint1,piece36_joint2,piece36_joint3,piece36_joint4,piece37_joint1,piece37_joint2,piece37_joint3,piece37_joint4,piece38_joint1,piece38_joint2,piece38_joint3,piece38_joint4,piece39_joint1,piece39_joint2,piece39_joint3,piece39_joint4,piece40_joint1,piece40_joint2,piece40_joint3,piece40_joint4
100.0,100.0,100.0,100.0,100.0,100.0,100.0,100.0,100.0,100.0,100.0,100.0,0.280089604392196,-0.21886703782192146,-0.21886703782192146,-0.1988124809742533,100.0,100.0,100.0,100.0,100.0,100.0,100.0,100.0,100.0,100.0,100.0,100.0,100.0,100.0,100.0,100.0,100.0,100.0,100.0,100.0,0.07995901800155503,0.09866924254703187,0.0014307917995808016,-0.10728632328467382,100.0,100.0,100.0,100.0,100.0,100.0,100.0,100.0,0.05924264937748286,0.17694599211648465,0.05924264937748286,-0.009339426968977653,100.0,100.0,100.0,100.0,100.0,100.0,100.0,100.0,100.0,100.0,100.0,100.0,0.14484803588468942,-0.11210660199301112,0.10410113816994207,-0.361823824766122,100.0,100.0,100.0,100.0,100.0,100.0,100.0,100.0,100.0,100.0,100.0,100.0,0.1309254229032687,0.0007283352433051921,0.1986992596980111,-0.08755376211465517,100.0,100.0,100.0,100.0,100.0,100.0,100.0,100.0,100.0,100.0,100.0,100.0,0.19514915583963627,-0.023554549627344427,0.16159364050829894,-0.020541003209146723,100.0,100.0,100.0,100.0,100.0,100.0,100.0,100.0,0.19583176661578572,-0.18940944293281653,0.1715902853861297,-0.317388014923072,-0.026253219526939667,0.4209834936136106,0.2946420211966298,0.25555581721234427,100.0,100.0,100.0,100.0,0.2215807792665825,0.23368804577786248,0.12102772978740217,0.12102772978740217,100.0,100.0,100.0,100.0,100.0,100.0,100.0,100.0,100.0,100.0,100.0,100.0,0.09421609475345927,0.3392296758160081,-0.011901488517131742,0.22067696878054788,0.10381816676130906,-0.05781391370477129,-0.020407079832954825,0.12579785684715872,100.0,100.0,100.0,100.0,-0.013673604554711217,-0.21075145161526715,-0.13613816008085808,0.17187292309213842,100.0,100.0,100.0,100.0,0.16883941005946668,0.021832428029123392,0.36759145197109316,0.1205874708672208
0.14818830704544445,0.09184733812843941,0.292075002206548,-0.059373850269174556,100.0,100.0,100.0,100.0,0.03510271558778228,-0.15968926096162508,-0.15968926096162508,-0.15629204155761167,0.035233357351940775,-0.039202939681108974,0.1793396204623148,-0.381679975890702,0.07696942914895444,0.01949799603662538,0.25515097886756,-0.022025483519008293,0.09403405378302264,0.08069343125355097,0.27836365965737253,0.20374729780232534,100.0,100.0,100.0,100.0,100.0,100.0,100.0,100.0,0.2063836634445942,-0.111567069428262,-0.111567069428262,-0.111567069428262,100.0,100.0,100.0,100.0,100.0,100.0,100.0,100.0,100.0,100.0,100.0,100.0,100.0,100.0,100.0,100.0,100.0,100.0,100.0,100.0,100.0,100.0,100.0,100.0,100.0,100.0,100.0,100.0,100.0,100.0,100.0,100.0,0.13143354481343955,0.19218014542332157,0.1775686352687041,0.17221490828567687,100.0,100.0,100.0,100.0,100.0,100.0,100.0,100.0,100.0,100.0,100.0,100.0,100.0,100.0,100.0,100.0,100.0,100.0,100.0,100.0,100.0,100.0,100.0,100.0,100.0,100.0,100.0,100.0,100.0,100.0,100.0,100.0,0.11541834375022145,-0.19571175313120692,0.010214243452622312,0.1161496332173235,100.0,100.0,100.0,100.0,100.0,100.0,100.0,100.0,100.0,100.0,100.0,100.0,100.0,100.0,100.0,100.0,100.0,100.0,100.0,100.0,100.0,100.0,100.0,100.0,100.0,100.0,100.0,100.0,100.0,100.0,100.0,100.0,100.0,100.0,100.0,100.0,100.0,100.0,100.0,100.0,100.0,100.0,100.0,100.0,0.22799532737316788,-0.01294829441742524,-0.01294829441742524,-0.1659608284143413,100.0,100.0,100.0,100.0
100.0,100.0,100.0,100.0,100.0,100.0,100.0,100.0,0.11359539835560269,0.13129548350640818,-0.00012943564015228948,-0.00012943564015228948,0.19800045249664566,0.34481141991767994,0.08745410182464784,0.11274692231309527,100.0,100.0,100.0,100.0,0.13431613442815965,0.037474426356328444,0.12778877063063618,0.08457631652407974,0.09778354560035629,0.08399215922001244,0.08399215922001244,0.2364592567393949,100.0,100.0,100.0,100.0,0.12763735061213258,0.09981695159985868,0.13706245752529628,0.051295167659953435,100.0,100.0,100.0,100.0,100.0,100.0,100.0,100.0,100.0,100.0,100.0,100.0,100.0,100.0,100.0,100.0,100.0,100.0,100.0,100.0,100.0,100.0,100.0,100.0,0.12731422372700632,0.086230550050275,0.17013828811694473,-0.26220064455779335,100.0,100.0,100.0,100.0,100.0,100.0,100.0,100.0,100.0,100.0,100.0,100.0,100.0,100.0,100.0,100.0,100.0,100.0,100.0,100.0,0.05028275644017959,0.1611731740128478,0.31720463249276165,-0.06859820479945512,100.0,100.0,100.0,100.0,100.0,100.0,100.0,100.0,100.0,100.0,100.0,100.0,100.0,100.0,100.0,100.0,0.05882414155176362,0.04580794470639013,0.05832582504782978,0.04933358307612615,100.0,100.0,100.0,100.0,0.2141441734550162,0.20646305284040822,0.20646305284040822,-0.29465978292112593,100.0,100.0,100.0,100.0,100.0,100.0,100.0,100.0,0.20496970351304833,0.2589802564033057,0.13341613894103949,-0.027474353736972934,100.0,100.0,100.0,100.0,100.0,100.0,100.0,100.0,0.08221377589245246,0.060593680934457855,0.07801763645950836,0.20381628169324656,100.0,100.0,100.0,100.0,100.0,100.0,100.0,100.0,0.10094517764363992,0.30943829565053504,0.13919980165921655,0.08903654319801713,100.0,100.0,100.0,100.0,100.0,100.0,100.0,100.0
0.2124591661423268,0.18546500250195985,0.2124591661423268,0.2124591661423268,100.0,100.0,100.0,100.0,100.0,100.0,100.0,100.0,100.0,100.0,100.0,100.0,0.11515004216682681,-0.12575195187776914,-0.045563794014762994,0.13602527023049416,100.0,100.0,100.0,100.0,100.0,100.0,100.0,100.0,100.0,100.0,100.0,100.0,0.022444735585661624,-0.23792481405712781,0.0624377208331305,0.03458234161583934,0.39153581852594566,-0.19683883277966585,-0.19683883277966585,0.022379574591860477,100.0,100.0,100.0,100.0,100.0,100.0,100.0,100.0,0.1343408085806378,-0.22676091870605988,0.07983622688924552,0.1288413021338829,100.0,100.0,100.0,100.0,0.05010918509570382,-0.008240135759224686,-0.03566493011021185,-0.09285435782006507,0.1680880924353101,-0.2159789650934837,0.013616937299553577,0.013616937299553577,100.0,100.0,100.0,100.0,100.0,100.0,100.0,100.0,100.0,100.0,100.0,100.0,0.16798682302421378,0.19049458021806787,0.19049458021806787,0.19049458021806787,100.0,100.0,100.0,100.0,0.13485244381999248,0.19404489844408623,0.14715265929062418,-0.17113087417882464,100.0,100.0,100.0,100.0,100.0,100.0,100.0,100.0,100.0,100.0,100.0,100.0,100.0,100.0,100.0,100.0,0.05576971138282722,0.0057507595474636936,0.14491068093367243,0.2027417699486764,100.0,100.0,100.0,100.0,0.04858344006153644,-0.14681971072721606,-0.14681971072721606,-0.19193753893591337,-0.007949209941327584,0.07585240521606443,0.4217097487895115,-0.054145363728561186,100.0,100.0,100.0,100.0,100.0,100.0,100.0,100.0,100.0,100.0,100.0,100.0,100.0,100.0,100.0,100.0,0.07184991147309455,0.0489094241912021,0.192451967837483,-0.01356742606138879,100.0,100.0,100.0,100.0,100.0,100.0,100.0,100.0,100.0,100.0,100.0,100.0,100.0,100.0,100.0,100.0,100.0,100.0,100.0,100.0
100.0,100.0,100.0,100.0,0.21038288083687584,-0.12084120317204897,0.21386055798311038,-0.22853212546962556,100.0,100.0,100.0,100.0,100.0,100.0,100.0,100.0,100.0,100.0,100.0,100.0,100.0,100.0,100.0,100.0,100.0,100.0,100.0,100.0,-0.016845165327358972,-0.009554035137286726,0.0577495159359428,-0.1252122699520759,0.08740252543804847,-0.14416271984531653,0.03314727989156547,-0.3437585170300894,100.0,100.0,100.0,100.0,0.11786388662893672,0.04616221788253144,0.2918375002439118,0.10326327853512998,100.0,100.0,100.0,100.0,0.22026652731142085,-0.06683652995454797,0.5526390950827391,-0.2375214387179002,100.0,100.0,100.0,100.0,100.0,100.0,100.0,100.0,100.0,100.0,100.0,100.0,100.0,100.0,100.0,100.0,0.24919580297133714,-0.15747827812171145,-0.15747827812171145,-0.20112923432874227,100.0,100.0,100.0,100.0,100.0,100.0,100.0,100.0,100.0,100.0,100.0,100.0,100.0,100.0,100.0,100.0,0.01754127269808453,-0.034406498825552564,0.07618182570759174,-0.09433955543349569,100.0,100.0,100.0,100.0,100.0,100.0,100.0,100.0,100.0,100.0,100.0,100.0,100.0,100.0,100.0,100.0,100.0,100.0,100.0,100.0,100.0,100.0,100.0,100.0,0.14479074986902396,-0.23228915067041628,0.1921655887453006,-0.22491984420368932,0.1475945169211456,-0.217657395782372,0.020433653106078357,0.26005361802571253,100.0,100.0,100.0,100.0,0.10257206453088683,-0.1983913761997949,0.10915003096657316,0.06544289074481824,0.2979133852145896,-0.2081014349658273,-0.18118260118686186,0.17939635169209772,0.08972891113739992,-0.18039651482591926,0.021449673038974736,-0.22053388909091792,100.0,100.0,100.0,100.0,100.0,100.0,100.0,100.0,100.0,100.0,100.0,100.0,100.0,100.0,100.0,100.0,100.0,100.0,100.0,100.0
0.2401233191515211,0.017975229137429653,-0.1743190811531853,0.03535558530170177,100.0,100.0,100.0,100.0,100.0,100.0,100.0,100.0,100.0,100.0,100.0,100.0,100.0,100.0,100.0,100.0,100.0,100.0,100.0,100.0,0.008554562463109438,-0.24073736547925084,0.008554562463109438,-0.05257816394902529,100.0,100.0,100.0,100.0,100.0,100.0,100.0,100.0,0.1657384527776721,-0.043217179940533576,-0.043217179940533576,0.26882680618617544,0.23297459877312535,0.04517478610041464,0.04517478610041464,0.14920922332674919,100.0,100.0,100.0,100.0,100.0,100.0,100.0,100.0,0.21728739509742398,-0.1309304214905298,-0.1309304214905298,-0.1309304214905298,100.0,100.0,100.0,100.0,100.0,100.0,100.0,100.0,100.0,100.0,100.0,100.0,0.10503936774083156,0.2199878063230286,0.17508163152473896,0.13341764994431377,100.0,100.0,100.0,100.0,100.0,100.0,100.0,100.0,100.0,100.0,100.0,100.0,100.0,100.0,100.0,100.0,100.0,100.0,100.0,100.0,100.0,100.0,100.0,100.0,0.20343447052460034,-0.13403643992263087,-0.04556033051632049,-0.04556033051632049,100.0,100.0,100.0,100.0,100.0,100.0,100.0,100.0,100.0,100.0,100.0,100.0,100.0,100.0,100.0,100.0,100.0,100.0,100.0,100.0,100.0,100.0,100.0,100.0,100.0,100.0,100.0,100.0,100.0,100.0,100.0,100.0,0.1449392376813227,0.16794820038177816,0.16794820038177816,0.16794820038177816,100.0,100.0,100.0,100.0,100.0,100.0,100.0,100.0,100.0,100.0,100.0,100.0,100.0,100.0,100.0,100.0,100.0,100.0,100.0,100.0,100.0,100.0,100.0,100.0
0.20506011124295356,0.027840883576778414,0.027840883576778414,-0.23709856252275896,100.0,100.0,100.0,100.0,100.0,100.0,100.0,100.0,0.38012880627372414,-0.19710927429199315,-0.2034309351333011,0.2443054288251435,-0.02433937880024397,0.018337548882848054,0.3215716993136137,0.43072361751892163,100.0,100.0,100.0,100.0,100.0,100.0,100.0,100.0,100.0,100.0,100.0,100.0,0.12961398962366227,0.07308221131438357,0.14578818453502806,0.11527857341346424,100.0,100.0,100.0,100.0,100.0,100.0,100.0,100.0,100.0,100.0,100.0,100.0,100.0,100.0,100.0,100.0,100.0,100.0,100.0,100.0,100.0,100.0,100.0,100.0,-0.09530325930004675,-0.033102977304297926,0.06540551943385503,-0.3293244908407147,100.0,100.0,100.0,100.0,100.0,100.0,100.0,100.0,100.0,100.0,100.0,100.0,0.12671250034492776,-0.1858235662764816,0.08550440674546664,-0.18219260081885655,100.0,100.0,100.0,100.0,100.0,100.0,100.0,100.0,100.0,100.0,100.0,100.0,-0.01618913814984241,-0.029500679561628836,0.2349749839544189,0.2767503051517527,100.0,100.0,100.0,100.0,100.0,100.0,100.0,100.0,100.0,100.0,100.0,100.0,100.0,100.0,100.0,100.0,100.0,100.0,100.0,100.0,100.0,100.0,100.0,100.0,0.20605247406024585,0.013160017231075204,0.013160017231075204,0.11601470248013443,100.0,100.0,100.0,100.0,100.0,100.0,100.0,100.0,100.0,100.0,100.0,100.0,0.24887738973796983,0.17934997244393297,0.17934997244393297,0.16241223294338686,100.0,100.0,100.0,100.0,100.0,100.0,100.0,100.0,0.15691848616928428,-0.025106398138776492,0.23026538066892355,0.27019315167801283,0.184976913769817,-0.13115059571778692,-0.13115059571778692,-0.3344145722838723,0.12857820969118983,0.4589668475022384,0.42865597977430503,0.27486884529015315
0.0886705798092327,-0.11860600113033465,0.12118984397295195,-0.3454139021155006,100.0,100.0,100.0,100.0,100.0,100.0,100.0,100.0,0.3004758064107361,0.10889187655940943,0.10889187655940943,-0.11188749663845518,100.0,100.0,100.0,100.0,100.0,100.0,100.0,100.0,0.02823617935830145,0.22611793575002262,0.1498818287006679,-0.3826655844638913,100.0,100.0,100.0,100.0,100.0,100.0,100.0,100.0,100.0,100.0,100.0,100.0,0.1556609024634823,0.08630980737169312,0.10222930084392233,-0.10138070676483357,100.0,100.0,100.0,100.0,100.0,100.0,100.0,100.0,100.0,100.0,100.0,100.0,100.0,100.0,100.0,100.0,100.0,100.0,100.0,100.0,100.0,100.0,100.0,100.0,100.0,100.0,100.0,100.0,100.0,100.0,100.0,100.0,0.05153067973020613,-0.16619274632889292,0.03279075954757174,-0.18188328973149537,100.0,100.0,100.0,100.0,100.0,100.0,100.0,100.0,100.0,100.0,100.0,100.0,100.0,100.0,100.0,100.0,0.22511270782479828,-0.06576947001830509,-0.06576947001830509,-0.2686954662186859,100.0,100.0,100.0,100.0,100.0,100.0,100.0,100.0,100.0,100.0,100.0,100.0,100.0,100.0,100.0,100.0,100.0,100.0,100.0,100.0,100.0,100.0,100.0,100.0,100.0,100.0,100.0,100.0,100.0,100.0,100.0,100.0,100.0,100.0,100.0,100.0,0.14841579691744072,0.174384506113617,0.11442710391314136,0.04456846785435705,100.0,100.0,100.0,100.0,100.0,100.0,100.0,100.0,-0.0821395641002364,0.04475846196315935,0.17484399176541277,0.19417246592079773,100.0,100.0,100.0,100.0,0.1808117492281609,0.0742194471613217,0.18327651510682463,0.07861868200063057
100.0,100.0,100.0,100.0,0.322271370194278,0.16633229296924706,0.16633229296924706,-0.08962025454463372,0.07319536394497991,0.04906880966923925,0.21414433463497895,0.2095512147720754,100.0,100.0,100.0,100.0,100.0,100.0,100.0,100.0,100.0,100.0,100.0,100.0,100.0,100.0,100.0,100.0,0.23170474903277075,0.20628509408799334,-0.07572359645617915,0.11295585420093471,0.20709574871355096,0.29437649248306325,-0.13653212034069032,-0.11803586722717413,100.0,100.0,100.0,100.0,100.0,100.0,100.0,100.0,100.0,100.0,100.0,100.0,100.0,100.0,100.0,100.0,0.23654666885985673,0.1843084849438799,-0.20235181520286105,-0.20235181520286105,0.005856904918168539,-0.22311719014321085,0.3461789392289405,-0.1929550557819079,0.18958057945909612,0.11766232700878215,0.11766232700878215,-0.21405525469827585,100.0,100.0,100.0,100.0,100.0,100.0,100.0,100.0,0.20107785930737188,-0.1486068654436364,0.12541394867803038,0.21839461443611846,100.0,100.0,100.0,100.0,100.0,100.0,100.0,100.0,0.06584437525917261,0.10185405592414036,0.20952157807004546,-0.1953003046681927,100.0,100.0,100.0,100.0,100.0,100.0,100.0,100.0,100.0,100.0,100.0,100.0,100.0,100.0,100.0,100.0,100.0,100.0,100.0,100.0,100.0,100.0,100.0,100.0,0.008194796263821824,-0.17491221078170174,-0.01620776027216986,-0.2384521000761568,0.08079457193330361,-0.2828348096586145,0.07915395008842954,0.17636591147504518,100.0,100.0,100.0,100.0,100.0,100.0,100.0,100.0,100.0,100.0,100.0,100.0,0.10179536451394652,-0.1738724489743863,0.2203062240791958,-0.1643783446004429,0.10270677579662958,0.1098313172042177,0.228264510026835,-0.31174901881280076,100.0,100.0,100.0,100.0,100.0,100.0,100.0,100.0,-0.026957779099149568,-0.1854449058703751,0.3212212582477185,0.07232021596753953,100.0,100.0,100.0,100.0,100.0,100.0,100.0,100.0
0.10252797407949084,-0.2716570001774333,0.1024947755131018,-0.12977029551564956,100.0,100.0,100.0,100.0,0.18061297834039208,0.12222790740815126,0.13932833512666265,-0.07424529929580159,100.0,100.0,100.0,100.0,-0.023500319478934342,0.22698673812022985,0.14643019408367902,-0.027742670759169683,100.0,100.0,100.0,100.0,0.14698925379195688,0.25572467205076993,-0.004738613403621,0.10098909076182723,0.05777365591102854,-0.06207191736860353,0.19738287386449313,0.256684940506386,100.0,100.0,100.0,100.0,0.15492108479657218,-0.1722928310909711,0.14254659185466478,0.13191767509950308,100.0,100.0,100.0,100.0,0.35365474897072874,-0.043761007808159655,-0.043761007808159655,0.3699859839735253,100.0,100.0,100.0,100.0,100.0,100.0,100.0,100.0,100.0,100.0,100.0,100.0,100.0,100.0,100.0,100.0,0.1342381614321442,0.20030642458369113,0.1460300158348678,0.5968517947987815,100.0,100.0,100.0,100.0,100.0,100.0,100.0,100.0,100.0,100.0,100.0,100.0,100.0,100.0,100.0,100.0,100.0,100.0,100.0,100.0,100.0,100.0,100.0,100.0,0.04215071135146338,-0.055068082200333775,-0.031255982216717985,0.15053878612726446,0.2018951314465638,0.05926872802076872,0.05926872802076872,-0.19271111814215167,0.11474715936722954,0.05244103006264579,0.1369221491449681,-0.39392023118923264,0.1958951812976985,0.15468523769285422,0.1400069442304406,-0.2922264172374756,100.0,100.0,100.0,100.0,100.0,100.0,100.0,100.0,0.19733528998887612,0.16944210218962133,-0.06662618051908299,-0.06662618051908299,0.11598962443357179,-0.33509347348723106,0.2015573565150276,0.2095924257053726,100.0,100.0,100.0,100.0,100.0,100.0,100.0,100.0,100.0,100.0,100.0,100.0,100.0,100.0,100.0,100.0,100.0,100.0,100.0,100.0,100.0,100.0,100.0,100.0,100.0,100.0,100.0,100.0,0.12607049947763052,0.07635814624428974,0.07982634029714349,-0.08691966603648528,0.19051815941157593,-0.14281993957821842,0.19652040375925672,-0.45037614684060084
100.0,100.0,100.0,100.0,100.0,100.0,100.0,100.0,0.02396295924286629,-0.013330038242575504,0.20239443202818344,0.2297474377889058,100.0,100.0,100.0,100.0,100.0,100.0,100.0,100.0,100.0,100.0,100.0,100.0,100.0,100.0,100.0,100.0,0.07957510623961891,0.06313808733263579,0.27585069873864654,0.06313808733263579,0.07402639614843007,0.00128864385714458,0.3180072668790507,0.09985697798365464,0.17748442112351906,-0.16867197553554816,0.04464746502325574,0.04464746502325574,100.0,100.0,100.0,100.0,100.0,100.0,100.0,100.0,100.0,100.0,100.0,100.0,100.0,100.0,100.0,100.0,0.12756182071485436,-0.06819645124385548,-0.011678625409891065,0.09279029556550207,100.0,100.0,100.0,100.0,0.24134497899375382,0.16042781660503155,0.3118921327866305,-0.18865114884706374,100.0,100.0,100.0,100.0,100.0,100.0,100.0,100.0,100.0,100.0,100.0,100.0,100.0,100.0,100.0,100.0,100.0,100.0,100.0,100.0,100.0,100.0,100.0,100.0,100.0,100.0,100.0,100.0,-0.09908303938488464,0.20266106853657825,0.20266106853657825,-0.0550867463739748,100.0,100.0,100.0,100.0,0.13264900205030378,0.05252765927400603,0.1916747084392446,-0.3645690772901342,0.23976338204040643,-0.3522600740682857,-0.028621084256659324,-0.2733472886922324,100.0,100.0,100.0,100.0,0.06094756322953891,-0.11883306582846102,0.10830658034568609,-0.18576006975876505,100.0,100.0,100.0,100.0,-0.003317999078671474,-0.1006432873418574,0.28012705811415334,0.13737141472767034,0.054801321862443145,-0.2599872052923573,0.20810754240101872,0.12431396750765611,100.0,100.0,100.0,100.0,100.0,100.0,100.0,100.0,100.0,100.0,100.0,100.0,0.035935954721158146,0.11287125868739908,0.22086527689901897,0.050108328641750896,0.005161063066055772,-0.5334835259168575,0.49427963773213435,0.22905618866564287,100.0,100.0,100.0,100.0,100.0,100.0,100.0,100.0
0.15798003522177942,0.016102829101769984,0.016102829101769984,0.016102829101769984,100.0,100.0,100.0,100.0,100.0,100.0,100.0,100.0,100.0,100.0,100.0,100.0,100.0,100.0,100.0,100.0,0.2777262696259259,-0.08492473305473541,-0.08492473305473541,0.2222949385556988,100.0,100.0,100.0,100.0,100.0,100.0,100.0,100.0,100.0,100.0,100.0,100.0,100.0,100.0,100.0,100.0,100.0,100.0,100.0,100.0,100.0,100.0,100.0,100.0,100.0,100.0,100.0,100.0,0.05020300196490818,0.16170498615811188,0.07880890589659387,-0.15475743549387133,100.0,100.0,100.0,100.0,0.02250206100886483,-0.1989709294537361,0.08036925417235008,-0.16800805728691032,100.0,100.0,100.0,100.0,100.0,100.0,100.0,100.0,100.0,100.0,100.0,100.0,100.0,100.0,100.0,100.0,100.0,100.0,100.0,100.0,100.0,100.0,100.0,100.0,100.0,100.0,100.0,100.0,100.0,100.0,100.0,100.0,100.0,100.0,100.0,100.0,100.0,100.0,100.0,100.0,100.0,100.0,100.0,100.0,100.0,100.0,100.0,100.0,100.0,100.0,100.0,100.0,100.0,100.0,100.0,100.0,100.0,100.0,100.0,100.0,-0.02787163513692186,-0.05026722579535306,0.060269784998660814,0.21490910947488495,0.11907243302365945,-0.2304417916782115,0.0961868065749563,-0.09455722648308534,100.0,100.0,100.0,100.0,100.0,100.0,100.0,100.0,0.18739423062527627,-0.16467051998256416,0.10322649121642373,-0.1467264637223259,100.0,100.0,100.0,100.0,100.0,100.0,100.0,100.0,100.0,100.0,100.0,100.0,100.0,100.0,100.0,100.0
0.15224531134256217,0.11301678483650239,0.15361492508540292,-0.11761441441191847,0.13657385017426604,0.0034868337149307135,0.1738468484841958,-0.08292771972528687,100.0,100.0,100.0,100.0,100.0,100.0,100.0,100.0,100.0,100.0,100.0,100.0,0.25535963803421424,0.09267657725918138,0.20910928429141334,-0.09919085828831799,100.0,100.0,100.0,100.0,100.0,100.0,100.0,100.0,100.0,100.0,100.0,100.0,100.0,100.0,100.0,100.0,-0.08277033073313496,-0.3010742130977284,0.23757282917621247,-0.25035223054564304,0.04188910209855949,-0.5252819174012477,0.12929729223381875,0.177787171609767,100.0,100.0,100.0,100.0,100.0,100.0,100.0,100.0,100.0,100.0,100.0,100.0,-0.028242948244983794,-0.06948445947648618,0.34153260945903124,-0.17042169507324717,0.015772105851731902,0.13754241547624138,0.08564283770181114,-0.1602983449371591,100.0,100.0,100.0,100.0,100.0,100.0,100.0,100.0,0.13546577757521616,0.10962079045031517,0.08364266449348919,-0.08565838292331324,100.0,100.0,100.0,100.0,-0.016923110402998542,-0.016923110402998542,-0.016923110402998542,-0.016923110402998542,100.0,100.0,100.0,100.0,100.0,100.0,100.0,100.0,100.0,100.0,100.0,100.0,100.0,100.0,100.0,100.0,100.0,100.0,100.0,100.0,100.0,100.0,100.0,100.0,100.0,100.0,100.0,100.0,100.0,100.0,100.0,100.0,100.0,100.0,100.0,100.0,0.053534552263145456,-0.07343810835118549,0.11986571780761049,-0.5293042346674559,100.0,100.0,100.0,100.0,100.0,100.0,100.0,100.0,0.29159936418199967,0.07964527389905114,0.07964527389905114,0.04682363499495165,100.0,100.0,100.0,100.0,100.0,100.0,100.0,100.0,100.0,100.0,100.0,100.0,0.22279827851414377,-0.008963285342883792,-0.008963285342883792,0.22284197184713575,100.0,100.0,100.0,100.0
100.0,100.0,100.0,100.0,100.0,100.0,100.0,100.0,100.0,100.0,100.0,100.0,100.0,100.0,100.0,100.0,100.0,100.0,100.0,100.0,100.0,100.0,100.0,100.0,100.0,100.0,100.0,100.0,100.0,100.0,100.0,100.0,100.0,100.0,100.0,100.0,0.23509431812108858,0.024860047383710435,0.024860047383710435,0.14154518120602952,100.0,100.0,100.0,100.0,100.0,100.0,100.0,100.0,100.0,100.0,100.0,100.0,100.0,100.0,100.0,100.0,100.0,100.0,100.0,100.0,100.0,100.0,100.0,100.0,100.0,100.0,100.0,100.0,0.02688191978255248,-0.21917701066162973,0.2877390064461974,-0.31112637501502494,0.38236690688138714,0.327844647765865,-0.030961007442715786,-0.36349630170942815,100.0,100.0,100.0,100.0,100.0,100.0,100.0,100.0,100.0,100.0,100.0,100.0,100.0,100.0,100.0,100.0,100.0,100.0,100.0,100.0,100.0,100.0,100.0,100.0,100.0,100.0,100.0,100.0,100.0,100.0,100.0,100.0,100.0,100.0,100.0,100.0,100.0,100.0,100.0,100.0,100.0,100.0,100.0,100.0,100.0,100.0,100.0,100.0,100.0,100.0,100.0,100.0,100.0,100.0,100.0,100.0,100.0,100.0,100.0,100.0,100.0,100.0,100.0,100.0,100.0,100.0,100.0,100.0,100.0,100.0,100.0,100.0,100.0,100.0,100.0,100.0,100.0,100.0,100.0,100.0,0.17703930546547847,0.38420481172743104,0.21654725067140096,0.13676483620818314
100.0,100.0,100.0,100.0,100.0,100.0,100.0,100.0,0.17250030084402038,-0.28767867354444376,0.14117898100597223,-0.12476395840652268,100.0,100.0,100.0,100.0,100.0,100.0,100.0,100.0,-0.0016163116968430369,-0.01526853194641753,-0.05646164539122857,-0.17989886922959447,100.0,100.0,100.0,100.0,-0.02962822755090408,-0.07619889558099527,0.12510310310018397,0.2895851995210018,0.016208428581284184,-0.16987607948617786,0.203298718081325,-0.13688858306542637,100.0,100.0,100.0,100.0,100.0,100.0,100.0,100.0,100.0,100.0,100.0,100.0,100.0,100.0,100.0,100.0,100.0,100.0,100.0,100.0,100.0,100.0,100.0,100.0,100.0,100.0,100.0,100.0,0.2177203278398467,0.04738336992077205,-0.13514592888797228,-0.011483064452268849,100.0,100.0,100.0,100.0,100.0,100.0,100.0,100.0,100.0,100.0,100.0,100.0,0.2991097930623311,0.014223354345426736,0.014223354345426736,0.19045268585535285,0.1747647880609935,0.13386078331824725,0.4505100255081997,-0.2577374876051593,100.0,100.0,100.0,100.0,100.0,100.0,100.0,100.0,100.0,100.0,100.0,100.0,0.19562786677624427,0.13814958748281253,-0.09844459082243903,-0.3716301910530932,100.0,100.0,100.0,100.0,100.0,100.0,100.0,100.0,-0.00010464483220908732,0.04228301355159325,0.13461792359583394,0.26045467589797444,100.0,100.0,100.0,100.0,100.0,100.0,100.0,100.0,100.0,100.0,100.0,100.0,100.0,100.0,100.0,100.0,100.0,100.0,100.0,100.0,100.0,100.0,100.0,100.0,100.0,100.0,100.0,100.0,0.018036560993929175,-0.20422014180103978,0.3872638966737676,-0.17673247987928298,0.21123405646007445,0.25753856971330574,0.22822033501104994,0.21123405646007445,100.0,100.0,100.0,100.0,100.0,100.0,100.0,100.0
100.0,100.0,100.0,100.0,100.0,100.0,100.0,100.0,100.0,100.0,100.0,100.0,100.0,100.0,100.0,100.0,100.0,100.0,100.0,100.0,0.19517235275699688,-0.10846443403067427,-0.10846443403067427,-0.08233708719240683,100.0,100.0,100.0,100.0,100.0,100.0,100.0,100.0,0.009603642539243194,-0.23164554531093423,0.2317546005434139,-0.24465482665126675,100.0,100.0,100.0,100.0,100.0,100.0,100.0,100.0,100.0,100.0,100.0,100.0,100.0,100.0,100.0,100.0,100.0,100.0,100.0,100.0,100.0,100.0,100.0,100.0,0.17282660030035552,0.07903496262051234,0.0974104264542929,-0.005358909196149992,-0.004941729664028038,0.10131686075532412,0.10131686075532412,-0.29047828667965064,100.0,100.0,100.0,100.0,100.0,100.0,100.0,100.0,100.0,100.0,100.0,100.0,100.0,100.0,100.0,100.0,100.0,100.0,100.0,100.0,100.0,100.0,100.0,100.0,100.0,100.0,100.0,100.0,100.0,100.0,100.0,100.0,0.08240996970202771,-0.09909470384514188,0.20218168754260202,0.007485401127397484,0.08186497608417272,-0.1739097157084466,0.07473449645711058,-0.375976732655817,100.0,100.0,100.0,100.0,100.0,100.0,100.0,100.0,0.0058514817138895815,0.04546666180873478,0.08875354723345175,0.20940769097198195,100.0,100.0,100.0,100.0,100.0,100.0,100.0,100.0,0.1143835413711388,-0.1756448269898816,0.20708977651095187,-0.3943436009998033,100.0,100.0,100.0,100.0,0.2011462046232132,-0.024730859638237977,-0.024730859638237977,-0.2576677285405642,100.0,100.0,100.0,100.0,100.0,100.0,100.0,100.0,0.17085407727264051,-0.11609310132072434,0.22039738243245177,-0.13795228819958197,0.13313577527809384,-0.3758625942716518,0.15402786834904936,-0.1839878901896215,0.22772559953236224,-0.09141210514800228,-0.09141210514800228,-0.3341091464320941
0.11430140201045469,-0.33203849454124623,0.12413947414218904,0.09173469953890379,100.0,100.0,100.0,100.0,100.0,100.0,100.0,100.0,100.0,100.0,100.0,100.0,100.0,100.0,100.0,100.0,100.0,100.0,100.0,100.0,100.0,100.0,100.0,100.0,0.2511887345115432,0.14674857410581316,0.12195230234728373,-0.32903216317271555,100.0,100.0,100.0,100.0,100.0,100.0,100.0,100.0,100.0,100.0,100.0,100.0,100.0,100.0,100.0,100.0,100.0,100.0,100.0,100.0,100.0,100.0,100.0,100.0,100.0,100.0,100.0,100.0,100.0,100.0,100.0,100.0,0.08777526053595686,0.11804701025195233,0.03254872747354004,0.11390632983043489,100.0,100.0,100.0,100.0,100.0,100.0,100.0,100.0,100.0,100.0,100.0,100.0,100.0,100.0,100.0,100.0,100.0,100.0,100.0,100.0,100.0,100.0,100.0,100.0,100.0,100.0,100.0,100.0,0.20859733177786405,-0.10155637562361296,-0.10155637562361296,-0.3874993219872054,-0.0006498366501940418,0.2542903928393124,0.23777974248006462,-0.0843169063035542,100.0,100.0,100.0,100.0,-0.03367241702532957,-0.002341787383352105,0.16463196383860557,0.10905038898480816,0.22026114478066164,-0.1604611517634092,-0.1604611517634092,0.028295803156285108,100.0,100.0,100.0,100.0,0.2456727016644406,-0.05236708305404901,-0.05236708305404901,0.2712587186020688,0.04511044243150323,-0.03699587657212727,0.5439821203335047,0.2255063747993674,100.0,100.0,100.0,100.0,100.0,100.0,100.0,100.0,100.0,100.0,100.0,100.0,100.0,100.0,100.0,100.0,100.0,100.0,100.0,100.0,100.0,100.0,100.0,100.0,-0.0572630975622994,0.12254104899786275,0.38600381936420336,0.24323523482628698,100.0,100.0,100.0,100.0
100.0,100.0,100.0,100.0,100.0,100.0,100.0,100.0,100.0,100.0,100.0,100.0,100.0,100.0,100.0,100.0,100.0,100.0,100.0,100.0,0.09506466387382947,0.22689759137504292,0.07693931756733821,-0.16372634398913732,100.0,100.0,100.0,100.0,100.0,100.0,100.0,100.0,100.0,100.0,100.0,100.0,100.0,100.0,100.0,100.0,100.0,100.0,100.0,100.0,0.21189079537859362,0.24287035029854365,0.0617590899551243,0.05902196476974077,100.0,100.0,100.0,100.0,100.0,100.0,100.0,100.0,0.15177081177708862,-0.26766819189724733,0.08710639067641862,0.13999627772707635,100.0,100.0,100.0,100.0,100.0,100.0,100.0,100.0,100.0,100.0,100.0,100.0,100.0,100.0,100.0,100.0,0.19680304646752106,0.11283521688985843,0.11894176189889487,-0.12040915817797075,0.1849548040915936,0.09890042561849742,0.031778237026720633,-0.03957572107356064,100.0,100.0,100.0,100.0,0.06910006853289276,0.05960404130102327,0.02666210022985909,0.2043091197196747,100.0,100.0,100.0,100.0,100.0,100.0,100.0,100.0,100.0,100.0,100.0,100.0,0.14211342829262866,0.20447601623520872,0.05254508454003411,0.3776347144285057,100.0,100.0,100.0,100.0,0.12816454747372508,-0.048191664051808906,0.029283342899413645,-0.3303568216872516,100.0,100.0,100.0,100.0,100.0,100.0,100.0,100.0,100.0,100.0,100.0,100.0,0.011226139984245424,0.007511965370782886,0.14785554454946542,0.17382011332017466,100.0,100.0,100.0,100.0,100.0,100.0,100.0,100.0,100.0,100.0,100.0,100.0,100.0,100.0,100.0,100.0,100.0,100.0,100.0,100.0,0.09139123065882301,0.21299264916313504,0.24543446584967893,0.21299264916313504,100.0,100.0,100.0,100.0
100.0,100.0,100.0,100.0,100.0,100.0,100.0,100.0,0.2787154513470739,-0.01736872081818877,-0.10004139206706307,0.062410162487868466,0.16984753011274492,-0.06785918382003972,0.19741698454772616,0.15037603984458908,100.0,100.0,100.0,100.0,0.08993276493206942,0.06656830289303853,0.1371869006455531,0.035165406950129416,0.12872267437949125,0.06817903950258668,-0.039789950356038564,-0.28054701380894853,0.24340830470932945,0.183096898110529,0.09814724563015723,-0.1564255300773976,100.0,100.0,100.0,100.0,100.0,100.0,100.0,100.0,100.0,100.0,100.0,100.0,0.1030149885572392,-0.16428829411399706,0.1207689184550994,-0.1860198154350699,100.0,100.0,100.0,100.0,100.0,100.0,100.0,100.0,100.0,100.0,100.0,100.0,100.0,100.0,100.0,100.0,100.0,100.0,100.0,100.0,0.10234965999832873,0.05430259809926022,0.4657099125547577,-0.09125690017393187,0.10217881698403099,-0.0565880297310801,0.14886830562363393,-0.4011795450360326,100.0,100.0,100.0,100.0,0.03267348937429017,0.054925332417065376,0.02307905181431269,0.23097477370672329,100.0,100.0,100.0,100.0,100.0,100.0,100.0,100.0,0.14394460181621202,0.2300993105062738,0.10414416662023782,0.17375445959013336,100.0,100.0,100.0,100.0,0.07437668678314897,-0.1728506493713948,-0.1728506493713948,-0.25063314099956624,100.0,100.0,100.0,100.0,100.0,100.0,100.0,100.0,100.0,100.0,100.0,100.0,100.0,100.0,100.0,100.0,100.0,100.0,100.0,100.0,100.0,100.0,100.0,100.0,0.04221284160141805,0.2067132595769979,0.20664772370113343,-0.006265533314664208,100.0,100.0,100.0,100.0,100.0,100.0,100.0,100.0,100.0,100.0,100.0,100.0,100.0,100.0,100.0,100.0,100.0,100.0,100.0,100.0,100.0,100.0,100.0,100.0,100.0,100.0,100.0,100.0
100.0,100.0,100.0,100.0,100.0,100.0,100.0,100.0,0.12815558793188886,-0.25291602817743564,0.053408352546005074,-0.15462878816054546,100.0,100.0,100.0,100.0,100.0,100.0,100.0,100.0,100.0,100.0,100.0,100.0,0.17755485470699336,0.09677971967538655,0.05433186495954164,-0.21444912743329542,100.0,100.0,100.0,100.0,0.18333334348715666,-0.2851221299286533,-0.14782537861473907,-0.023526245010785783,100.0,100.0,100.0,100.0,100.0,100.0,100.0,100.0,0.20470967400848916,0.01364793573437658,0.15713747858061952,0.19440924428986456,0.1783750306951062,0.033258384480511355,0.3857062166736131,0.02350460504716522,100.0,100.0,100.0,100.0,100.0,100.0,100.0,100.0,100.0,100.0,100.0,100.0,100.0,100.0,100.0,100.0,0.26759844994364507,-0.11254495935630707,0.14090147389007904,0.026327801514721368,100.0,100.0,100.0,100.0,100.0,100.0,100.0,100.0,100.0,100.0,100.0,100.0,100.0,100.0,100.0,100.0,100.0,100.0,100.0,100.0,100.0,100.0,100.0,100.0,-0.024058015027271867,0.11151896856577895,0.21388166282975463,0.32490395345800777,100.0,100.0,100.0,100.0,100.0,100.0,100.0,100.0,0.16914395953410705,-0.27992707380707577,0.12382640003143187,-0.12757903321461778,100.0,100.0,100.0,100.0,100.0,100.0,100.0,100.0,0.02095732789128045,-0.26241508440754385,0.4654137274376816,0.02374521965176552,100.0,100.0,100.0,100.0,100.0,100.0,100.0,100.0,100.0,100.0,100.0,100.0,0.0065234088883517685,0.08017439986509489,-0.1743663938430527,0.16993310014781826,100.0,100.0,100.0,100.0,100.0,100.0,100.0,100.0,100.0,100.0,100.0,100.0,100.0,100.0,100.0,100.0,100.0,100.0,100.0,100.0
100.0,100.0,100.0,100.0,0.13848495922990614,0.14278108797009859,0.15608625615889743,0.1946315318242244,0.3378918087832499,0.15490066022325294,-0.10655502671006994,-0.3501265063492858,100.0,100.0,100.0,100.0,0.116204256923356,-0.05172756093638664,0.1942046290220228,-0.06961695135716109,0.10946553239617297,0.14142619094193987,0.023681784365624292,0.10604612450050353,0.20966201725150546,0.16560132701114888,0.1988912203797646,0.13489795063172955,100.0,100.0,100.0,100.0,0.07397243104234019,0.007523638301710274,0.1698234751480881,0.07227900152501972,100.0,100.0,100.0,100.0,100.0,100.0,100.0,100.0,0.37301988479984294,0.14880878264145053,0.18009128809917568,-0.3235019404973855,0.0777931943890361,-0.07105023535080726,-0.024440755956898583,0.17912395305443374,0.09885804765863808,-0.1998688006570871,0.15139974153036814,-0.20086525838838015,100.0,100.0,100.0,100.0,100.0,100.0,100.0,100.0,0.28994855840992445,0.25529598200796133,-0.08248117532100496,-0.10891372289271367,0.08018198649893964,-0.1342702741856439,0.09335918644433623,-0.356353457837906,100.0,100.0,100.0,100.0,100.0,100.0,100.0,100.0,100.0,100.0,100.0,100.0,100.0,100.0,100.0,100.0,100.0,100.0,100.0,100.0,100.0,100.0,100.0,100.0,0.14837761491872145,-0.19327331299335682,-0.1407626246207872,-0.4472903609062333,100.0,100.0,100.0,100.0,100.0,100.0,100.0,100.0,100.0,100.0,100.0,100.0,0.15824130759571353,0.2911206307902761,-0.05947274139478732,-0.059418869108179354,100.0,100.0,100.0,100.0,100.0,100.0,100.0,100.0,100.0,100.0,100.0,100.0,100.0,100.0,100.0,100.0,0.09396850571671313,-0.17267596386846862,0.13993112051761777,-0.35315453030377997,0.16175854754567337,-0.277311608058887,0.10825619251770568,0.026454456064256487,0.017317351785341245,0.06251431267914431,0.10376907964634993,0.1934248498562532,100.0,100.0,100.0,100.0,0.11037469850555093,-0.260037079283266,0.1726055826239844,-0.21014127758665035,100.0,100.0,100.0,100.0,100.0,100.0,100.0,100.0
0.14664622157563006,0.06712459169497959,0.21328091177570352,0.19019367854806335,0.10604341841929545,0.15293637231336235,0.2956172149792611,0.3520761099481441,100.0,100.0,100.0,100.0,-0.07237163648979802,0.4139588903256021,-0.07237163648979802,-0.07297250045469525,100.0,100.0,100.0,100.0,100.0,100.0,100.0,100.0,100.0,100.0,100.0,100.0,100.0,100.0,100.0,100.0,0.15503963923519398,0.033181682382787264,0.033181682382787264,-0.1648247543141539,100.0,100.0,100.0,100.0,0.20806405564323124,-0.20680635450601273,-0.015242137999794795,-0.1786440041148898,0.08265926455829004,0.11267459811743483,0.13294541283070863,0.07236700228412997,0.20808536167519281,-0.24302794468975064,0.10573798662981557,0.06828333721589938,100.0,100.0,100.0,100.0,0.12089378017862383,-0.1267318427400236,0.12574817918647463,-0.2918830564796898,100.0,100.0,100.0,100.0,100.0,100.0,100.0,100.0,100.0,100.0,100.0,100.0,100.0,100.0,100.0,100.0,0.09499227188074433,-0.2111086866367963,0.024631445057340526,-0.10882407987096536,0.1813810529764185,-0.018720063693500016,-0.018720063693500016,0.0939030343834995,100.0,100.0,100.0,100.0,100.0,100.0,100.0,100.0,0.16062183903297345,0.17831384783271131,0.1274700378510019,-0.04615183562556999,100.0,100.0,100.0,100.0,100.0,100.0,100.0,100.0,100.0,100.0,100.0,100.0,100.0,100.0,100.0,100.0,0.10035764330684818,0.13652878444210795,0.0401564731303424,0.16416077539522356,100.0,100.0,100.0,100.0,100.0,100.0,100.0,100.0,100.0,100.0,100.0,100.0,0.11541683144690501,0.2238285795054261,0.08529067860900531,0.16000720262836648,100.0,100.0,100.0,100.0,100.0,100.0,100.0,100.0,100.0,100.0,100.0,100.0,0.33344668780206643,0.17850269444000866,0.0223112351909944,-0.41658431149143227,100.0,100.0,100.0,100.0,-0.07033532044415708,-0.04206186542680737,0.12915576688991057,0.13489904039648412,100.0,100.0,100.0,100.0
0.11913513170773943,0.22589197259134408,0.07827691651093965,0.28971833035994904,0.0782128292431853,-0.354763513775597,0.12868795786729392,-0.4927994267991146,100.0,100.0,100.0,100.0,100.0,100.0,100.0,100.0,0.22231949845952628,-0.06285057133193345,-0.06285057133193345,-0.21389422998115573,0.2945610278622687,0.11247974223610185,-0.1522099522999315,0.31330324732680376,0.23742254220443976,0.3900125508757344,-0.1811588402178159,-0.1811588402178159,100.0,100.0,100.0,100.0,0.07637590781044463,-0.2567916636072553,0.07029562293165997,-0.24518305668563944,100.0,100.0,100.0,100.0,0.07080927029906138,0.06727671826283484,0.1456042380130182,-0.08293101795169176,100.0,100.0,100.0,100.0,0.04316830284882873,0.2151205918924407,0.07561470945916586,0.2175153680428062,0.10166817440774845,0.09249423405386331,0.22002671337367893,-0.31763224732398543,100.0,100.0,100.0,100.0,100.0,100.0,100.0,100.0,100.0,100.0,100.0,100.0,100.0,100.0,100.0,100.0,100.0,100.0,100.0,100.0,100.0,100.0,100.0,100.0,100.0,100.0,100.0,100.0,100.0,100.0,100.0,100.0,100.0,100.0,100.0,100.0,100.0,100.0,100.0,100.0,100.0,100.0,100.0,100.0,100.0,100.0,100.0,100.0,100.0,100.0,100.0,100.0,0.1861051425697158,-0.03407905531306399,-0.03407905531306399,-0.03407905531306399,100.0,100.0,100.0,100.0,100.0,100.0,100.0,100.0,100.0,100.0,100.0,100.0,100.0,100.0,100.0,100.0,100.0,100.0,100.0,100.0,100.0,100.0,100.0,100.0,100.0,100.0,100.0,100.0,0.0031501808180742236,-0.04218779981963887,0.06858021321274393,0.2719683495146868,100.0,100.0,100.0,100.0,0.24433191037587312,0.22569849063623446,0.22569849063623446,0.22569849063623446,0.14035826004347643,0.3810092453257942,0.4824382007632708,0.35244409164882273,0.0985027755375372,-0.06459892869736045,0.09021524557479871,-0.18386168938235403
-0.050240194696567764,0.005442440971966209,0.2425434389294007,0.12962664605626625,100.0,100.0,100.0,100.0,0.1620833840866272,-0.22710306429668226,0.24533975013330125,0.2742377330593444,100.0,100.0,100.0,100.0,100.0,100.0,100.0,100.0,100.0,100.0,100.0,100.0,0.3007402701717523,0.27808713705380034,0.1806516620149619,-0.37339632867281336,0.17327816938024598,0.23725270539638257,0.06517166163572492,0.06713485475919437,100.0,100.0,100.0,100.0,0.13440292518685254,-0.228900830812371,0.43928818255692637,-0.11457492865544208,0.009215455625013618,0.11616705209709811,-0.01486028039501465,0.18424110557899323,100.0,100.0,100.0,100.0,0.14140357208243548,-0.026547760253063324,0.21085759809347004,0.27564872061322954,100.0,100.0,100.0,100.0,100.0,100.0,100.0,100.0,100.0,100.0,100.0,100.0,0.10696085330251269,-0.09318758063356598,0.2693334677428863,0.1900700983412186,100.0,100.0,100.0,100.0,100.0,100.0,100.0,100.0,100.0,100.0,100.0,100.0,0.17985685921916128,-0.11521940452365073,-0.06911242631901998,-0.3354884182702932,0.061962553830648054,-0.12537605683307504,0.18013115064671933,0.09357320073836356,100.0,100.0,100.0,100.0,100.0,100.0,100.0,100.0,0.26765019953056884,0.05134018804298748,0.05134018804298748,-0.4826608820027845,100.0,100.0,100.0,100.0,100.0,100.0,100.0,100.0,100.0,100.0,100.0,100.0,100.0,100.0,100.0,100.0,100.0,100.0,100.0,100.0,0.2208638599339436,0.11179830401581355,-0.15687778789001186,-0.15687778789001186,100.0,100.0,100.0,100.0,100.0,100.0,100.0,100.0,-0.0001907788916149667,0.017038763022131573,0.5750270112756051,0.1927381934134182,100.0,100.0,100.0,100.0,-0.1428810459107566,-0.1428810459107566,-0.1428810459107566,0.35252035962658557,100.0,100.0,100.0,100.0,100.0,100.0,100.0,100.0,100.0,100.0,100.0,100.0,100.0,100.0,100.0,100.0
0.17502484115301375,-0.32958569412171895,0.2136532093352166,-0.18205654802265261,100.0,100.0,100.0,100.0,0.009466881259836102,0.16640294299977892,0.039200723236847534,0.07514797459534944,100.0,100.0,100.0,100.0,100.0,100.0,100.0,100.0,100.0,100.0,100.0,100.0,0.054949741105764824,-0.09348931692608708,0.3982774477411956,-0.0898485780671775,100.0,100.0,100.0,100.0,100.0,100.0,100.0,100.0,100.0,100.0,100.0,100.0,100.0,100.0,100.0,100.0,0.12933789286968617,-0.08433826547162357,-0.03721552689930588,0.16579923447758568,100.0,100.0,100.0,100.0,0.006063099846522551,-0.14460288053339007,0.11918871933125773,-0.15336597888113562,0.12405560496678399,-0.11146268033023796,0.21578131297725323,-0.39811728739491964,0.07736249341384593,-0.12806759411575605,-0.12806759411575605,-0.31778131754392336,0.1103501791204329,-0.07937629290189094,0.23739135782982523,-0.317868546387851,0.3185909865542902,-0.015022716196725697,0.1515754419422323,0.249561139814497,100.0,100.0,100.0,100.0,100.0,100.0,100.0,100.0,0.240778801674889,0.1501797227910115,0.045828095248144414,0.1768743679920329,100.0,100.0,100.0,100.0,100.0,100.0,100.0,100.0,100.0,100.0,100.0,100.0,100.0,100.0,100.0,100.0,100.0,100.0,100.0,100.0,100.0,100.0,100.0,100.0,0.09638699279927063,-0.4013358498664397,0.20455985808511232,0.1824138108550447,0.1864188695732773,0.10467559242335417,0.10467559242335417,0.034679872812171525,0.012906744688387477,-0.44579776247722747,0.1361732306362888,-0.28585328794035036,0.14848123998513796,-0.2641458869740663,0.2198787619393216,-0.2172586172750799,0.07961222781696564,-0.15600353822561921,0.07952659284291755,-0.3029605097359377,100.0,100.0,100.0,100.0,0.10232977326768405,-0.1326363600433225,0.15687999762411964,-0.030646323468699554,0.319676947589024,-0.02918721374092595,-0.018156519192433322,0.13733016711133259,100.0,100.0,100.0,100.0,100.0,100.0,100.0,100.0,100.0,100.0,100.0,100.0,100.0,100.0,100.0,100.0,-0.062379892516429676,0.15845903000007633,-0.062379892516429676,-0.23805189002537666
100.0,100.0,100.0,100.0,0.08396067936506585,-0.23534733978481343,0.3608852016329849,-0.15456056680650976,100.0,100.0,100.0,100.0,100.0,100.0,100.0,100.0,100.0,100.0,100.0,100.0,0.14894116027146537,-0.12677260005453297,-0.018009151605914646,0.2103827169042562,100.0,100.0,100.0,100.0,0.04460170315033931,0.04460170315033931,0.04460170315033931,0.2123707611509716,100.0,100.0,100.0,100.0,100.0,100.0,100.0,100.0,0.24745625765910734,-0.11724992787250332,-0.11724992787250332,-0.34779296728604403,100.0,100.0,100.0,100.0,100.0,100.0,100.0,100.0,100.0,100.0,100.0,100.0,100.0,100.0,100.0,100.0,0.17917586163975005,0.013848329888584959,0.235920499435619,0.1638798607368786,100.0,100.0,100.0,100.0,100.0,100.0,100.0,100.0,100.0,100.0,100.0,100.0,100.0,100.0,100.0,100.0,0.26457537111850016,0.05252345849397382,0.05252345849397382,-0.38919801701726886,100.0,100.0,100.0,100.0,100.0,100.0,100.0,100.0,0.07036587702738632,0.017155646555856156,0.18755644372017843,-0.15718019916054418,0.14351615070688659,-0.16688759947268528,0.10335608562560536,0.024460421757318614,100.0,100.0,100.0,100.0,0.2722925580964239,-0.032089962107226803,-0.032089962107226803,0.12787241845836894,100.0,100.0,100.0,100.0,100.0,100.0,100.0,100.0,100.0,100.0,100.0,100.0,0.12319548786508991,-0.23710978535976612,0.14162455028385035,-0.1807940178603694,0.007734836815278496,0.02695776320935904,0.1990059245899775,-0.028481011995190146,100.0,100.0,100.0,100.0,100.0,100.0,100.0,100.0,100.0,100.0,100.0,100.0,100.0,100.0,100.0,100.0,-0.04565644184902804,0.05329666300364539,0.3760128908009631,0.09836015739400865,100.0,100.0,100.0,100.0,100.0,100.0,100.0,100.0,100.0,100.0,100.0,100.0
100.0,100.0,100.0,100.0,0.2663835393192814,-0.053868560064212215,0.25007679519459386,0.01210839669233041,0.31689567222356274,0.061520954027848046,0.061520954027848046,0.19020229783677634,100.0,100.0,100.0,100.0,100.0,100.0,100.0,100.0,100.0,100.0,100.0,100.0,100.0,100.0,100.0,100.0,100.0,100.0,100.0,100.0,0.15747169177885295,-0.03689749705002965,0.16116902811594583,0.23738445997532884,100.0,100.0,100.0,100.0,0.1634399228191285,0.07159797644459424,0.18979100500002355,0.2555299435547209,0.13765350977871826,0.05094264049483215,0.05094264049483215,0.3072985037754377,-0.08448278368039343,0.017781882056065443,0.09529583136775949,0.20638145832875382,0.294339581833264,0.1500725202730614,0.14143999976439814,0.24937290319297628,100.0,100.0,100.0,100.0,100.0,100.0,100.0,100.0,0.13719497414587806,-0.11803769175235969,0.11488135525034136,-0.1909606391555866,100.0,100.0,100.0,100.0,100.0,100.0,100.0,100.0,100.0,100.0,100.0,100.0,100.0,100.0,100.0,100.0,100.0,100.0,100.0,100.0,100.0,100.0,100.0,100.0,100.0,100.0,100.0,100.0,100.0,100.0,100.0,100.0,0.12264008827016729,-0.12216232443277705,0.10239487947791738,0.033559808797711456,0.18074159212770538,0.001993176369467109,0.001993176369467109,-0.0958795464111209,0.08849911075678576,0.24806622983796056,0.07814160367719845,-0.12317850783334248,100.0,100.0,100.0,100.0,100.0,100.0,100.0,100.0,100.0,100.0,100.0,100.0,100.0,100.0,100.0,100.0,0.06533734982282782,0.08749066079503738,0.11685809845721688,-0.2266916106607309,0.25864601935385906,0.13717914898524453,0.21480023156824424,-0.12409610473909247,100.0,100.0,100.0,100.0,100.0,100.0,100.0,100.0,100.0,100.0,100.0,100.0,0.08453283864613062,-0.09259187224421998,-0.0651171486215601,-0.02735001331199384,0.07830308358240062,-0.09231144388813806,0.038046991962918546,-0.26046435140818025,100.0,100.0,100.0,100.0
0.17462240351137098,0.17402623644339582,0.30148090026268914,-0.3871609641560225,100.0,100.0,100.0,100.0,100.0,100.0,100.0,100.0,0.13695813292357711,0.08383438935290932,0.14356752968106004,-0.13794888408666042,100.0,100.0,100.0,100.0,100.0,100.0,100.0,100.0,0.06995870863823422,0.05105675141053648,0.3546071072995426,0.017780096411437837,100.0,100.0,100.0,100.0,100.0,100.0,100.0,100.0,100.0,100.0,100.0,100.0,100.0,100.0,100.0,100.0,100.0,100.0,100.0,100.0,100.0,100.0,100.0,100.0,-0.03831399701228736,0.21500632878542753,0.35121099934190064,0.16815956295227721,0.3196129575958907,0.10346646379435792,0.10346646379435792,0.1300572979571503,1.4363235805930213e-05,0.1613223701912076,0.47497700745970023,0.20987401872989597,0.21039091575596508,-0.17207480950256548,-0.17207480950256548,0.09271406419112604,100.0,100.0,100.0,100.0,100.0,100.0,100.0,100.0,0.19555377104834765,-0.06360315377720921,-0.06360315377720921,0.16169192962964227,100.0,100.0,100.0,100.0,-0.01231096388403196,-0.18604809577617393,-0.01231096388403196,-0.22372921047822203,0.2312643297816886,-0.04735094770639642,-0.04735094770639642,0.10822118756080434,100.0,100.0,100.0,100.0,100.0,100.0,100.0,100.0,100.0,100.0,100.0,100.0,100.0,100.0,100.0,100.0,100.0,100.0,100.0,100.0,100.0,100.0,100.0,100.0,100.0,100.0,100.0,100.0,100.0,100.0,100.0,100.0,100.0,100.0,100.0,100.0,0.12578120519887148,0.15270483344083058,0.1671128225816074,0.11983316995059161,0.14127213423380577,0.08286738345085634,0.08286738345085634,0.2316649616179312,100.0,100.0,100.0,100.0,100.0,100.0,100.0,100.0,100.0,100.0,100.0,100.0,0.1315829720237695,-0.060358946098681275,0.21574996537977137,0.30455392477792004,100.0,100.0,100.0,100.0,100.0,100.0,100.0,100.0
100.0,100.0,100.0,100.0,100.0,100.0,100.0,100.0,0.1410796777724775,-0.2019179006423042,0.5380024187029169,-0.16249003307700594,100.0,100.0,100.0,100.0,100.0,100.0,100.0,100.0,100.0,100.0,100.0,100.0,100.0,100.0,100.0,100.0,100.0,100.0,100.0,100.0,-0.009668338050488737,0.01987155951159067,0.31836315731337156,-0.04877406827437461,100.0,100.0,100.0,100.0,0.2507527367835408,-0.03775262089964674,-0.03775262089964674,-0.08314597161138226,0.20981219010986613,-0.06446369610024823,0.2214502009149505,0.054427375178402654,0.3261650282617088,0.15805714859750492,0.19479431550570006,0.13426212286323586,100.0,100.0,100.0,100.0,100.0,100.0,100.0,100.0,100.0,100.0,100.0,100.0,100.0,100.0,100.0,100.0,100.0,100.0,100.0,100.0,0.23344661992242555,0.13320851622799834,0.08449142899028378,-0.38336596028107617,0.05386738163549565,0.44904591801694255,0.056304598595337346,0.06958734329122038,100.0,100.0,100.0,100.0,100.0,100.0,100.0,100.0,100.0,100.0,100.0,100.0,0.14201092738943832,0.09568760115128142,0.3728056467781968,0.1929185092144414,0.19821771784587977,-0.0301931679653651,0.21395096429357546,0.1288123899607988,100.0,100.0,100.0,100.0,0.11084201638188317,-0.0005098339815336542,-0.0005098339815336542,0.03876395353188972,100.0,100.0,100.0,100.0,100.0,100.0,100.0,100.0,100.0,100.0,100.0,100.0,0.23137241186257781,0.26434417794166654,0.012042373288390161,-0.4247804972936158,0.10034445275574438,-0.10530121711243273,0.0386162066432095,-0.05284086650397589,100.0,100.0,100.0,100.0,100.0,100.0,100.0,100.0,100.0,100.0,100.0,100.0,100.0,100.0,100.0,100.0,100.0,100.0,100.0,100.0,100.0,100.0,100.0,100.0,0.22641286393936355,0.039173661679352295,0.15207230647337228,0.1170482773502714,100.0,100.0,100.0,100.0
0.1600193926857886,-0.12687709001503514,0.258632944946473,-0.35157834668916405,100.0,100.0,100.0,100.0,100.0,100.0,100.0,100.0,100.0,100.0,100.0,100.0,100.0,100.0,100.0,100.0,0.24357474144867197,-0.2126964975774995,0.2025675858326294,0.004837937862391263,0.09593735016821464,0.07178496925257882,0.1319902754912687,-0.11736660461185025,0.12512716622453351,-0.1272614624036331,0.16305987112950215,-0.5201707875721595,100.0,100.0,100.0,100.0,100.0,100.0,100.0,100.0,100.0,100.0,100.0,100.0,100.0,100.0,100.0,100.0,0.21343470228378345,0.13533532097471335,0.18194340180184582,0.043420049126891694,0.19252471533044674,0.1771406485395085,0.20177076292513613,-0.33066889109909653,0.21542431893246716,0.08284963737312512,0.08284963737312512,0.10201297717817717,0.03442650505356702,0.0288970804263093,0.058767088463057164,0.28386519733176835,100.0,100.0,100.0,100.0,0.2129144357706963,0.12705727584522578,0.010073715858938487,-0.4394488301546679,0.31040662613693326,-0.18366606578443537,-0.18366606578443537,-0.1741790356498213,100.0,100.0,100.0,100.0,0.08353306307805357,0.015842723162244422,0.25137583252118567,-0.2552262857069079,100.0,100.0,100.0,100.0,100.0,100.0,100.0,100.0,100.0,100.0,100.0,100.0,100.0,100.0,100.0,100.0,0.20899816068917945,0.04850851726859973,0.18015347457306496,0.13477127929269783,100.0,100.0,100.0,100.0,100.0,100.0,100.0,100.0,0.08603646199329543,-0.07848149192367987,0.010041489601926044,0.12138601781441294,100.0,100.0,100.0,100.0,100.0,100.0,100.0,100.0,100.0,100.0,100.0,100.0,0.032145127862344525,-0.030262927102269285,0.06207147797836537,0.03921154190955557,100.0,100.0,100.0,100.0,0.151768259675264,0.054982250322467834,0.3730108412963495,0.07383142461562044,100.0,100.0,100.0,100.0,100.0,100.0,100.0,100.0,0.2506267897309469,0.15715409475237213,0.15715409475237213,0.3660160484915046,100.0,100.0,100.0,100.0,100.0,100.0,100.0,100.0
0.13467293712758716,-0.18656387693449575,0.06688338782746667,0.06688338782746667,100.0,100.0,100.0,100.0,100.0,100.0,100.0,100.0,100.0,100.0,100.0,100.0,100.0,100.0,100.0,100.0,100.0,100.0,100.0,100.0,100.0,100.0,100.0,100.0,0.01781956209167747,-0.4819300876250368,0.18196223906766,-0.27657628202181656,100.0,100.0,100.0,100.0,100.0,100.0,100.0,100.0,100.0,100.0,100.0,100.0,100.0,100.0,100.0,100.0,100.0,100.0,100.0,100.0,0.06297363561818481,-0.09472199385035365,0.1884623112649477,0.20041542066490564,0.16403064752821872,0.24117649516236053,-0.011347197552563117,-0.4585456573813769,0.19600198112624367,-0.42151014599956227,0.44235090862320564,-0.03711048681720166,0.06807696178403999,0.1502708208125541,0.2683023674149057,-0.10863351965113577,100.0,100.0,100.0,100.0,100.0,100.0,100.0,100.0,100.0,100.0,100.0,100.0,0.15720456831565136,-0.06580159302028935,0.15720456831565136,-0.15084183249242689,100.0,100.0,100.0,100.0,100.0,100.0,100.0,100.0,100.0,100.0,100.0,100.0,0.13265608792640657,-0.10057462147341159,0.13044848652183186,-0.24498404008498192,100.0,100.0,100.0,100.0,100.0,100.0,100.0,100.0,100.0,100.0,100.0,100.0,100.0,100.0,100.0,100.0,100.0,100.0,100.0,100.0,100.0,100.0,100.0,100.0,100.0,100.0,100.0,100.0,100.0,100.0,100.0,100.0,0.13097061447512842,-0.1794084594549183,0.07802451169747282,0.07899741225551049,100.0,100.0,100.0,100.0,100.0,100.0,100.0,100.0,100.0,100.0,100.0,100.0,0.006096627482119851,0.23890362512525418,0.153188810623545,0.22744259328058475,100.0,100.0,100.0,100.0,100.0,100.0,100.0,100.0
100.0,100.0,100.0,100.0,100.0,100.0,100.0,100.0,100.0,100.0,100.0,100.0,100.0,100.0,100.0,100.0,100.0,100.0,100.0,100.0,100.0,100.0,100.0,100.0,0.16872912460547715,-0.1690004912463433,-0.1690004912463433,-0.2104020119935208,100.0,100.0,100.0,100.0,100.0,100.0,100.0,100.0,0.1120450061899701,-0.019943574949106813,0.10871154679166813,-0.434258773546384,100.0,100.0,100.0,100.0,100.0,100.0,100.0,100.0,0.10296946106872693,0.12379840367245065,0.08834517748194379,-0.07338919694342322,100.0,100.0,100.0,100.0,100.0,100.0,100.0,100.0,100.0,100.0,100.0,100.0,0.26341086413631254,0.34163473333537436,0.26163499877764146,-0.24550584670711553,0.03725429072890901,-0.10314526313056362,0.26971645014422624,-0.050589039680547836,100.0,100.0,100.0,100.0,-0.004258938017556238,0.12937633262998227,-0.00886896159132694,0.27191569877848476,100.0,100.0,100.0,100.0,100.0,100.0,100.0,100.0,0.19142380077590204,0.11336226016813274,0.12848286127180605,-0.3691351984428206,0.07490244128496837,-0.3596450854707749,0.1865445280613748,0.11355551629864273,100.0,100.0,100.0,100.0,100.0,100.0,100.0,100.0,100.0,100.0,100.0,100.0,100.0,100.0,100.0,100.0,0.3089708495001853,-0.05957683825909012,-0.05957683825909012,0.17604727986462088,100.0,100.0,100.0,100.0,0.0347560319402892,0.11741296700818257,0.06802945947120759,-0.003549458808960043,100.0,100.0,100.0,100.0,-0.024035144050495894,-0.12096866299471096,0.23738979878067967,-0.18982390331002974,100.0,100.0,100.0,100.0,0.11328800495777996,-0.19340169067728977,0.09986121269418008,-0.37204837257356826,0.0771985695223531,-0.18033172315370438,0.1207020306368873,-0.053501468297391636,100.0,100.0,100.0,100.0,100.0,100.0,100.0,100.0,100.0,100.0,100.0,100.0,0.0026902907891594857,0.2312181830802161,0.26441651220620144,0.021646784713425973
100.0,100.0,100.0,100.0,100.0,100.0,100.0,100.0,100.0,100.0,100.0,100.0,0.047304941413227816,0.0915334741638851,0.12846479736536381,0.2579909740058031,0.1055325361884353,-0.07574738593149241,0.18096724279287124,-0.4394388019863491,100.0,100.0,100.0,100.0,100.0,100.0,100.0,100.0,100.0,100.0,100.0,100.0,100.0,100.0,100.0,100.0,100.0,100.0,100.0,100.0,100.0,100.0,100.0,100.0,100.0,100.0,100.0,100.0,100.0,100.0,100.0,100.0,100.0,100.0,100.0,100.0,0.07954152748161639,-0.12212520721144375,0.18226326257975983,-0.27803367244216376,0.19569886684432555,-0.03829730310015992,0.20466803698998365,-0.00806338772248247,100.0,100.0,100.0,100.0,100.0,100.0,100.0,100.0,100.0,100.0,100.0,100.0,100.0,100.0,100.0,100.0,100.0,100.0,100.0,100.0,100.0,100.0,100.0,100.0,0.2991283872194241,0.04342374399169037,0.05430903223319755,-0.03165266984663738,100.0,100.0,100.0,100.0,0.248752812768722,0.03317455271483527,-0.08539913342943686,-0.011829143629140844,0.18339849355388807,0.002153880992679165,0.13242622541413152,-0.2516220389564957,100.0,100.0,100.0,100.0,100.0,100.0,100.0,100.0,100.0,100.0,100.0,100.0,100.0,100.0,100.0,100.0,100.0,100.0,100.0,100.0,100.0,100.0,100.0,100.0,0.28747550822927664,-0.2110523868988159,0.11836970274952696,-0.10496448575656665,100.0,100.0,100.0,100.0,0.17089737514710646,0.14289252970606536,0.07794012515132413,0.24999365457019398,0.10917406776268697,0.047977934811759715,0.1347449002113198,-0.1967465896834119,100.0,100.0,100.0,100.0,0.08371143749719653,0.01932260997925757,0.38188465131842186,0.18840956515137544,100.0,100.0,100.0,100.0,100.0,100.0,100.0,100.0
0.18154176427327945,0.09082782544407905,0.362943735037244,0.08960314076711848,0.07670423653199121,0.24581396639234498,0.19157904466475792,-0.4138945886944422,0.009457209308888805,-0.11189946063961721,0.009457209308888805,-0.05182157051536912,100.0,100.0,100.0,100.0,100.0,100.0,100.0,100.0,100.0,100.0,100.0,100.0,100.0,100.0,100.0,100.0,100.0,100.0,100.0,100.0,0.10258196939850531,0.053087463714011136,0.05613236023212402,-0.1163889525073164,0.13131907418823252,0.05361414044095124,0.33271188728985696,-0.02608175864606447,100.0,100.0,100.0,100.0,100.0,100.0,100.0,100.0,100.0,100.0,100.0,100.0,100.0,100.0,100.0,100.0,100.0,100.0,100.0,100.0,100.0,100.0,100.0,100.0,100.0,100.0,100.0,100.0,100.0,100.0,100.0,100.0,0.1308576773731304,0.10374497134018193,0.23959568818815197,0.0338712474870668,0.09886175621153984,0.006273454459125076,0.16058630791402928,0.10180166453374327,100.0,100.0,100.0,100.0,0.2372144762185167,0.10123943600288163,0.05958848022992613,-0.32922567474405273,100.0,100.0,100.0,100.0,100.0,100.0,100.0,100.0,100.0,100.0,100.0,100.0,-0.021159560082506065,-0.23600405412094722,0.08558599719656612,0.063409247991491,100.0,100.0,100.0,100.0,100.0,100.0,100.0,100.0,0.3130317289731209,-0.33456124178392593,-0.17397424149708102,0.18133890705491168,100.0,100.0,100.0,100.0,0.23484513367275295,0.24198199582183988,0.27884210911137197,-0.35691150025426865,100.0,100.0,100.0,100.0,0.1782627725032398,0.07912974252219009,0.060613681439250625,-0.20899152123087222,0.08730368671586264,0.17192171632355138,0.20127115756574102,0.013419126421034606,0.19414503625101465,0.026125508734630584,0.15201412901904252,0.08486583686462501,0.13093957529772046,0.2634644426948409,0.12250118327432351,-0.07201767527670216,100.0,100.0,100.0,100.0,0.1540124072059166,0.18111898073882407,0.1250986512309149,-0.5196751115435622,100.0,100.0,100.0,100.0,0.09380731210011609,-0.061782367133153424,0.17587592367521496,-0.4326341650903856
100.0,100.0,100.0,100.0,100.0,100.0,100.0,100.0,0.07668583677308849,0.11544206461704891,0.13885770416965623,-0.04299090153198695,0.3778719155361161,0.1444361273783381,-0.08706607702765422,-0.39753582617943645,100.0,100.0,100.0,100.0,100.0,100.0,100.0,100.0,100.0,100.0,100.0,100.0,100.0,100.0,100.0,100.0,100.0,100.0,100.0,100.0,100.0,100.0,100.0,100.0,100.0,100.0,100.0,100.0,100.0,100.0,100.0,100.0,0.20699358712919594,-0.16166885739692352,-0.06448939988780808,-0.06448939988780808,0.10564394675551031,-0.11863247004013287,0.14132662555945746,-0.33960221273685925,100.0,100.0,100.0,100.0,100.0,100.0,100.0,100.0,100.0,100.0,100.0,100.0,0.10804468912230447,0.09578054396334842,0.1147438175102331,0.10804468912230447,0.1309917221867092,-0.17449146043673897,0.13053224655989643,0.1722107892092193,100.0,100.0,100.0,100.0,0.09655578082040872,0.07218671871750093,0.19498884030800612,-0.15434535953827053,100.0,100.0,100.0,100.0,0.24521243156780717,0.0544851232950927,0.07890482843952128,-0.0970917218995892,-0.01971566773714102,0.21237131338997248,0.04519839457633763,-0.025133702522661124,0.29788559595756536,0.25294623652898596,0.11206622660034718,-0.12939757526979515,0.3076930086429427,-0.11425970326196694,-0.009676856930802148,-0.043155873065960124,100.0,100.0,100.0,100.0,100.0,100.0,100.0,100.0,100.0,100.0,100.0,100.0,0.22834125490602056,0.05394586439803391,0.22786018165981264,-0.11989191607608346,100.0,100.0,100.0,100.0,100.0,100.0,100.0,100.0,100.0,100.0,100.0,100.0,0.2568026319610532,0.03898407403055533,0.23002955716049284,-0.42915536841816726,100.0,100.0,100.0,100.0,0.2149321152804869,0.16405033839996566,0.16405033839996566,0.32314068794738876,0.08636789889081684,-0.1158800483117008,0.26376765184599954,-0.18914896607873533,100.0,100.0,100.0,100.0,100.0,100.0,100.0,100.0,100.0,100.0,100.0,100.0
0.08016865090353373,0.14924889037815506,0.13210685133858996,-0.21528702898629165,0.1900562542427814,-0.014927437069107513,0.04342982155845007,-0.4101422807401415,0.17699805495101453,0.08688825399313072,0.15092952805866836,0.13640340429726042,100.0,100.0,100.0,100.0,-0.047980585097348025,-0.3445310345354732,0.17036354992648106,-0.24581417158704882,0.08800992546635099,-0.29042818920330676,0.17966105500236795,0.09375948863644873,0.2510993652321672,0.07015973273884037,0.07015973273884037,0.1846761412616504,100.0,100.0,100.0,100.0,100.0,100.0,100.0,100.0,100.0,100.0,100.0,100.0,100.0,100.0,100.0,100.0,0.005016786208473126,0.18795284883145782,0.10425487223902097,-0.0018724971006556929,0.2339654215767923,0.18152387261410977,0.2682888975528035,0.0853666238214677,0.12106275666190272,0.17662963339152415,0.15355257846112527,-0.1711950552716216,0.14800775313692915,-0.028064328259809146,-0.028064328259809146,-0.028064328259809146,100.0,100.0,100.0,100.0,100.0,100.0,100.0,100.0,0.255129836696368,0.06299032066305972,0.06299032066305972,0.24739713011820755,0.2248327541407785,-0.10851640262568804,0.23171050795036296,0.2918778675033041,100.0,100.0,100.0,100.0,100.0,100.0,100.0,100.0,100.0,100.0,100.0,100.0,0.0061416793632506645,-0.2053368724079506,0.1530261518304126,-0.3269440824299835,0.30531843995643476,-0.14259545882966285,0.08676036325739629,-0.17533964588710638,0.16269867930351772,0.008707507566940217,0.07364502391570332,-0.14013287850151057,0.3076749840086532,-0.251821253865524,0.047269010984674426,-0.10318338942439959,0.24607306944211793,0.00421273817189502,0.04476566489788928,-0.03351275617897299,0.03812858060287331,0.19693897404304933,0.1589577861310025,0.08354767698375778,0.09916343668096883,0.23227752750737057,0.10056642944447448,0.10056642944447448,100.0,100.0,100.0,100.0,0.3581485704192504,-0.13838080987337492,0.04106660745906136,-0.04165938560296968,0.16784024881485216,0.11691185884828567,0.1060156797881344,0.11342116299867949,0.16152242861111546,0.11164617835615616,0.16295492251311455,-0.04595597303271494,100.0,100.0,100.0,100.0,100.0,100.0,100.0,100.0,100.0,100.0,100.0,100.0,0.05259868434276836,0.11103527269550482,0.01913305149553067,0.19677146531855616,100.0,100.0,100.0,100.0,0.12573595048965425,-0.02305259960846326,-0.08848602606210682,-0.10528807354251142,0.08661893275377461,0.04572227244039709,0.20340564034205744,0.1326322520929412
100.0,100.0,100.0,100.0,0.06177900089013304,0.024960881678370524,0.25188107027829787,-0.3534209331240966,100.0,100.0,100.0,100.0,100.0,100.0,100.0,100.0,100.0,100.0,100.0,100.0,0.12584789781060923,0.18310898753368823,0.022485382007692165,-0.2507543635577699,100.0,100.0,100.0,100.0,100.0,100.0,100.0,100.0,100.0,100.0,100.0,100.0,100.0,100.0,100.0,100.0,0.019421170450698293,0.14480373461011917,0.10705553033409262,-0.1856002946546171,100.0,100.0,100.0,100.0,0.32206824428112196,0.06559036575687083,0.10702041289793111,-0.15584265411177486,100.0,100.0,100.0,100.0,100.0,100.0,100.0,100.0,100.0,100.0,100.0,100.0,100.0,100.0,100.0,100.0,100.0,100.0,100.0,100.0,100.0,100.0,100.0,100.0,0.21622213027430762,0.15244920728008293,0.22718339881424088,-0.07057511553614518,100.0,100.0,100.0,100.0,0.07350488056019158,0.09449172173342808,0.1949608822714642,-0.22924631432688305,100.0,100.0,100.0,100.0,100.0,100.0,100.0,100.0,100.0,100.0,100.0,100.0,0.19703615186224016,0.023092697846356397,0.06427044995150698,-0.2341594159650073,100.0,100.0,100.0,100.0,0.09863775063785854,0.0437930780207319,0.08169363607991983,-0.041611464922539254,100.0,100.0,100.0,100.0,0.12566147487332963,0.17628342871674857,0.11005310282071652,0.03343904566842344,0.03740852116981581,0.16133719068649158,0.14755636899663246,-0.13190661127355585,0.13293315224561775,0.10630923804787595,0.15076112616480108,-0.13697788049172022,0.26280717715640056,0.15640752878838154,0.22003732284553412,-0.42381488962299974,100.0,100.0,100.0,100.0,100.0,100.0,100.0,100.0,100.0,100.0,100.0,100.0,0.2240341441341118,0.14947758229325395,0.17553434865406053,-0.3648374337899138,100.0,100.0,100.0,100.0,0.1216051085652087,-0.14846042003442478,0.17645781260862559,-0.2683855427767295,0.15289349539051764,0.016478341939079173,0.06423601533938905,-0.25150251435171533
100.0,100.0,100.0,100.0,0.10677892582762719,0.2263925000158603,-0.13045252577597893,0.01349068764696787,100.0,100.0,100.0,100.0,100.0,100.0,100.0,100.0,100.0,100.0,100.0,100.0,-0.0098513429173845,-0.2300775732358284,0.18825064993610297,-0.22476255331239525,100.0,100.0,100.0,100.0,0.13345903261866177,0.1454178198619251,0.07403272888923154,-0.042535046642663235,100.0,100.0,100.0,100.0,100.0,100.0,100.0,100.0,0.12182013337114611,0.09039558427593714,0.17221177383967665,-0.0017064548180756728,100.0,100.0,100.0,100.0,0.15920349347005286,0.014797450275244331,0.2797626047161854,-0.1997832781374558,-0.05773411484119779,-0.05773411484119779,-0.05773411484119779,0.3873149714312096,100.0,100.0,100.0,100.0,0.22385843380120823,-0.10038170793022308,-0.10038170793022308,-0.10038170793022308,0.1957023245652027,-0.226105635297472,0.1397217148602105,0.24956880036965862,100.0,100.0,100.0,100.0,100.0,100.0,100.0,100.0,100.0,100.0,100.0,100.0,0.15309593975825167,-0.03185632306332438,-0.06970267727193925,-0.23552498121699078,100.0,100.0,100.0,100.0,100.0,100.0,100.0,100.0,0.1582533570888865,-0.039881001327283484,0.16724318535695276,-0.4958463628444809,100.0,100.0,100.0,100.0,100.0,100.0,100.0,100.0,0.06092350748109711,-0.17313825406234923,0.1553474084775359,-0.16473379707605665,0.255466523576669,0.1458958502440549,0.1650329681878372,-0.08459657686020791,0.021846439633228215,-0.3908672165732021,0.05855885134669715,0.061412655142826164,100.0,100.0,100.0,100.0,100.0,100.0,100.0,100.0,0.11380416762887152,-0.03580767704635815,0.13238049546458275,-0.22312588181417453,0.1694270625076412,0.12703525652175293,0.06685658994507011,0.012641645718542413,100.0,100.0,100.0,100.0,0.14692831520952238,-0.014656079239592945,0.20443963344345042,0.20054998046632524,0.3046575957494999,-0.2136588459672718,0.27915004364857876,-0.14343203953694086,0.09321010956405561,0.20579931641096216,0.1623216940119097,0.38821206599134983,0.2574929867138661,0.030579096364691374,0.10565018587934405,0.10565018587934405,100.0,100.0,100.0,100.0,0.2724771277206831,-0.05260231346070834,-0.05260231346070834,0.3118758889784781
100.0,100.0,100.0,100.0,100.0,100.0,100.0,100.0,0.03194038188822879,-0.03465261363269047,-0.07284682632877466,0.23252450852738643,100.0,100.0,100.0,100.0,0.23827923257693273,-0.2954866263848119,0.06797257023064752,0.16704876663097512,100.0,100.0,100.0,100.0,0.13641012373984113,0.16303005409721066,0.10365612773020948,0.10365612773020948,0.11421233663964417,0.10549904016534495,0.12865938572859342,-0.1987564340187289,100.0,100.0,100.0,100.0,0.05613398402423789,-0.17620923862215682,0.09958292818026183,-0.24303695023921612,100.0,100.0,100.0,100.0,100.0,100.0,100.0,100.0,100.0,100.0,100.0,100.0,100.0,100.0,100.0,100.0,0.14201257697106304,-0.09312786959701289,0.18552413055848072,-0.3143130982455433,100.0,100.0,100.0,100.0,0.2744549712864879,0.11153777231643136,0.27378770885001424,-0.3353645912662477,0.21244498152745583,-0.06285710246037825,0.20340783148786798,0.20340783148786798,0.10588556034074663,-0.35223208458991656,0.12457632627363888,0.09437521571176827,0.31609612519813274,0.14176230685131744,0.256739684684959,-0.21236201147234826,-0.025058627817977505,0.17838721766842366,0.34777156468250414,0.23400565092546427,100.0,100.0,100.0,100.0,0.13740769132645378,-0.40818075587902997,0.04869484587426641,-0.2581094239643808,100.0,100.0,100.0,100.0,0.3428115979059657,0.23219118804680883,0.009904791882064765,-0.18173381649800988,100.0,100.0,100.0,100.0,0.237008633534548,0.03274183045318313,-0.0503153744557646,-0.013899294305617843,0.19744758536855275,0.05117860058164861,-0.008005402807262252,-0.41175357050316896,100.0,100.0,100.0,100.0,0.06407067402882788,-0.3680050386150913,0.23208879899869111,-0.2882104351837025,100.0,100.0,100.0,100.0,100.0,100.0,100.0,100.0,0.2643547346423062,-0.049299952890017325,-0.13652557810776061,-0.2122363021050881,100.0,100.0,100.0,100.0,0.30645229389363426,0.08636838696335143,0.24726595474992932,0.0066226987269007755,0.14532703953320522,0.008867445247505538,0.182189424474572,0.1923180250577109,0.19958573732565368,0.10816488097938712,0.13235397034959845,0.10821210590251934,100.0,100.0,100.0,100.0,100.0,100.0,100.0,100.0,0.2649618471600207,0.1741183027717035,0.21614511450663587,-0.3630127330103168
100.0,100.0,100.0,100.0,100.0,100.0,100.0,100.0,100.0,100.0,100.0,100.0,100.0,100.0,100.0,100.0,100.0,100.0,100.0,100.0,0.07850008676538811,-0.30468828665221925,0.17071262944545906,0.07602175117142455,0.24871263900916413,0.010187137894671947,0.010187137894671947,-0.21539880608710021,0.23968700450769043,0.2596223940805796,0.27531475242318326,-0.006683644812629397,100.0,100.0,100.0,100.0,100.0,100.0,100.0,100.0,0.02681010100812125,-0.3885073051190803,0.18043422619677513,-0.2997061712646841,100.0,100.0,100.0,100.0,100.0,100.0,100.0,100.0,0.17204687338083988,0.16587321873716018,0.4781808619182975,0.10285964259884141,100.0,100.0,100.0,100.0,0.2974205788959913,0.10083515239549776,0.10083515239549776,-0.42231040783726664,100.0,100.0,100.0,100.0,100.0,100.0,100.0,100.0,100.0,100.0,100.0,100.0,0.1356944380488852,-0.014942057355456532,0.2100524715963153,-0.39226766877836095,100.0,100.0,100.0,100.0,100.0,100.0,100.0,100.0,100.0,100.0,100.0,100.0,0.05431185710851574,0.07822768208972125,0.1381608489578296,-0.18147619679085464,100.0,100.0,100.0,100.0,100.0,100.0,100.0,100.0,100.0,100.0,100.0,100.0,100.0,100.0,100.0,100.0,100.0,100.0,100.0,100.0,0.16751975892328277,0.0007331247955672596,-0.1407479827830159,-0.1407479827830159,0.22192847296877632,-0.053306522725860124,0.13488255095890303,0.07351894271295148,0.1811627919976937,0.08440057901579344,0.2370505571341259,-0.3432432434641935,0.2029909311692564,0.07288490609264832,-0.17358614245378765,-0.4264610113869186,100.0,100.0,100.0,100.0,0.20150801262994902,-0.029848650212920862,0.33372832515811457,-0.1387662451606039,100.0,100.0,100.0,100.0,100.0,100.0,100.0,100.0,100.0,100.0,100.0,100.0,0.06076682639484984,0.12772358368608855,0.11601996382616314,0.09884895185105393,0.1197679850424003,0.1158381393039073,0.15598712792652725,-0.17343645057135812
0.2524563787525248,0.34059323310296247,-0.13313182179334723,-0.016797710874135674,100.0,100.0,100.0,100.0,0.11394249588708893,-0.04525086818024599,0.04121421978358995,-0.22141387116441874,100.0,100.0,100.0,100.0,0.07076932475291381,-0.05483739255832273,-0.0661409088284663,0.11015769834568914,100.0,100.0,100.0,100.0,100.0,100.0,100.0,100.0,0.2204264847982738,-0.007000052507825795,0.33466521564707774,-0.04451269458033379,100.0,100.0,100.0,100.0,0.4263614304788333,0.2270778914324909,-0.0059564476610904984,-0.22894791707928733,100.0,100.0,100.0,100.0,100.0,100.0,100.0,100.0,0.16532857510843182,0.11241914747355602,0.15649156286530888,0.1922908967294655,100.0,100.0,100.0,100.0,100.0,100.0,100.0,100.0,100.0,100.0,100.0,100.0,100.0,100.0,100.0,100.0,-0.04595550804180279,-0.38402315557070993,0.11882423907196869,-0.2180630965005815,0.008802337203802545,-0.18174714081740828,0.11002443734819407,-0.35901171119997277,0.1304965214226173,0.07722973871177748,0.1161306415845099,-0.3085603527206503,0.06929770089073387,-0.17179313395674986,0.18616706869729693,0.01568374661621955,100.0,100.0,100.0,100.0,0.2793537996500165,0.005402683672756009,-0.09695717938082445,0.19907899311976218,0.1004380975923202,0.03152833407614207,0.19303187920474893,-0.1105881733596279,0.04862104074735675,0.04862104074735675,0.04862104074735675,0.23038080955106463,100.0,100.0,100.0,100.0,0.20677076796697968,-0.2858846826881504,0.11728074925603746,-0.20336887074900695,100.0,100.0,100.0,100.0,100.0,100.0,100.0,100.0,0.060652759589906055,-0.16343173480264747,0.18030303915484489,-0.19772288152430878,100.0,100.0,100.0,100.0,100.0,100.0,100.0,100.0,100.0,100.0,100.0,100.0,100.0,100.0,100.0,100.0,100.0,100.0,100.0,100.0,100.0,100.0,100.0,100.0,100.0,100.0,100.0,100.0,100.0,100.0,100.0,100.0,100.0,100.0,100.0,100.0,100.0,100.0,100.0,100.0
0.14185746407790784,0.12419405403634426,0.19270315627686285,-0.05961911464839038,100.0,100.0,100.0,100.0,100.0,100.0,100.0,100.0,100.0,100.0,100.0,100.0,0.24841025230041813,-0.10512600057980291,0.18428571424915968,0.10665719838525362,100.0,100.0,100.0,100.0,-0.003051107143686397,0.3123121338926115,0.12180528671509967,-0.18304685002556176,100.0,100.0,100.0,100.0,100.0,100.0,100.0,100.0,100.0,100.0,100.0,100.0,100.0,100.0,100.0,100.0,100.0,100.0,100.0,100.0,100.0,100.0,100.0,100.0,100.0,100.0,100.0,100.0,100.0,100.0,100.0,100.0,100.0,100.0,100.0,100.0,100.0,100.0,100.0,100.0,100.0,100.0,100.0,100.0,0.19142013253368234,0.046360279146279104,0.12962984627376745,-0.2448283824306251,0.1278299061164665,0.07482399989685708,0.2339769186209989,-0.2136177785335378,0.03413044071674966,0.12751957336344671,0.06743280550799648,-0.026350674028264222,-0.014213110948825672,0.1923489193124497,0.13969183828447188,-0.0038152493516540598,0.20008756582159537,-0.03677435035656659,-0.03677435035656659,-0.38832949864272914,100.0,100.0,100.0,100.0,100.0,100.0,100.0,100.0,-0.030644404998156488,-0.2000222955439936,0.08114519025932498,-0.3405529985626854,0.06587854728771,-0.013040990839654758,0.12002276117035404,0.1886291432353966,0.19955111759807925,0.037686324435771176,0.2116108049674423,-0.3488703979488349,-0.02036479061404118,-0.2717372933077961,0.23252194996543665,-0.2302143550919747,0.17722077717735113,0.015720137127984313,0.218280858699406,-0.17707875551242686,0.1886017430339249,0.19450085320331884,0.2544937903666129,0.008543634308310108,100.0,100.0,100.0,100.0,0.07588090773448515,0.07279089225317652,0.15512341429625398,-0.15860094034427946,100.0,100.0,100.0,100.0,100.0,100.0,100.0,100.0,100.0,100.0,100.0,100.0,100.0,100.0,100.0,100.0,0.15092952199110884,-0.025393355122723817,0.132715307702303,-0.2860847344905152,100.0,100.0,100.0,100.0,100.0,100.0,100.0,100.0
100.0,100.0,100.0,100.0,0.2665235063408472,0.06258844818658932,0.19874572908107,-0.17624102884769757,100.0,100.0,100.0,100.0,0.3276564391853958,0.28143078270518873,-0.00950552266643244,-0.2833702391481646,0.1478236650355459,-0.10314003836548023,0.1453762407593261,-0.21245324438060723,100.0,100.0,100.0,100.0,0.31904363612143505,0.050877062234860354,-0.0889018250451713,0.37809518552308596,0.10489642925260599,0.10430202268408556,0.1437817310277687,0.24053722139009004,100.0,100.0,100.0,100.0,0.06840314488268759,-0.37715707072312543,0.1944553139052811,-0.23029130466083128,100.0,100.0,100.0,100.0,0.13742804333321096,-0.22408163838675976,0.1668506960211892,-0.3443023275069208,0.26285258668676903,0.13892803063363998,0.2768841304808678,-0.026843996817045572,100.0,100.0,100.0,100.0,0.18021390317322433,-0.06504486095803799,0.288606595757495,-0.22149094867193853,0.0923140526405545,-0.052140474673012284,0.047510678052132056,-0.0991188588834516,100.0,100.0,100.0,100.0,0.14794071559607408,0.05709580109420305,-0.035090870113994796,0.2708642672611201,0.05736903498639899,-0.0581235966015312,0.08977220977620408,0.14142392111840968,0.02251229095779883,-0.1397811511071349,0.2205249326361692,-0.1865397742311578,100.0,100.0,100.0,100.0,100.0,100.0,100.0,100.0,0.3304760384836564,0.29092174301891804,-0.023239464755051294,-0.058767654073194016,100.0,100.0,100.0,100.0,0.21855018429550677,0.24091809009573414,0.2507744755641116,-0.01963660827757497,100.0,100.0,100.0,100.0,100.0,100.0,100.0,100.0,100.0,100.0,100.0,100.0,100.0,100.0,100.0,100.0,-0.07417475882034122,-0.3239124603742291,0.30604764406442625,-0.2064547955138659,0.26596143431819524,0.13334123407196133,0.07150755954750654,-0.11066736723128656,100.0,100.0,100.0,100.0,0.021749043071699437,0.0009817083513231628,-0.016046367154488754,0.17455140658451185,0.16792590178526956,0.11697058613846766,0.049535453171382415,0.19514970375828436,0.0073313775263331195,-0.04810000043830601,0.16877599184413228,-0.2948151945843679,0.18994608515456082,-0.056803579033093285,0.029624583571190147,-0.5448519730706343,100.0,100.0,100.0,100.0,0.2791665213648673,-0.1784731843008548,0.2775363550293527,-0.2717118131374659,0.0763296362227038,-0.2117972990095301,0.19682428832167057,-0.3109025890780462,100.0,100.0,100.0,100.0
0.061914080724074,-0.27329811653996827,0.06320464067676129,-0.11683501171603441,0.11222560315048644,0.044252156619590165,0.34782661604759857,0.10650231447164689,0.12945621110981642,0.42529105811598134,-0.09586906241707036,0.10245886468672691,100.0,100.0,100.0,100.0,0.31538908672428756,0.02643576113748669,0.06386562644472199,-0.3748885137691169,0.07498315347937501,-0.16095351733047245,0.10598456263512765,-0.27008116647522074,100.0,100.0,100.0,100.0,100.0,100.0,100.0,100.0,0.0626290480183702,-0.3130504422114023,0.17556596955393572,-0.34071483443763084,100.0,100.0,100.0,100.0,0.21822261106010366,-0.13053297424199628,0.21822261106010366,0.1670961684800319,0.27478109938418505,0.09163599366655703,0.038686322861102615,-0.04366725859258096,0.18167913080324502,-0.01916255190837536,0.19105369801261904,-0.2616243493686987,100.0,100.0,100.0,100.0,100.0,100.0,100.0,100.0,100.0,100.0,100.0,100.0,0.28106106583891405,-0.217392343571739,0.008037832512641618,0.06432464059758639,0.1521091644556561,0.028099309481421336,0.028099309481421336,0.028099309481421336,100.0,100.0,100.0,100.0,0.06203035614379453,0.027461737648510225,0.25600425145472194,0.10268220397750907,0.05603490826375737,-0.36729529020942125,0.06755177782186593,-0.28770300944054716,0.11759815280814306,-0.05187087381204822,0.0987956165511551,0.17194670237068888,0.03283340635398105,-0.02065930755221966,0.15771754012534092,0.2814818272051477,100.0,100.0,100.0,100.0,0.10001133410064549,0.042174695105718335,-0.04854499505649626,-0.3557497222967246,0.32383636838595603,0.055848128885708115,0.10125038666993057,-0.3698018689791467,0.19245199589984702,-0.02288319292124036,0.1310720511463444,-0.16111552033122684,100.0,100.0,100.0,100.0,0.1881996958241628,0.1231039009324322,0.1100584383952105,-0.14044627483381128,100.0,100.0,100.0,100.0,100.0,100.0,100.0,100.0,0.107873602338141,-0.09964325281447847,0.2618035872136582,-0.1479854836301743,100.0,100.0,100.0,100.0,100.0,100.0,100.0,100.0,100.0,100.0,100.0,100.0,100.0,100.0,100.0,100.0,100.0,100.0,100.0,100.0,100.0,100.0,100.0,100.0,100.0,100.0,100.0,100.0,100.0,100.0,100.0,100.0
0.08393913341378692,0.0901716206482785,0.1450932109453908,0.11608919963995538,0.2131041924865179,0.10147286675742867,0.3028539553102615,0.1635933659882049,0.14922643127650337,0.025995079245686854,0.025995079245686854,-0.007163048822657805,0.16655001199391317,-0.09487494016850176,0.1598156918734446,-0.2806055475793132,0.04990920029745609,-0.23878317598880305,0.2174399582211255,-0.4097847074825218,-0.00020977231835850665,-0.3363411513326445,0.19488595769044179,0.13497878418522724,100.0,100.0,100.0,100.0,0.28914797281699667,-0.07926156835663684,0.1291966835034426,-0.14339650995106346,100.0,100.0,100.0,100.0,100.0,100.0,100.0,100.0,0.2455079629939375,0.13412610027628594,0.13412610027628594,-0.11535567947469233,0.08189108922579552,0.11446024724607545,0.115425852650964,-0.21957785361890508,0.11909867196258002,0.10408589028781379,0.1414931876986873,0.2811594299834734,100.0,100.0,100.0,100.0,100.0,100.0,100.0,100.0,0.05349395213248715,0.25514813411431636,0.15432226350243644,0.0007282611305496622,0.17321748679328636,0.06414640580242623,0.22209602217110894,-0.10720225839551739,100.0,100.0,100.0,100.0,0.26584480920205317,-0.21849656172896126,0.16273767224015478,0.2212404337531742,100.0,100.0,100.0,100.0,100.0,100.0,100.0,100.0,0.24315854033034218,0.061776746181817846,0.11311844857177772,0.018626787105326587,0.1739260947382001,0.16295581638654258,0.20744423990867208,-0.12228744304322421,100.0,100.0,100.0,100.0,100.0,100.0,100.0,100.0,0.10723591449229478,-0.2293867729428173,0.10910621825000319,0.2444784566409237,0.1079519691151255,-0.373117577771851,0.042063926979394484,-0.25307902704004814,0.15900288679756758,-0.1587285434165246,-0.043651726329877516,-0.2134014949509383,100.0,100.0,100.0,100.0,0.09036917816985832,-0.17961304741790957,0.11895240995978032,-0.3508942766020454,100.0,100.0,100.0,100.0,100.0,100.0,100.0,100.0,100.0,100.0,100.0,100.0,0.08609121212658603,0.0632648898239512,0.0939605913406692,0.03585654624073392,0.24477932201889477,-0.06064687221325847,-0.06064687221325847,0.00973873569684847,100.0,100.0,100.0,100.0,0.2853237620985559,0.10453920597963398,0.287071835253327,-0.0070536284866497476,100.0,100.0,100.0,100.0,100.0,100.0,100.0,100.0,0.06524680222276256,0.024838335748630147,0.3626291912643821,0.12426504324442017
0.12900981354878505,-0.00011237806990629928,-0.00011237806990629928,-0.00011237806990629928,0.11168620149018202,-0.021205566149717255,0.07823347713194215,0.09480720620948199,100.0,100.0,100.0,100.0,0.010470279610959435,-0.12909077179419962,0.13659408255126276,-0.16282749446873515,100.0,100.0,100.0,100.0,-0.0019281138868293898,-0.28992837017172696,0.17948145924531297,-0.1848407844454145,100.0,100.0,100.0,100.0,0.0998035405975169,-0.24756185167000128,0.25607121673251665,0.0998035405975169,0.09341610724109393,-0.11859640972070348,-0.04342546277241419,0.05513788394435584,0.13593744526169171,-0.40101178446937197,-0.06819768197883883,0.11745884238510251,-0.04162149656029768,0.22308847586847133,0.4858361195694402,-0.04314743370155065,100.0,100.0,100.0,100.0,100.0,100.0,100.0,100.0,100.0,100.0,100.0,100.0,100.0,100.0,100.0,100.0,0.18913733278263106,0.06114791227266003,-0.09284662792406753,-0.05639236462550935,100.0,100.0,100.0,100.0,0.10185114068245622,0.17442756824493838,0.14188068345170884,0.12055293771008699,0.16153152487425076,-0.19039230381749442,0.19356107243986026,-0.2581584676486484,100.0,100.0,100.0,100.0,100.0,100.0,100.0,100.0,100.0,100.0,100.0,100.0,100.0,100.0,100.0,100.0,100.0,100.0,100.0,100.0,0.37614789638839446,0.08063253893501035,0.08063253893501035,-0.07636977801294106,0.1144287555422514,-0.05555690326400438,0.21934017218090412,-0.18036301443233566,100.0,100.0,100.0,100.0,100.0,100.0,100.0,100.0,100.0,100.0,100.0,100.0,100.0,100.0,100.0,100.0,100.0,100.0,100.0,100.0,0.053924203389754635,0.11945087437262673,0.050064803896948104,0.014474156445812618,100.0,100.0,100.0,100.0,100.0,100.0,100.0,100.0,0.06606535661190628,-0.18267079486650165,0.25507001909385624,-0.09943971760290429,0.2465526322948284,0.12626992255147249,0.17547196833255435,-0.10936229743632045,0.02649371833305638,-0.21020066370635815,0.12466953183347537,-0.2647008874390574,0.08086167319531935,0.1501861085740918,0.1386420158369269,0.05197563551591698,100.0,100.0,100.0,100.0,100.0,100.0,100.0,100.0
100.0,100.0,100.0,100.0,100.0,100.0,100.0,100.0,100.0,100.0,100.0,100.0,0.1725065052073385,0.008092677582401106,0.05714660359133342,0.19374532364536773,100.0,100.0,100.0,100.0,100.0,100.0,100.0,100.0,0.2578646328041504,0.04862987329937095,0.04862987329937095,0.281084610716197,0.013603065293313184,0.010617677821973197,0.15634528042480675,0.07263827436718603,100.0,100.0,100.0,100.0,100.0,100.0,100.0,100.0,100.0,100.0,100.0,100.0,0.10552054921924321,0.17941554010933033,0.24358498161636552,-0.0467359632643255,-0.005904651824694811,0.030681629383277183,0.12075784152942956,0.14777361501303876,100.0,100.0,100.0,100.0,100.0,100.0,100.0,100.0,100.0,100.0,100.0,100.0,0.03317545653637302,-0.0022018255456826563,0.14068748141473938,0.12517892685416512,100.0,100.0,100.0,100.0,0.07992034406210964,-0.20052279891787259,0.10488612716398715,-0.26378001743194884,0.26668544842820047,0.13379760482204361,0.14240246846638827,-0.030877987839539274,100.0,100.0,100.0,100.0,100.0,100.0,100.0,100.0,0.0929386956021576,0.0225093948103086,0.10793852721021044,0.09244363271211953,100.0,100.0,100.0,100.0,100.0,100.0,100.0,100.0,100.0,100.0,100.0,100.0,0.1906805634132735,-0.38780880816571606,0.235554269727283,-0.30746467376293507,0.33765502345482407,0.06926792932290617,0.10740169252628051,-0.09982810492114184,-0.012737738406558025,-0.2750481472272434,0.19535508539122037,-0.26297837319463024,0.05950610905687907,-0.2069460070392367,0.32827527793286043,0.08116942725478422,100.0,100.0,100.0,100.0,0.11795330479431969,0.19362923937844093,-0.07828203122773222,-0.07828203122773222,100.0,100.0,100.0,100.0,100.0,100.0,100.0,100.0,0.27017091732624565,0.32098519834280237,0.18589181428952528,-0.36921249666559514,0.06368381489730708,-0.18598684440461727,0.03912125721868176,-0.2597585605530449,0.24239305594781202,-0.05063215336713344,0.1253317572970823,-0.10202028076440396,0.24193934068223732,-0.054186114226472404,-0.054186114226472404,-0.35362227174561595,100.0,100.0,100.0,100.0,100.0,100.0,100.0,100.0
100.0,100.0,100.0,100.0,100.0,100.0,100.0,100.0,0.16621271266885312,-0.01720935539706148,0.11241546559283591,0.11241546559283591,100.0,100.0,100.0,100.0,100.0,100.0,100.0,100.0,100.0,100.0,100.0,100.0,100.0,100.0,100.0,100.0,0.13686180850425161,0.20606636826363273,0.06799575213803827,0.22310693593524858,0.07527621976867993,3.1403357482959193e-06,0.09352066081293656,-0.08626045469383561,0.08390003853688044,0.17334887081662032,0.052262556003714905,-0.2673134917223369,100.0,100.0,100.0,100.0,100.0,100.0,100.0,100.0,100.0,100.0,100.0,100.0,100.0,100.0,100.0,100.0,100.0,100.0,100.0,100.0,100.0,100.0,100.0,100.0,-0.030962365617193732,-0.22137464481248,0.20154341814552626,-0.33393330977801394,100.0,100.0,100.0,100.0,-0.08745175523072024,-0.24481218379976005,0.17678461939471385,-0.19121177485742477,0.15501477272180278,0.04711130948388781,0.39132509112766084,0.06739350879901485,0.09146490970458032,-0.034118616224858525,0.1582368612282988,-0.4354007544321896,100.0,100.0,100.0,100.0,100.0,100.0,100.0,100.0,0.09850946238408272,-0.2086944997334723,0.09350033804794085,-0.3974872487453407,100.0,100.0,100.0,100.0,0.08418188364897158,0.11877832310677673,0.09990866816541709,0.23168774668037811,100.0,100.0,100.0,100.0,0.08787618472581633,0.00559422493596716,0.2665793397673611,0.12420422211120019,100.0,100.0,100.0,100.0,0.02984750107691888,-0.12204832357752331,0.10762234823872577,-0.2534959093616077,0.2670511840423895,-0.34813687399383564,0.037041947928139474,0.06355749660349777,100.0,100.0,100.0,100.0,100.0,100.0,100.0,100.0,100.0,100.0,100.0,100.0,0.05119342960915018,-0.3558967227255139,0.23269766051395535,-0.25161344658267876,100.0,100.0,100.0,100.0,0.1338163272593255,-0.27479194054330225,0.14662991928138536,-0.07858047823317357,-0.013362010077961617,0.0408732249776874,0.3583077942149052,0.2053259027523039,0.08793039289859876,-0.33892687399848553,0.081269703752521,-0.5280626573621532,0.15096887810949183,0.11811397882559212,0.23773228779052846,-0.23900807308358052
100.0,100.0,100.0,100.0,0.3226504584247315,-0.06552562798272857,0.02007164626522277,-0.1984179779140951,0.14426430298263943,-0.014727741750314494,0.14426430298263943,-0.0477430147737652,100.0,100.0,100.0,100.0,100.0,100.0,100.0,100.0,0.14151182702996953,-0.0625878858780732,0.3044580009768645,0.10627851560532887,100.0,100.0,100.0,100.0,100.0,100.0,100.0,100.0,100.0,100.0,100.0,100.0,0.1618563855088057,-0.2509090622915946,0.2781262132709912,0.07020068445203947,0.09660291319288224,-0.027845968128295432,0.12407480293850309,0.11679334999004307,100.0,100.0,100.0,100.0,100.0,100.0,100.0,100.0,0.20185873301165297,0.054928595758341005,0.0740111482965929,-0.38932962058588494,100.0,100.0,100.0,100.0,0.1803967214500384,0.17154365824467477,0.17154365824467477,0.17154365824467477,0.26553584996616675,-0.3651347539817781,0.06386825068902108,-0.3028642764191404,0.05988993992612459,-0.349526031753995,0.16354492514600777,-0.3385017667296028,100.0,100.0,100.0,100.0,0.10455548240258258,0.10902843652222971,0.14619668313026893,-0.2119871610766838,100.0,100.0,100.0,100.0,0.25758440100124647,0.2989921892537181,0.1639420807691161,-0.04212736638085943,0.24692531958897065,-0.4181764733214898,0.07804679610432258,-0.25162951270303335,100.0,100.0,100.0,100.0,0.1667581488442922,-0.05228499880736012,0.03305610262955272,0.03305610262955272,0.14825365604338323,-0.016980011896138847,0.2220154833732274,-0.11255073354434098,0.1092293002588671,0.03870249419753405,0.16632740444117475,-0.1988482267081923,100.0,100.0,100.0,100.0,0.23190092598455192,0.07997906740151617,0.16280517864609184,0.1746142689982309,0.2704804741347465,0.11841246054561413,0.15939739525490315,0.26943297362765434,100.0,100.0,100.0,100.0,100.0,100.0,100.0,100.0,0.07489066532923526,0.011956743997005567,0.10079972313478405,-0.06525154693145899,100.0,100.0,100.0,100.0,100.0,100.0,100.0,100.0,100.0,100.0,100.0,100.0,0.09742713271932235,0.07975458360078785,0.14409309566868916,-0.4532837385710447,100.0,100.0,100.0,100.0,0.26364745433442016,0.15711319595916962,0.15711319595916962,0.3651773034092248,-0.05131487761908117,-0.4148415179661627,0.1614943810224389,-0.24984132031326384
0.2017271355882737,0.08406458509714686,0.20795609882425803,-0.18097129413751625,0.20142312479138105,0.07277675841304333,0.20367700693081758,-0.17634525773764814,-0.02451314971321092,0.17361828519049166,-0.06373613408749741,-0.10932013073659146,100.0,100.0,100.0,100.0,100.0,100.0,100.0,100.0,0.10155216642780394,-0.13917692188832007,0.1810618015530926,-0.152921014382079,0.24153594880542945,0.13279695628620325,-0.07854353289522424,0.2528254643322319,100.0,100.0,100.0,100.0,100.0,100.0,100.0,100.0,0.17453538276824782,0.16645530908913772,0.04367757026724456,0.08553208376280969,100.0,100.0,100.0,100.0,100.0,100.0,100.0,100.0,100.0,100.0,100.0,100.0,100.0,100.0,100.0,100.0,0.21011521734068528,0.1331768617072796,0.22054715307995648,-0.41677747117077835,100.0,100.0,100.0,100.0,100.0,100.0,100.0,100.0,100.0,100.0,100.0,100.0,0.09325830346302692,-0.29090741789811664,0.103783490110951,-0.3865286711165181,100.0,100.0,100.0,100.0,0.3184850255755601,-0.01445588651373192,0.18765467167187586,-0.10397362512729474,0.12852416792881693,0.014411949264709747,0.15330933153687076,-0.23243569671843173,0.09044079434681415,-0.15463598719979021,0.14483183171295863,-0.24146792082769106,100.0,100.0,100.0,100.0,100.0,100.0,100.0,100.0,100.0,100.0,100.0,100.0,100.0,100.0,100.0,100.0,0.13521899563618783,0.3518965092632594,0.01120227649144451,0.2750185495322573,0.2593887881875716,0.04831089095638026,0.04831089095638026,0.1291619771243479,0.18729109527846077,0.25391604657507616,0.2784834434745359,0.18729109527846077,100.0,100.0,100.0,100.0,0.26614838185020934,0.1674393222759844,-0.11122514503874001,0.0007396325269153625,100.0,100.0,100.0,100.0,0.22909669168157562,-0.01918541963572542,0.2045219524769077,0.15061817761199947,100.0,100.0,100.0,100.0,100.0,100.0,100.0,100.0,-0.02377343254869914,-0.2585641695060778,0.009688510570368777,-0.06983649739760364,100.0,100.0,100.0,100.0,100.0,100.0,100.0,100.0,100.0,100.0,100.0,100.0
100.0,100.0,100.0,100.0,100.0,100.0,100.0,100.0,100.0,100.0,100.0,100.0,100.0,100.0,100.0,100.0,0.23545459024340532,-0.08943901570028674,-0.016709100825226135,-0.1860481798420705,0.07216963114087532,-0.14575329650885754,0.2141655940038562,-0.30694954654391016,0.2203346586528285,-0.43463447282006695,0.10400200279323758,-0.30839654274136996,0.08476171303481508,-0.05484762258591578,0.20458757316590015,-0.23810395532120482,100.0,100.0,100.0,100.0,100.0,100.0,100.0,100.0,0.180150283464714,0.10227239020920037,-0.11402948279404142,-0.5344945074510082,0.294232325998083,0.12571539054208727,0.08702769706610886,-0.037883593599255104,100.0,100.0,100.0,100.0,100.0,100.0,100.0,100.0,0.0977000052427572,-0.06238410975469118,0.2261370091292023,-0.3369585827447955,0.14645659450480028,0.02985531735691834,0.16439652822903011,-0.07463621102915441,100.0,100.0,100.0,100.0,0.18859535059575355,-0.07153047538239456,-0.07153047538239456,0.21410509838599287,0.07267884898581249,-0.1287512748941183,0.2637054350898564,-0.22692679863600906,0.023214512873688368,0.08999939658325533,0.12455731827171246,-0.017619845640586634,0.29558674186837347,0.19544932154709108,0.20672627577544295,-0.28983124135090577,100.0,100.0,100.0,100.0,0.11632995307872598,0.053346938613211436,0.17804664968008976,0.03262401268833001,0.21351367149669917,-0.24605298715773485,0.048116632451796315,-0.39232372636084445,100.0,100.0,100.0,100.0,100.0,100.0,100.0,100.0,100.0,100.0,100.0,100.0,0.06492603483770662,0.20693322260101532,0.13259759952853384,0.0403116806990743,100.0,100.0,100.0,100.0,0.20795350332575274,-0.34659738293137354,0.3392603684260555,-0.21485499152687237,0.18587030554442843,0.4362043960691723,-0.04841945506348269,0.15106839462097738,100.0,100.0,100.0,100.0,100.0,100.0,100.0,100.0,100.0,100.0,100.0,100.0,0.029541227336810208,-0.16907054563446897,0.17729937225024484,-0.36823916440407517,0.26590205424675245,0.0029489097930107955,0.005442253148100325,-0.00950091375633006,0.1393205890811605,-0.2416638051285847,-0.11122444769242115,-0.31873223066344214,100.0,100.0,100.0,100.0,0.2080061161915979,-0.1630207902613834,-0.1630207902613834,-0.2978295559065816,0.04517463032539958,-0.21401407174674048,0.2880862730569057,-0.17570793349660008
100.0,100.0,100.0,100.0,0.04784243890710827,-0.1430919024003836,0.17815571262681804,-0.39302424029812627,100.0,100.0,100.0,100.0,0.09997696143024526,0.14349574626878328,0.09571854596455619,0.0911772655550996,100.0,100.0,100.0,100.0,-0.008155304482778108,-0.38839085282706887,0.14156553411560815,-0.24459182364289783,100.0,100.0,100.0,100.0,0.16112383781418974,-0.3717289082903937,0.20130213161879024,-0.2244859170270554,100.0,100.0,100.0,100.0,100.0,100.0,100.0,100.0,0.12700218430524468,0.03586960396835219,0.2713981695122897,-0.24443065625059845,0.07793839300698355,0.1307754156102273,0.10420557589706422,-0.27513357260451055,100.0,100.0,100.0,100.0,0.07898424645331521,-0.10052362440999794,-0.0165274154462539,0.21122095537899283,0.279810402282118,0.13824035547683178,0.13824035547683178,0.13824035547683178,0.019569435477856462,0.20594448297829496,0.051806829240704136,-0.04093084345133779,0.14172875694648238,-0.24658506720964632,0.19911210803958307,0.236330070726439,0.20376326279563264,0.2848561124396539,0.26447604418451237,-0.0009465571535213005,100.0,100.0,100.0,100.0,100.0,100.0,100.0,100.0,0.15571967933699787,0.24872840241636765,0.08889574186918021,-0.15158806056420066,100.0,100.0,100.0,100.0,100.0,100.0,100.0,100.0,100.0,100.0,100.0,100.0,0.21016250203602427,0.14686491053180534,0.18318961475093812,-0.1940301617572054,-0.024936813302842482,-0.39911685405034697,0.049889391430923274,-0.34115733557660244,0.06130411409922397,0.2483454496754593,0.15676556128947253,-0.24659389167529921,0.05768189856226552,0.10781784364962999,0.06802297947897382,0.028119153996741635,100.0,100.0,100.0,100.0,100.0,100.0,100.0,100.0,100.0,100.0,100.0,100.0,0.17389836093980193,0.0495193107494913,0.23906879311332635,-0.057150053940324214,100.0,100.0,100.0,100.0,100.0,100.0,100.0,100.0,0.11350054878354476,-0.10547993549574464,0.09818175227529566,-0.0945179931821064,-0.023747207812469695,0.08614019491779056,0.28178526758841915,-0.2750284979440694,100.0,100.0,100.0,100.0,0.17861807712383768,0.14438443616190888,-0.011261189713697967,-0.044213088555161734,100.0,100.0,100.0,100.0,100.0,100.0,100.0,100.0
100.0,100.0,100.0,100.0,0.17682055511531053,-0.06535536092824569,0.1387369219292376,0.2837994283665909,0.30660792537747533,-0.17170405650999915,0.1717811724310442,-0.019989869203989354,100.0,100.0,100.0,100.0,100.0,100.0,100.0,100.0,100.0,100.0,100.0,100.0,-0.061070768753290955,0.10073938462442007,0.1254599570990778,-0.14382701566063535,0.1070501023551732,0.07522622243429589,0.27703083031207787,0.1070501023551732,0.19405806572118867,0.20227312994724192,0.08144787893307287,0.04037091936543053,0.058553657158228065,-0.3390898234378805,0.10048112119182875,-0.44238858882884574,-0.05987013957654971,-0.05987013957654971,-0.05987013957654971,0.10154800512992446,100.0,100.0,100.0,100.0,0.24732281116347252,-0.03290883644524688,0.25457300811544364,-0.44250882956086074,0.37255220141886736,0.08014705089645338,0.06817589210754198,-0.339808959516354,0.04495556549782403,-0.17730891464667087,0.052126964296444304,-0.2184578740554567,0.11958593662962129,-0.08658018877818666,0.14860977268951114,-0.24228604903910683,0.004243057853237392,-0.44119712727547444,0.14116990375391333,-0.31227256894966654,100.0,100.0,100.0,100.0,0.14192945444055916,-0.2381480421964253,0.21797560308835706,-0.11315290203226702,0.16723678688558283,-0.023196796576722495,0.16531706305634433,0.16723678688558283,0.15801911592870274,-0.3574537758556735,0.06630453255353558,-0.25830330373421867,100.0,100.0,100.0,100.0,0.2045683150714446,-0.03920837216802287,0.06504341097842822,-0.46090382770579474,0.04714869666762833,-0.31691859806493505,0.19430777014731504,0.14493387617716208,0.16474126432132397,-0.40812326060274634,0.12780963612610202,-0.27190462236935964,0.13838668235919613,-0.02824019214469828,-0.02824019214469828,0.3292143682668149,-0.013458430752490473,-0.1487169488037544,0.20799195746276533,-0.3239718983892362,100.0,100.0,100.0,100.0,0.0252087614111444,-0.2008790776504166,0.14226267901767853,-0.2440392131279892,0.14264699011653753,-0.09582626729834215,0.20445117740995644,0.2197824342455621,100.0,100.0,100.0,100.0,0.12299174085571737,0.19821421833754754,0.05526591332057405,0.05526591332057405,0.10622036262442938,-0.16271503647200747,0.2002505656036903,-0.23836456401254863,-0.008318244430943141,-0.17635835963775612,0.15353550640500485,-0.1556905359707353,100.0,100.0,100.0,100.0,-0.036140740344876326,0.20788525537990152,0.11817492266019033,0.16063154146789677,0.24537076854505474,0.22315914360448127,0.22315914360448127,0.4445930098228645,100.0,100.0,100.0,100.0,100.0,100.0,100.0,100.0,0.17453637266789934,0.08636452562309116,0.06007183702343684,0.06007183702343684
