ChristianCella/workcell_optimization/results/data/screwing/random/complete_beta_trend_wide.csv
piece1_joint1,piece1_joint2,piece1_joint3,piece1_joint4,piece2_joint1,piece2_joint2,piece2_joint3,piece2_joint4,piece3_joint1,piece3_joint2,piece3_joint3,piece3_joint4,piece4_joint1,piece4_joint2,piece4_joint3,piece4_joint4,piece5_joint1,piece5_joint2,piece5_joint3,piece5_joint4,piece6_joint1,piece6_joint2,piece6_joint3,piece6_joint4,piece7_joint1,piece7_joint2,piece7_joint3,piece7_joint4,piece8_joint1,piece8_joint2,piece8_joint3,piece8_joint4,piece9_joint1,piece9_joint2,piece9_joint3,piece9_joint4,piece10_joint1,piece10_joint2,piece10_joint3,piece10_joint4,piece11_joint1,piece11_joint2,piece11_joint3,piece11_joint4,piece12_joint1,piece12_joint2,piece12_joint3,piece12_joint4,piece13_joint1,piece13_joint2,piece13_joint3,piece13_joint4,piece14_joint1,piece14_joint2,piece14_joint3,piece14_joint4,piece15_joint1,piece15_joint2,piece15_joint3,piece15_joint4,piece16_joint1,piece16_joint2,piece16_joint3,piece16_joint4,piece17_joint1,piece17_joint2,piece17_joint3,piece17_joint4,piece18_joint1,piece18_joint2,piece18_joint3,piece18_joint4,piece19_joint1,piece19_joint2,piece19_joint3,piece19_joint4,piece20_joint1,piece20_joint2,piece20_joint3,piece20_joint4,piece21_joint1,piece21_joint2,piece21_joint3,piece21_joint4,piece22_joint1,piece22_joint2,piece22_joint3,piece22_joint4,piece23_joint1,piece23_joint2,piece23_joint3,piece23_joint4,piece24_joint1,piece24_joint2,piece24_joint3,piece24_joint4,piece25_joint1,piece25_joint2,piece25_joint3,piece25_joint4,piece26_joint1,piece26_joint2,piece26_joint3,piece26_joint4,piece27_joint1,piece27_joint2,piece27_joint3,piece27_joint4,piece28_joint1,piece28_joint2,piece28_joint3,piece28_joint4,piece29_joint1,piece29_joint2,piece29_joint3,piece29_joint4,piece30_joint1,piece30_joint2,piece30_joint3,piece30_joint4,piece31_joint1,piece31_joint2,piece31_joint3,piece31_joint4,piece32_joint1,piece32_joint2,piece32_joint3,piece32_joint4,piece33_joint1,piece33_joint2,piece33_joint3,piece33_joint4,piece34_joint1,piece34_joint2,piece34_joint3,piece34_joint4,piece35_joint1,piece35_joint2,piece35_joint3,piece35_joint4,piece36_joint1,piece36_joint2,piece36_joint3,piece36_joint4,piece37_joint1,piece37_joint2,piece37_joint3,piece37_joint4,piece38_joint1,piece38_joint2,piece38_joint3,piece38_joint4,piece39_joint1,piece39_joint2,piece39_joint3,piece39_joint4,piece40_joint1,piece40_joint2,piece40_joint3,piece40_joint4
100.0,100.0,100.0,100.0,0.10282377444491532,0.10282377444491532,0.10282377444491532,0.10282377444491532,100.0,100.0,100.0,100.0,-0.12902323350513226,-0.12902323350513226,0.21932811599799398,-0.12902323350513226,0.10309904606169172,-0.0504777412700766,0.19097651883402617,0.023163846106361834,0.10307208109304623,-0.1237326061212865,0.030201170482810312,-0.1237326061212865,0.11025622356493374,0.005755874941151651,0.12172548286348146,0.12172548286348146,100.0,100.0,100.0,100.0,100.0,100.0,100.0,100.0,0.06439150383037028,0.04100816883888275,0.04100816883888275,0.08859240703266577,-0.013452441272113883,-0.013452441272113883,-0.013452441272113883,-0.10784957362598946,-0.01906647829246664,-0.03779671246070586,0.2614288566944043,-0.03779671246070586,0.2242177935570988,-0.17600624653674285,-0.17600624653674285,-0.17600624653674285,100.0,100.0,100.0,100.0,0.16967997609419722,0.16967997609419722,0.16967997609419722,-0.09103260168782526,0.16962243705466293,-0.06011340935761639,0.2911895908940627,0.06387678944790096,-0.2160578152217994,-0.2160578152217994,0.060624534126755884,-0.2160578152217994,-0.08520490492585302,-0.08520490492585302,-0.08520490492585302,-0.10808962765941856,0.15587382397133737,-0.029299063461324118,-0.04552996539465554,-0.029299063461324118,-0.08096151674880905,-0.08096151674880905,0.3516593231251422,-0.08096151674880905,-0.06240788402635937,-0.06240788402635937,0.23949449377575077,-0.06240788402635937,0.04115813745540801,-0.0581424697571534,0.02942199461600098,-0.21923294531827217,0.06322064801330363,0.08230183787628728,0.08230183787628728,0.08230183787628728,100.0,100.0,100.0,100.0,0.007360767937111915,-0.111884093472047,0.049319369841294224,-0.23725826569110528,-0.05144899578956027,-0.20028890543302635,-0.013195719276260585,-0.12746196964900194,-0.16336585919376573,-0.16336585919376573,0.12328061917009003,-0.16336585919376573,-0.033495413530156976,-0.04193121239735744,0.2641966729570578,0.003919527080216784,0.1982622477232571,-0.19123575329510564,-0.19123575329510564,-0.19123575329510564,100.0,100.0,100.0,100.0,100.0,100.0,100.0,100.0,0.05501934114891982,-0.3138966695696527,0.40126271055097823,-0.07133498525521359,0.1296089315678549,0.04456375044424686,0.286087987100211,0.04456375044424686,0.12234135740793366,0.12234135740793366,0.12234135740793366,-0.11638967910310893,100.0,100.0,100.0,100.0,0.03954883501161487,0.1494466181890129,0.1110866679423916,-0.19952056407502608,0.044718902290655324,-0.14516079967587,0.13458781700414446,0.13458781700414446,-0.1234398849025019,-0.1234398849025019,0.08299887208192658,-0.1234398849025019,0.1289250229366632,0.1289250229366632,0.1289250229366632,-0.19079483851021745,0.056988324967378184,-0.006357088117110811,0.2819572819244025,-0.1631764957158115
-0.04015718255606329,-0.04015718255606329,-0.04015718255606329,0.3071522511367077,0.1777882120853764,0.15272843147012233,0.23562472729571637,0.15272843147012233,0.01624617437803335,0.01624617437803335,0.01624617437803335,0.01624617437803335,0.12596665262053072,-0.02758229212128388,0.13380220108285357,-0.06338149185581984,0.20572130541459305,-0.03614056477657898,0.20572130541459305,0.20572130541459305,0.08265585697628129,0.08265585697628129,0.17632034946476782,0.08265585697628129,100.0,100.0,100.0,100.0,0.1371737912476436,0.1371737912476436,0.1371737912476436,0.1371737912476436,100.0,100.0,100.0,100.0,0.10785918023196492,0.1435914756531042,0.26182977973276356,0.1435914756531042,-0.0245593125910982,0.05994828784579179,-0.0245593125910982,-0.03853228074274509,0.07061607907791796,0.16949556425118226,0.2609156746071957,0.16949556425118226,0.19278520705920804,0.19278520705920804,0.3774586681298994,-0.04566113490915788,0.09728511447001816,0.12990338047360162,0.1073719871258285,0.13255205838815895,0.022726761020685916,0.022726761020685916,0.022726761020685916,0.022726761020685916,100.0,100.0,100.0,100.0,0.08136579969926899,0.00859531601202732,0.12111621191398764,0.08782129531465052,0.1148061645973753,0.006450139295186655,0.20545284347267215,0.20545284347267215,0.15020903880096256,0.019731891658968714,0.30471155177920844,0.05473485062420902,0.06165644972417311,-0.11600575837890788,0.0777392419032005,-0.11600575837890788,-0.048628387526977686,0.1322595910027809,0.1322595910027809,-0.08024145278781859,100.0,100.0,100.0,100.0,0.04218444084932005,0.12382648525042615,0.2188489924771372,0.12382648525042615,0.14828838740611283,-0.3040238652827026,-0.010077984579058993,-0.010077984579058993,0.057867036617403556,0.1267853802604559,0.214235460683506,-0.21640288949646508,0.030961594767850986,-0.08102868330111096,0.1395914243638827,0.1351376129442759,0.04009051893077661,-0.2334132173427692,0.045117244331358095,0.16010884527215447,100.0,100.0,100.0,100.0,0.18566021726285367,0.18566021726285367,0.01931319797655094,-0.0063757137771795645,0.10936727652416656,-0.19218727743851724,0.08808081842976138,0.08808081842976138,100.0,100.0,100.0,100.0,0.14522470452647815,0.07069295174721858,0.07069295174721858,0.07069295174721858,0.07972070030218964,-0.10049418927835128,-0.10049418927835128,-0.2750405301475374,0.01858585328225467,0.01858585328225467,0.01858585328225467,-0.21226250541167296,0.018354008724643926,-0.105293022435028,-0.105293022435028,-0.11745504443933785,0.10840016018058102,0.03558014891749691,0.03558014891749691,0.03558014891749691,100.0,100.0,100.0,100.0,0.09079886488221739,0.010916931741084088,0.1765398011509286,-0.129775815893395,0.03762734104409596,0.03762734104409596,0.03762734104409596,-0.1555420300418326,0.07532814716918433,-0.1348780893722791,-0.048028130357299297,-0.24682068008694613
0.029255738179092376,0.029255738179092376,0.3198665427289493,-0.04223971240419703,0.18890977532629713,-0.0633631583238615,0.4658464724401109,-0.0633631583238615,0.05192901308846165,0.05192901308846165,0.05192901308846165,0.05192901308846165,0.2545508806419179,-0.04442033615555388,-0.04442033615555388,-0.04442033615555388,0.22123940722462285,0.22123940722462285,0.22123940722462285,-0.08800096441354567,0.04416302578251384,-0.1540434078099064,0.04416302578251384,0.04416302578251384,0.1250193379801176,-0.1258296968605488,0.04064649269136297,0.21610342727259763,0.10028048380636319,-0.011364801719106976,-0.011364801719106976,-0.17447605891157583,0.09483837357821279,0.09483837357821279,0.09483837357821279,0.09483837357821279,-0.03641628770270482,-0.09095709229040017,-0.03641628770270482,-0.004683267441424777,0.10486567856455732,-0.08832850475513604,-0.08832850475513604,-0.09026711507549423,100.0,100.0,100.0,100.0,0.11942592283861472,-0.12392495519363254,-0.12392495519363254,-0.1435066733646594,0.06703918439823056,-0.061016448364847625,0.2090586125394347,-0.061016448364847625,0.16854376683892083,0.09596796996973361,0.30935116721000394,0.09596796996973361,0.11510512157360041,0.038741881639349995,0.24148888031166776,0.038741881639349995,100.0,100.0,100.0,100.0,-0.00019161940512822662,0.21983945558273776,0.21983945558273776,0.015652417615614492,0.10391302403642552,0.0365874682434972,0.24883693358483594,0.0365874682434972,0.16482522313786307,-0.12252618230363246,0.4009035063948785,-0.12252618230363246,0.05432207808723706,0.04381571229953119,0.2867138933435062,0.04381571229953119,-0.06813651020717501,-0.2104481945230714,-0.013875239440959877,-0.06813651020717501,0.17683239349667235,0.08315155481694247,0.15690063126117734,0.08315155481694247,0.1222365160666641,-0.2122463065066445,0.031271542073441835,-0.31700621861739087,0.05765707805447366,0.06013438294554824,0.1177800096250749,0.06013438294554824,0.14048896786352227,-0.07068417587618246,0.0962572559143991,-0.23499802848803855,-0.07683476449940518,-0.07683476449940518,-0.07683476449940518,-0.10446785868945599,0.11678840806824277,-0.06490592487325303,0.4101796419786664,-0.13900060593976063,0.05196028605308642,-0.15868835070753554,0.3419028724434784,-0.10179754935297153,0.09229122902152312,-0.1859238281036873,-0.1859238281036873,-0.1859238281036873,0.12534112320260984,0.12534112320260984,0.12534112320260984,0.12534112320260984,0.13458680284904972,0.04840229905918863,0.04840229905918863,0.04840229905918863,0.16433272081977496,0.1332874269820471,0.1332874269820471,0.1332874269820471,-0.04761285993538328,0.023575584261767785,0.2845835470163739,0.023575584261767785,100.0,100.0,100.0,100.0,0.10809316062772437,0.10809316062772437,0.10809316062772437,8.837168569378329e-06,-0.04112653568645457,-0.20507911236753354,0.15086832187908075,0.16657182765803497,100.0,100.0,100.0,100.0,0.08379414838678145,0.07218647440902284,0.07218647440902284,0.07218647440902284,0.1080814703580411,-0.07293639043105356,0.3712593458265435,-0.07293639043105356
0.14128445432872155,-0.2174049567138203,-0.06535829521497523,-0.12929240958824342,0.06276828910386127,-0.17340817832441585,0.1084224637181489,0.1084224637181489,0.12001800734383916,-0.08741663076551552,0.1642488767442552,-0.24259003521888087,-0.16291848151563237,-0.16291848151563237,0.13588897947317494,-0.16291848151563237,100.0,100.0,100.0,100.0,100.0,100.0,100.0,100.0,100.0,100.0,100.0,100.0,0.1282198193513939,-0.011976915903515975,0.42979253921428495,-0.001728379850035655,-0.02237390082356256,-0.02237390082356256,-0.02237390082356256,-0.02237390082356256,100.0,100.0,100.0,100.0,100.0,100.0,100.0,100.0,0.1253589013763371,-0.19089369765169512,-0.042617400339891476,-0.042617400339891476,0.05210550747675488,-0.05331404390171998,0.28337669892465417,-0.05331404390171998,0.2105128561152193,-0.01718202825226338,0.2105128561152193,0.2105128561152193,0.2615766200858966,0.07778937389903959,0.2348253081517824,0.07778937389903959,0.04046141943467527,0.19172863729462325,0.14701264951268272,0.19172863729462325,0.03022538186637847,0.12663057570010017,0.12024818425882866,-0.12687477165464536,-0.10480038433680816,-0.10480038433680816,-0.016665832689183424,-0.18850045649477903,0.036449844492761604,0.09958982498092885,0.2722467071221852,0.09958982498092885,-0.14116165112992926,-0.17180356900942376,0.19959645665522238,-0.14116165112992926,0.19281855457734448,0.14168729618222853,0.2750879656661446,0.14168729618222853,100.0,100.0,100.0,100.0,-0.1188728068151497,-0.1188728068151497,-0.1188728068151497,-0.1188728068151497,0.11514136597391199,0.02925552473323466,0.32825870718464734,-0.11588422133922321,100.0,100.0,100.0,100.0,-0.0035066322315658698,-0.003977934649976797,0.4928875754479953,-0.003977934649976797,100.0,100.0,100.0,100.0,-0.011086712695561385,-0.2057802623802974,0.3673924410458684,-0.2057802623802974,-0.19793217975746574,-0.19793217975746574,-0.19793217975746574,-0.2932186501615517,0.05389228412846774,-0.1575368210206056,0.38668691106768893,-0.02378338048916614,0.12265864696930273,-0.0780304750632857,0.03798943641166351,-0.13922978441798042,0.09375207621009,-0.041139562841759486,0.16120394212509948,-0.041139562841759486,0.2210500671285977,-0.050583332279255114,-0.03077429381019242,-0.050583332279255114,0.09924824824351235,0.09924824824351235,0.4291065396646844,0.09924824824351235,0.11603511742436604,-0.05227897104053665,-0.034715575199907686,-0.05227897104053665,-0.023132793426016384,-0.03314534755549167,-0.03314534755549167,0.0595238463371314,0.07517560683889513,-0.13537245712584142,0.21141216283753972,0.07517560683889513,0.12968307634908327,-0.05658430589827805,-0.05658430589827805,-0.05658430589827805,0.09815548618706466,-0.10191350331701846,-0.10191350331701846,-0.10191350331701846,0.18670628474822737,0.18670628474822737,0.18670628474822737,-0.026113354782896548
100.0,100.0,100.0,100.0,-0.022522315259936206,-0.21540589784065234,0.2667965410211711,-0.2739237701632752,0.10629358648311606,0.009236209233201394,0.040981462593639245,0.040981462593639245,-0.040239672542202426,-0.15066191632036063,0.33777870339838667,0.10826722657543572,0.11331721105512957,-0.15974058370353827,0.0506471170254405,-0.15974058370353827,-0.16769794835788582,-0.16769794835788582,-0.16769794835788582,-0.16769794835788582,0.015956539001459012,-0.03456030654118924,0.4955805654723202,0.04685604780421873,0.20351618792874285,0.02758846107828586,0.02758846107828586,0.02758846107828586,0.004841667659122778,0.004841667659122778,0.004841667659122778,0.004841667659122778,0.12252818735181882,-0.08910814577462167,0.12252818735181882,0.12252818735181882,0.25328480746257187,-0.09789406243608455,0.17966935269617884,0.25328480746257187,100.0,100.0,100.0,100.0,0.2875400795810419,0.047491815103701596,0.047491815103701596,0.047491815103701596,-0.01395706860423185,0.22978131205044267,0.23819854595111198,0.22978131205044267,-0.15125249915921635,-0.15125249915921635,-0.15125249915921635,-0.15125249915921635,0.053201179548066295,0.111325990583484,0.03995243384908942,-0.07394724151179505,0.1060253597296481,-0.09914817336609655,0.37358454663368756,-0.09914817336609655,0.2643881198259039,-0.1232486879653622,-0.1232486879653622,-0.1232486879653622,0.20301454943900749,0.06009386286586965,0.20301454943900749,0.20301454943900749,-0.0474833262506487,-0.03417074686785963,0.38408872764550506,0.10697989706033348,100.0,100.0,100.0,100.0,0.20576600139684165,0.06295542873399536,-0.05392704642672927,-0.14514221030112037,0.11877601402956542,0.048220523490783665,0.2707592263334606,0.048220523490783665,0.0540904473696851,-0.10210851308927688,0.1876235061685264,0.25083312918760803,0.005004797048705717,0.009304598770161508,0.3375187466041434,0.14499793823771695,100.0,100.0,100.0,100.0,0.16495238747190857,0.11943366593210952,0.38721814973093144,-0.12872580550180907,0.06224266659578115,-0.017649822560077952,-0.026992388250507315,-0.017649822560077952,0.20328102033870238,0.20328102033870238,0.20328102033870238,0.20328102033870238,0.10531516119589701,-0.00038885263781638507,0.012019880139314196,-0.17301432732002073,0.17537649133110064,0.09054967087756702,0.24246150666474237,0.24189091282105515,100.0,100.0,100.0,100.0,-0.08336859258884874,-0.03579908429853254,-0.08336859258884874,-0.08336859258884874,0.1831614632138851,0.025174703932559786,-0.013669724668697064,-0.013669724668697064,100.0,100.0,100.0,100.0,0.14071667131336185,0.15846183815875922,0.35088491211798467,0.15846183815875922,-0.1391897314890051,-0.1391897314890051,-0.1391897314890051,-0.15078435029528522,0.05676985679386186,-0.15081507218741358,0.2238929058236523,0.15580615046105556,0.10467708779644719,0.04180561254369657,0.09534643469007137,0.04180561254369657,0.1252709565299562,-0.18210796311847724,0.06878803081613041,0.003274055365852818
0.15581969933927467,-0.11099518154124424,0.3606902040187564,-0.11099518154124424,0.11537642749716598,-0.04283671750507523,0.19735586202247382,-0.23498672933724601,0.1328234369542005,-0.13469195075610046,0.04586933137332827,0.04586933137332827,100.0,100.0,100.0,100.0,0.0365094673984084,-0.2462979473016425,0.03702959275750649,0.03702959275750649,0.18614178695708927,-0.06087771326286402,0.11400699273151088,0.11400699273151088,0.08411579920400533,-0.0981960376068316,0.014384291404554966,0.02341782602721637,0.0700980584979258,-0.03357518634310751,0.13664004267408442,-0.23014521757430695,-0.02370976679569662,-0.02370976679569662,-0.02370976679569662,-0.28607322229183274,-0.0031200194452247476,-0.0031200194452247476,0.021365810930501702,-0.0031200194452247476,-0.16745045187427363,-0.16745045187427363,-0.16745045187427363,-0.16745045187427363,0.08484991835320291,-0.09224360131033811,0.08484991835320291,-0.130433148872081,0.0798022168426887,-0.07946895685814989,0.3481523569785428,-0.06589584843988784,0.08342472290585233,-0.054298249858301756,-0.054298249858301756,-0.16599738875694872,100.0,100.0,100.0,100.0,100.0,100.0,100.0,100.0,0.20799620167664107,0.01680407731856367,-0.10186304162686521,-0.21007097816181444,-0.10069561127124182,-0.13481734161091163,-0.10069561127124182,-0.276845213854042,-0.17105290401444062,-0.17105290401444062,-0.17105290401444062,-0.17105290401444062,0.20378216304445138,-0.02319139956379046,0.025966032070511194,-0.1507002183399177,0.1393305736745041,-0.05370100313437474,0.3330235452664228,-0.05370100313437474,100.0,100.0,100.0,100.0,0.14548129332596108,0.14548129332596108,0.14470108192656045,-0.097756789057619,-0.03465692984888718,-0.03465692984888718,-0.03465692984888718,-0.03465692984888718,100.0,100.0,100.0,100.0,0.12976336051289178,0.01684760920754154,0.01684760920754154,0.01684760920754154,0.14087934937957675,-0.0458622796762986,0.40391132246830797,-0.0458622796762986,0.148810616233674,0.012813532221502524,0.1921727282387205,0.148810616233674,0.22246850782460253,-0.19004534054926311,-0.19004534054926311,-0.19004534054926311,100.0,100.0,100.0,100.0,0.15391129280501312,0.09878839775779684,0.1175580362245421,0.09878839775779684,0.0005545530076605937,-0.008061202522744004,0.08451809443248333,-0.220381959974057,-0.0672596175737345,-0.10029777698444678,0.11179659036334622,-0.0672596175737345,0.07435620875287029,-0.02777758745070144,0.15517340875785557,-0.07172359613702137,0.01979330413958369,-0.2546907339363422,0.3392911232738763,0.022843059578438518,0.20710223856819385,-0.004513586317277926,0.20710223856819385,-0.03151804208229038,0.11604721038696807,0.11604721038696807,0.11604721038696807,0.09757565387135973,100.0,100.0,100.0,100.0,-0.0017047127119457287,-0.2321557583429818,0.1868188592864179,0.051625498966318635,0.013055309079386457,0.20563723085414842,0.32777844631117536,-0.13146050335874976
0.18566037898185775,-0.2178447063024225,0.4575871965246684,-0.011242571316086664,0.20763369535792403,-0.19486201730107497,-0.19486201730107497,-0.34516143372403446,0.12221959036069899,0.004061759676615442,0.4622182373978715,-0.12939343508655204,0.041531548962374126,-0.054553442991816206,0.17428798542418028,-0.004505978217358139,0.14567233472491214,0.13346071862171965,0.22950051568584892,0.13346071862171965,-0.0006821310806067321,0.015500938058324101,0.3910840630181157,-0.019955111139209752,0.153572546245639,-0.14651482986297804,0.153572546245639,0.153572546245639,100.0,100.0,100.0,100.0,0.15240541546760236,0.15240541546760236,0.15240541546760236,0.15240541546760236,0.09621220886228656,-0.0022668786995211267,0.11410037647264404,-0.015481701578074138,100.0,100.0,100.0,100.0,0.16988060151636242,0.16988060151636242,0.12143106833086376,0.16988060151636242,0.23766972990762084,0.14788411909321278,0.3246658111999163,0.14788411909321278,0.1459393450920319,0.07940171615408127,0.07940171615408127,-0.09297038714535194,0.09909591113762205,0.012174323279944249,0.04509087420862082,0.04509087420862082,0.0838267725511413,-0.1834501295244289,0.25977198189560247,-0.1834501295244289,0.09724016921871947,-0.11238409517300174,-0.024983869341218976,-0.11550790043661117,0.15828334450749124,-0.15930582790297662,0.4041765313648853,0.1615068998803626,0.18196518098681524,-0.10374705899050857,0.18196518098681524,0.18196518098681524,0.05437445359046729,-0.010989824683534488,0.0553750622817312,-0.010989824683534488,0.0366782288009887,0.0366782288009887,0.21360377176641002,-0.10970091947729325,100.0,100.0,100.0,100.0,0.1393363066774364,-0.08849507540774554,0.1393363066774364,0.1393363066774364,0.11319541236945951,0.14791411311033084,0.22915871230891738,0.14791411311033084,0.1578176992827912,0.002962830949424705,0.002962830949424705,0.002962830949424705,-0.07491843224347805,-0.35078656307898093,-0.07491843224347805,0.09689812444985083,100.0,100.0,100.0,100.0,100.0,100.0,100.0,100.0,0.05043291590469957,-0.02393628853613944,0.06872093070020241,-0.02393628853613944,100.0,100.0,100.0,100.0,0.26448009833184727,-0.03696011646426997,0.017943662148584602,-0.03696011646426997,0.03683739493095813,0.23141099940928195,0.23141099940928195,0.23141099940928195,0.15691684966356578,-0.07585700600357224,-0.07585700600357224,-0.26196645119740347,0.008817162799018775,-0.1829594985139455,0.17640950703990377,-0.1829594985139455,0.14341430340415173,0.18528589020416159,0.05829527509083918,-0.07248052956671845,0.18767872526638074,-0.19990476997807186,0.31047867726385187,0.18808135734947093,0.02516552564975849,0.02516552564975849,0.02516552564975849,0.02516552564975849,0.10740965038388778,0.10740965038388778,0.10740965038388778,0.10740965038388778,-0.06313504093156794,0.13911629970182515,0.2884827430266089,-0.02296874372109401,0.13168440844968712,0.03082522847576659,0.18893702514065314,0.03082522847576659
0.12573064613661541,-0.09437877111749851,0.12573064613661541,-0.03236927875168791,0.07672697961289797,0.07672697961289797,0.07672697961289797,-0.08872889075856163,0.10145820345537157,-0.11272637516483774,0.1670674931446904,0.1670674931446904,0.18568939589242106,0.15902238714991934,0.07425489518869041,-0.02597874726275083,0.07604716642759793,-0.1534373644344427,0.3770068103109844,-0.1534373644344427,0.08805319184734234,-0.05634406338922589,0.23553299418492046,0.23130194266343584,0.043973930320963674,-0.018220194052134583,0.040233894989033445,-0.24148888651190745,0.195587729801941,-0.20915640648866193,0.1268197689864943,0.195587729801941,0.15025237115559492,-0.15223903234785188,0.011635630854783932,-0.20279683386614578,0.09845491740172291,0.15965890745950845,0.2691032949001889,0.15965890745950845,0.0656650501591723,-0.05712915604274829,0.0656650501591723,-0.09631918102385627,100.0,100.0,100.0,100.0,0.10774326820424662,-0.012587564970865016,0.312158858592939,-0.012587564970865016,-0.032735805439284914,-0.026568078002730137,-0.026568078002730137,-0.04839652512448823,0.13126424888275395,-0.00595432279291104,0.13126424888275395,0.13126424888275395,100.0,100.0,100.0,100.0,0.09212789354142042,0.09212789354142042,0.09212789354142042,0.09212789354142042,0.013208223543735808,-0.050028795931998285,-0.05960611101915262,-0.050028795931998285,100.0,100.0,100.0,100.0,0.0199484959190915,-0.07997897501977887,0.1679122691158847,0.18218567752097983,0.16552398646784564,0.0441405626909539,0.28030528353447765,0.0441405626909539,100.0,100.0,100.0,100.0,100.0,100.0,100.0,100.0,-0.03686761697998213,-0.051233443005587,0.11082790888393605,0.11082790888393605,0.15399095176596592,0.15399095176596592,0.35840838613067727,-0.024057148649729066,0.10667292466489164,0.07466204181093719,0.07466204181093719,-0.21661145285458105,100.0,100.0,100.0,100.0,0.25413420658603686,0.23035401256038107,0.29158395695070644,0.23035401256038107,-0.002964401300011771,-0.002964401300011771,-0.002964401300011771,-0.05567994044760317,0.0906722277342577,-0.09508334532161496,0.1949959247566892,0.13727731551387387,0.28436130082413735,-0.07565485979705802,-0.11685356066249164,-0.11685356066249164,100.0,100.0,100.0,100.0,-0.06175792421003396,-0.06175792421003396,-0.06175792421003396,0.23375821458761695,0.0629049979212574,-0.08963433223291996,0.09605960907293584,-0.08963433223291996,0.031012173580912003,0.031012173580912003,0.031012173580912003,0.031012173580912003,0.19684883842030265,0.09514972131422973,0.09514972131422973,-0.24947417208598388,0.0035690051904041786,-0.11617030559685596,0.0035690051904041786,0.0035690051904041786,0.15310406447982422,0.04493750865373644,0.284060446248682,-0.08378900484977896,0.10329776248579778,-0.11758996265050077,0.264743071131465,-0.06975420306034621,0.1704693496895265,0.06865266557679428,0.18979178384688958,0.06865266557679428
0.10466951536108773,-0.12757930073133877,0.19041360288068435,-0.12757930073133877,100.0,100.0,100.0,100.0,0.18799847269589512,-0.0715008382175708,-0.0715008382175708,-0.0715008382175708,0.1068568470486724,0.003417988344019584,0.06213070990713405,-0.2253055463071135,0.09012145517849456,-0.029132120658991872,-0.029132120658991872,0.07432662824331905,0.11254724852985298,-0.2298581268385727,0.09901100238363818,0.09901100238363818,0.06020083358825718,-0.08182577488879936,-0.07453628747276733,-0.07453628747276733,0.01568866224820182,0.049523567134330954,0.049523567134330954,0.049523567134330954,-0.020124991950827578,-0.21547453473398723,0.11163274881260445,-0.020124991950827578,0.07776936616449057,0.22023404355492793,0.2583157100932911,0.22023404355492793,0.06594376636182821,0.06594376636182821,0.06594376636182821,0.06594376636182821,100.0,100.0,100.0,100.0,0.07474523338392244,-0.22630568344479138,-0.22630568344479138,-0.22630568344479138,100.0,100.0,100.0,100.0,100.0,100.0,100.0,100.0,0.039199386600622804,-0.07336086055634067,0.2927226829621359,-0.07336086055634067,0.04631630040095793,0.028913917718740557,0.40207857015892223,-0.16774665437789146,-0.026282542756947413,-0.026282542756947413,-0.026282542756947413,-0.1577942487339005,100.0,100.0,100.0,100.0,0.08305416325155318,0.08305416325155318,0.3678555163621383,0.08305416325155318,0.04131178748430762,-0.12762802625945285,-0.12762802625945285,-0.12762802625945285,-0.1868609417047155,-0.1868609417047155,-0.1868609417047155,-0.1868609417047155,100.0,100.0,100.0,100.0,-0.2009750879552965,-0.2009750879552965,-0.2009750879552965,-0.2009750879552965,100.0,100.0,100.0,100.0,-0.0024558994959974385,-0.006634569328503821,-0.006634569328503821,-0.006634569328503821,100.0,100.0,100.0,100.0,0.05777204513440971,0.06893833282091284,0.32554247784580936,-0.0611344967047064,0.06965489375121078,-0.0035884057572994205,0.05056096318067635,-0.17814579159870347,0.10220871887779574,-0.49263680162548523,0.10220871887779574,-0.19926775615582323,0.08065067066449194,-0.11213194653646276,0.323645022031433,-0.010022974597246825,0.07848679707591949,-0.16952808154721544,0.07848679707591949,0.07848679707591949,100.0,100.0,100.0,100.0,-0.07292051503312152,-0.07292051503312152,0.30856336117624833,-0.07292051503312152,0.03888230884894399,-0.01975625342736649,0.2848308230898956,-0.01975625342736649,0.15385653455515905,-0.0830874386826425,0.30223415838862233,-0.0830874386826425,0.12553719167838362,-0.12828665476953793,0.1969173326760653,0.1969173326760653,0.17149239102672717,0.08957358085917282,0.25872336343710345,0.08957358085917282,0.012499457952641,0.08830309105069625,0.14131093709239934,-0.062257485977328816,0.08196062382327907,0.07458883675511455,0.2978521507382166,0.11878612961906673
0.10458096657277936,-0.018988170876388516,0.1383296398683444,-0.04179719419490616,0.009939966299075863,-0.20889949895714963,0.2064406105336839,0.2064406105336839,0.04810728074392748,0.12886784334558188,0.12886784334558188,0.12886784334558188,0.15065355611448317,0.19560423652940853,0.30357857763279195,0.19560423652940853,0.21393571527714672,-0.08521803505476462,0.14273885360602723,0.1307554360733394,-0.11986968631074518,-0.11986968631074518,0.2118792757441152,-0.11986968631074518,0.12413708463176909,0.12452332348680827,0.3328469600174959,0.12452332348680827,-0.14206407918652242,-0.14206407918652242,-0.14206407918652242,-0.12017970922579918,0.07825433304150378,-0.07412992458516401,-0.12996081114383792,-0.12996081114383792,0.15387557855516698,0.15387557855516698,0.15387557855516698,0.15387557855516698,-0.055217781738199544,0.09060390685867292,0.31508759181050777,-0.1651145906107414,0.05853283199191425,-0.12854871705578053,0.041561913299815345,0.19950672957556997,0.19611040719470096,0.19611040719470096,0.19611040719470096,-0.09039185288700469,-0.053972812486034236,-0.2612180245718809,0.31773570962972586,-0.053972812486034236,0.3094791546329588,-0.05275783926668512,0.2281457291979675,-0.05275783926668512,-0.12053519347288891,-0.12053519347288891,0.11759508873935073,-0.12053519347288891,0.11901598910234674,0.049190022398293114,0.11901598910234674,0.11901598910234674,0.04397012800680036,-0.04990498165894269,-0.04990498165894269,-0.1648527704091585,0.062438358806950055,0.062438358806950055,0.062438358806950055,-0.16722158717621421,0.005559024761982362,0.005559024761982362,-0.06754517728284848,-0.10910369960580382,0.004201238574238937,0.004201238574238937,0.004201238574238937,-0.005437367550584021,0.18198089611936066,0.0892658262405049,0.21495377399197946,0.08639063814559367,0.1354821157725933,0.1354821157725933,0.26123600045724427,0.1354821157725933,100.0,100.0,100.0,100.0,0.10930116513366908,0.12399291379700088,0.25355693905533633,0.12399291379700088,0.1656392901429693,-0.07021205202245885,0.025878031945854953,-0.07021205202245885,0.082672292015918,0.082672292015918,0.082672292015918,-0.028136551287613026,0.1368886879102712,-0.1222283454648603,0.1919096670856047,-0.1222283454648603,0.03540445507030006,0.03540445507030006,0.22511379243554586,0.03540445507030006,0.16384392755464136,0.07012220403921131,0.01556859687585388,-0.14375794468186642,0.16515768355168403,-0.005821669497083775,-0.08757921162897976,-0.08757921162897976,100.0,100.0,100.0,100.0,0.05687186681652409,-0.018699335121605706,0.2649485685669724,-0.1289839417171955,0.20789140136427048,0.10986108913591411,0.10986108913591411,0.10986108913591411,0.1773724695521272,-0.04388763373237556,0.008792848667455902,-0.19080396168110392,-0.13585917248980828,-0.13585917248980828,-0.13585917248980828,-0.08977525176679489,0.04484293330623257,0.04484293330623257,0.04484293330623257,0.10501938097158603,0.122783426440636,0.122783426440636,0.27992781169007264,0.122783426440636,0.12396580853644963,0.12396580853644963,0.12396580853644963,0.12396580853644963,-0.05643970868252164,-0.05643970868252164,-0.05643970868252164,-0.23939888505008766
0.11374043874244878,-0.14626975542371995,-0.019846845533444353,-0.019846845533444353,-0.008633766329883795,-0.008633766329883795,-0.008633766329883795,-0.008633766329883795,0.1786404941987949,-0.20620615320454402,0.16450575376295318,0.14711984948612167,0.00825213497374895,-0.0645597919292415,0.14907360728454305,0.00825213497374895,0.0764442889160158,0.05168113728526667,0.05168113728526667,0.05168113728526667,0.08293784500336326,0.08293784500336326,0.08293784500336326,-0.06315477823745846,-0.15459842100404175,-0.15459842100404175,-0.15459842100404175,-0.15459842100404175,-0.15165842884376526,-0.15165842884376526,0.13826095436823066,-0.16671027525301885,0.008195176442032964,0.008195176442032964,0.008195176442032964,0.008195176442032964,0.15865201229701026,-0.1817546631577706,-0.03654627468604434,0.10688604420048414,100.0,100.0,100.0,100.0,0.1624238292817943,0.12372819371805607,0.17957222083882052,0.12372819371805607,0.16091822255741095,0.16091822255741095,0.16091822255741095,-0.1724511638358382,0.11090422244340717,0.07028797170817988,0.07028797170817988,-0.06411355191632398,-0.16149936298742443,-0.16149936298742443,0.13684608389452163,-0.16149936298742443,0.07877171389296542,-0.1716563962543935,0.0188851531117998,-0.1716563962543935,-0.02804358810204209,-0.12086932449150996,0.215100722443268,-0.27311766623987477,0.14432441058099796,0.013992628558077043,0.09014688573308925,0.013992628558077043,0.054501238303050495,0.14178465344792118,0.2695583224984772,-0.19428580370189857,0.10714064643635253,0.10714064643635253,0.10714064643635253,-0.08718877447214174,0.17235672375103425,0.17235672375103425,0.3541086636718117,-0.0195586650909386,0.09532591155205403,0.11838353734680558,0.06690979090677393,-0.08404167538294827,0.0019330214101471073,-0.04342381443835715,-0.04342381443835715,-0.003662512264455936,0.10274296870970157,0.20777153214187888,0.20777153214187888,-0.056778544488026925,100.0,100.0,100.0,100.0,0.08926023493130333,0.08926023493130333,0.08926023493130333,-0.14915321473374923,0.03343816088842645,-0.12857297629072995,0.03343816088842645,-0.16332763398591027,-0.02870783349183617,-0.02870783349183617,-0.02870783349183617,-0.02870783349183617,100.0,100.0,100.0,100.0,0.11623172959525593,-0.21334794073645405,0.10639442571250035,-0.37142651762126033,-0.021076082376768383,0.035488434611776976,0.29151462468801015,0.035488434611776976,100.0,100.0,100.0,100.0,-0.00014400079274360517,-0.18767079085744023,0.2120628221698109,0.16008800868646902,100.0,100.0,100.0,100.0,0.07086154611130858,0.07086154611130858,-0.02843382327949614,0.07086154611130858,0.18754310895192958,0.06451766424996547,0.17797059269930252,0.06451766424996547,-0.09573317767006509,-0.09573317767006509,-0.09573317767006509,-0.16248770428297618,100.0,100.0,100.0,100.0,0.21957051407639067,-0.29849505808081545,0.21957051407639067,-0.012741438117751847,0.1008218538617929,0.1008218538617929,0.27799848061903865,0.1008218538617929
-0.050855868174259064,0.09090874842588927,0.2295902779320413,0.04559299539559111,-0.1446264354625516,-0.1446264354625516,-0.1446264354625516,-0.2245994815064882,100.0,100.0,100.0,100.0,0.052557361047111006,-0.16576702187823233,0.07396686804308376,-0.03278111940661371,0.20327918855599264,-0.18144030038669134,-0.008968616736097536,-0.2654659589021652,100.0,100.0,100.0,100.0,0.07851361559076481,-0.19405763996838826,-0.19405763996838826,-0.19405763996838826,-0.08230470247739463,-0.08230470247739463,-0.08230470247739463,-0.08230470247739463,0.045388121431829,0.053775131981857,0.224476282974195,0.053775131981857,0.0712972578472677,0.056465598426736485,0.03679403272456794,-0.2147465056368468,-0.10081872825105015,-0.10081872825105015,-0.10081872825105015,-0.10081872825105015,-0.0003532515088773211,0.1649366099006083,0.1649366099006083,0.042040616917166616,0.28842527956068453,0.07857731692178815,0.07857731692178815,0.07857731692178815,100.0,100.0,100.0,100.0,100.0,100.0,100.0,100.0,0.09798409584144985,0.09798409584144985,0.09798409584144985,0.14962181504289024,0.0632218202999984,-0.02027427030338061,0.0632218202999984,0.0632218202999984,0.013159164354833403,-0.2067830452287657,0.23922456937408138,-0.2067830452287657,0.062403309066071846,0.062403309066071846,0.41423522557592496,0.062403309066071846,0.09846330068157268,-0.12488621055280408,0.127211125464268,-0.02675299669408101,0.11645569588317124,-0.19741854621431681,0.07892653961321577,-0.35905480990403377,0.04360221269519199,0.13527429114754647,0.22733778481407962,0.05616149748163787,-0.007760817776194605,-0.04118634426063924,-0.04118634426063924,-0.033249006132221835,0.12961150337318308,-0.05946378069665242,0.4043626264724805,-0.05946378069665242,0.01575958405181907,-0.08594885134658668,0.3634653085051698,0.014500486233541943,-0.04679669258026829,0.07214215424835382,0.07214215424835382,0.08212773462063229,0.12460819613890523,0.07234170833737433,0.28070924768897976,0.06112377009222579,-0.04749949471138394,-0.04749949471138394,-0.04749949471138394,0.1197425160813309,100.0,100.0,100.0,100.0,0.1431977204768578,-0.07670333116449446,0.28119914825950676,-0.19688106880727602,0.1893774432830148,-0.2102960358650634,-0.004510102913444017,-0.004510102913444017,0.017645624498933966,-0.11259417786386838,0.30703091120258474,-0.11259417786386838,0.15944324278114752,-0.009737059693986763,-0.016265732282182442,0.008655724943728071,0.23705387308720877,-0.0010288059203834715,0.47118357350658374,-0.0010288059203834715,-0.0857944172379313,-0.0857944172379313,-0.0857944172379313,0.02509029708702013,100.0,100.0,100.0,100.0,0.10078722852060526,-0.19332887107362276,0.026947442515127245,-0.19332887107362276,-0.03701287531354158,-0.24377013573102474,-0.03701287531354158,-0.03701287531354158,0.10338672595879789,0.040640705562869466,0.040640705562869466,0.040640705562869466,100.0,100.0,100.0,100.0
-0.011020312588880546,0.07061055350471347,0.07061055350471347,-0.14971924403442025,-0.1978835922162831,-0.1978835922162831,0.11548152772971478,-0.14560214148010187,0.1439477620576195,-0.02478983620159829,0.12904747517534113,-0.02478983620159829,0.15971536032896572,0.013410092307646455,0.33873633788565605,-0.03866484589993085,0.09672447328863232,0.09672447328863232,0.09672447328863232,0.09672447328863232,100.0,100.0,100.0,100.0,0.003059098882944502,-0.0016390076289977719,0.08835929582512111,-0.1723733681062038,-0.17356795663714314,-0.17356795663714314,0.37263602971625914,-0.17356795663714314,-0.03597398615362683,-0.03597398615362683,0.41448123518174573,-0.07651644651783791,0.1297697413728491,0.04531727827281136,0.33379737764058104,0.04531727827281136,0.002162950602940847,-0.39198907951447215,0.002162950602940847,0.13213808888243894,-0.025497862646041175,-0.15710701771440833,0.047471567414998646,-0.016746531191971382,0.06910068931847094,0.10498090634745126,0.10498090634745126,0.10498090634745126,0.10254395800298863,-0.1329579528968266,0.40886855343814577,0.10254395800298863,0.06354889584735553,0.12678186022337615,0.48949328188646113,0.12678186022337615,0.11740574428196889,-0.10495285278754557,-0.10495285278754557,-0.10495285278754557,0.12062764353479304,0.07902185237586123,0.4162417510955638,0.07902185237586123,0.03897968823108154,-0.04789360850590322,0.06329544216746434,0.06329544216746434,-0.0016725392291115776,0.02650739304990088,-0.011572443743520032,0.02650739304990088,100.0,100.0,100.0,100.0,0.06473470278629968,-0.12229282257876598,0.06473470278629968,0.06473470278629968,0.014291814251300916,-0.04567253793243628,0.4194104839324135,-0.04567253793243628,0.18304455233511036,0.203875634926178,0.2647556705098545,0.015978001255999182,0.025547523270165896,-0.24095600868444864,0.2734970394750287,0.0571786898621919,0.05330059160002175,0.06380177885757987,0.052123042827670274,-0.21468264573658613,0.024500202089380092,-0.026295074504575387,0.2296845755880768,0.2296845755880768,0.0011634147067327502,0.0011634147067327502,0.0011634147067327502,0.0011634147067327502,-0.04801769202073693,-0.12918563054893722,0.44437298101738537,0.1610525095747233,100.0,100.0,100.0,100.0,0.12601677606213704,-0.0011567216758700746,-0.0595254780666582,-0.0595254780666582,0.0696013181952355,0.0696013181952355,0.09050252607955103,0.0696013181952355,0.17609289961360086,-0.12938826622934768,0.2935974104340969,0.025011537690271174,0.10126764704676076,0.044851817921622295,0.18137397211203882,0.12115527271506002,0.17855754113828792,-0.3352663554732299,0.17855754113828792,0.14454396140005848,0.05353869781234717,-0.03412428308352897,0.28299552736886097,-0.03412428308352897,0.021645937658815877,0.12486399817525529,0.12486399817525529,-0.2302328059138165,0.09865162518314514,-0.016401525440350347,0.08884251778912419,-0.026909921935112824,0.12684564234043397,-0.13296406097556904,0.3513510466284503,-0.13296406097556904,-0.20323778225745281,-0.20323778225745281,-0.20323778225745281,0.04914664823724054,0.2124718575989575,0.02909245085542035,0.14036192106511297,0.02909245085542035
0.14410951788052637,-0.009440061840236491,0.13804407790698953,0.13804407790698953,-0.05701770086466401,-0.05701770086466401,-0.05701770086466401,-0.05701770086466401,0.17666931953041293,0.12025894665650995,0.334743311965494,0.12025894665650995,0.11656950804425806,-0.09278781415619886,0.09785996701668291,-0.3494956762968617,0.11110530337601006,0.06023138915093412,0.06617610117176553,-0.25368178521881896,0.0598588163716751,-0.08615490757237751,0.24624416168582677,0.07545344952519056,0.2309570555020259,0.03312723308851656,-0.166728606768975,-0.166728606768975,0.11615696008393414,-0.021845571227196908,0.11615696008393414,0.11615696008393414,0.08947000273510684,0.15629454329964462,0.4155234219671679,-0.18583784264868208,0.0325168149565411,0.0325168149565411,0.0325168149565411,0.04276023288847468,0.15881674829043246,-0.07502397377010885,0.12817642754935138,-0.035663754401545705,100.0,100.0,100.0,100.0,0.19469055417046155,-0.08873736721523874,0.2531259487509616,0.1819297439048702,100.0,100.0,100.0,100.0,0.1111723379821008,0.19312656579206453,0.1824078889205592,0.19312656579206453,0.05590171713840619,0.009409112238290392,-0.04545671338282496,-0.05020531154824517,-0.04398852132748056,0.14993827534303933,0.2787525183043499,-0.009839238400132486,0.06207506617948513,-0.005481880024127271,0.2434687513426756,-0.005481880024127271,0.11436161769749244,-0.17310172291046164,0.38050305671085793,-0.17310172291046164,0.06416496667510335,0.14489315202566175,0.314275797531927,0.14489315202566175,100.0,100.0,100.0,100.0,0.19944077517621248,-0.015594495089213324,-0.015594495089213324,-0.30098793008424596,0.13748836448978055,0.13430912428492203,0.13430912428492203,0.13430912428492203,0.045519914473386956,-0.07855780764458752,0.4263693780769983,0.17941433656725464,0.14105165626394675,-0.021357072638196237,0.19453794511824016,0.19453794511824016,0.014036655778605536,-0.1367729340965902,0.014036655778605536,0.25527671171609156,0.0782125544406345,0.07669066295342189,0.17051970880365677,0.07669066295342189,100.0,100.0,100.0,100.0,0.09524998031926589,0.005688863207215719,0.005688863207215719,-0.1625673908504007,0.03368560547186563,0.03368560547186563,0.29992146089128807,-0.1509722787816053,0.11270417369403801,-0.1281819856010195,-0.1281819856010195,-0.1605093554989558,0.16105742157372885,0.2147541447167603,0.2147541447167603,-0.11049013083338571,0.14084245166552112,-0.22885873327597558,0.1816469430622465,0.06529023088092614,0.19304121402592636,0.036004012144628256,0.1966261596612779,0.036004012144628256,0.019796550059897628,-0.16177686185598608,-0.16177686185598608,-0.21399898822436023,0.13246273526272645,0.13246273526272645,0.13246273526272645,0.04325131893356794,0.16586342397632112,-0.2164606822779198,-0.016307888703038412,-0.2164606822779198,100.0,100.0,100.0,100.0,0.031109085178795626,0.031109085178795626,-0.07447406128638853,-0.10429509764924656,-0.015239299021126348,-0.015239299021126348,-0.015239299021126348,0.16926438390893805
0.12470952102613972,0.012643283924760426,0.19490668972906688,-0.03825502499629527,100.0,100.0,100.0,100.0,100.0,100.0,100.0,100.0,0.16100878147687164,-0.18348935739155395,0.19461259376622406,0.19461259376622406,-0.06032474898142859,-0.06032474898142859,-0.06032474898142859,-0.1910423427379749,0.08645947068847068,0.12200116779862794,0.12346337663994797,0.12200116779862794,100.0,100.0,100.0,100.0,0.08624343776069945,0.1293165676305615,0.31340466270370326,0.07194449258966568,0.07232351392798406,-0.185706266287523,0.15895965527458333,0.09805797938199842,0.04194880173424963,-0.10816042629112885,0.28841622357661956,0.16547635064653535,100.0,100.0,100.0,100.0,0.12071975598475639,0.14219294914761307,0.046906954081682495,0.06509254297248795,0.09222091887467507,0.03905559948124325,0.1346070751711129,0.1346070751711129,0.06360200499143974,0.1193029160922772,0.1193029160922772,8.835120286854181e-05,0.01687633142272605,0.08016181497282053,-0.001912775228687151,-0.10578825562521482,-0.07691803565974155,-0.07691803565974155,-0.07691803565974155,-0.07691803565974155,0.18769285681086498,0.14627131207402624,0.2885960527988919,0.14627131207402624,0.21158513787629724,0.0272324894149001,0.27888846875923146,0.0272324894149001,0.06431357060708816,-0.16121818670090526,0.4147252812043439,-0.14524683416761522,0.13784393760458977,-0.027593521702274783,0.2063228137830801,-0.027593521702274783,100.0,100.0,100.0,100.0,0.10653215025606468,-0.08271213243646656,0.223947210047652,0.223947210047652,0.19801564018809154,0.19521087081375588,-0.024269816856726203,0.19521087081375588,0.14613532156299736,0.05003922449687237,-0.05000063636003058,-0.10395425663849941,0.059075188025650746,-0.08994570905991137,0.043833811310950384,0.17350060497926906,0.033113990619036894,-0.025475118437861786,-0.025475118437861786,-0.025475118437861786,0.10307582674115903,0.10307582674115903,0.0589970734012802,-0.09619378161539738,0.06427365827870525,0.017181252915140464,-0.057442732685252594,0.017181252915140464,0.10907498585236759,0.13310185676417924,0.15890092367116324,0.13310185676417924,0.17744450689719932,0.01927662819519531,0.0707403335736497,0.01927662819519531,0.08763132319653819,0.13546807724689913,0.13546807724689913,0.13546807724689913,100.0,100.0,100.0,100.0,0.12010081456418781,0.12010081456418781,0.12010081456418781,0.12010081456418781,100.0,100.0,100.0,100.0,100.0,100.0,100.0,100.0,100.0,100.0,100.0,100.0,0.14838583700432292,-0.003081942027753087,0.09374165293652684,-0.2121740082845602,0.03850524667508651,-0.05682765520770694,0.3458632188314658,-0.14301602206892067,100.0,100.0,100.0,100.0,0.2273823321835705,-0.006633543352371693,0.45442747728058397,-0.006633543352371693
0.1461799097572201,-0.0913751392258574,0.321292539768872,-0.0913751392258574,100.0,100.0,100.0,100.0,0.020034495359406327,0.03281325001703461,0.19980065539811862,0.03281325001703461,-0.04205915904636477,0.10689250947264325,0.19327302291215512,-0.08155306859154127,0.03242120348193819,0.03242120348193819,0.026727331080003962,-0.22951516479115347,0.24698585715768234,0.24698585715768234,0.2673233259106208,0.24698585715768234,100.0,100.0,100.0,100.0,-0.01302473024992886,-0.11386128704727903,0.31026541980459493,-0.11386128704727903,-0.002440302561421165,-0.002440302561421165,-0.002440302561421165,-0.002440302561421165,0.11485485576264569,-0.0557711133675153,0.4459316095085891,-0.15040777804699704,0.07115023773500778,-0.09566100147074215,-0.09566100147074215,-0.09566100147074215,100.0,100.0,100.0,100.0,100.0,100.0,100.0,100.0,0.23649269646553037,-0.057441676592062695,-0.057441676592062695,-0.057441676592062695,0.08095197580287294,-0.11766147918082112,0.1522309189491556,-0.11148137824337945,0.11396296187105447,-0.23625734470941487,0.28947241065425333,0.02138698598530217,-0.13868549703661795,-0.11815088335401974,-0.13868549703661795,-0.13868549703661795,0.024729554283708932,-0.1783421548343505,0.16762174347944064,0.16762174347944064,0.026786957075938325,0.026786957075938325,0.20059498082410399,-0.05527108104838399,-0.13115466448405158,-0.13115466448405158,-0.13115466448405158,0.029506048626742575,0.03105536922437193,-0.055698816766836384,-0.055698816766836384,-0.055698816766836384,0.17005883014562403,-0.1839903074872548,-0.1839903074872548,-0.3228898437128688,-0.03816353006229765,0.0625286869341815,0.35693866123489265,0.0625286869341815,0.05221502833647777,-0.1506177039172125,0.1886681298565671,-0.12097955913841402,0.16253793232017358,0.1582711437734996,0.2100657520838121,0.1582711437734996,0.12702039903570486,-0.0858726691245343,0.23516080816044094,0.1799698845848761,0.08403545652573263,0.08403545652573263,0.08403545652573263,0.08403545652573263,100.0,100.0,100.0,100.0,-0.0014898030313122979,-0.0014898030313122979,-0.0014898030313122979,-0.0014898030313122979,0.06107167983379473,-0.012684760472815776,-0.012684760472815776,-0.012684760472815776,100.0,100.0,100.0,100.0,0.047233073421433514,0.047233073421433514,0.047233073421433514,0.056109466199156105,0.026626925500571483,-0.14048386696923174,0.07327745573957234,0.07327745573957234,0.0779074142877026,0.052176802247007076,0.3432938029505981,0.052176802247007076,0.15667961770151467,-0.18678053071687267,0.23342651822101274,-0.18678053071687267,0.0019054097501984314,0.16119324225309156,0.16119324225309156,0.16119324225309156,100.0,100.0,100.0,100.0,-0.007420682553545985,-0.1076500672130277,-0.007420682553545985,0.2628263708212383,0.2182473616321391,0.008597998416280516,-0.12299429609085377,-0.12299429609085377,0.036705738082566414,0.19609536386764198,0.19609536386764198,0.19609536386764198
100.0,100.0,100.0,100.0,0.16852809751364917,0.16852809751364917,0.16852809751364917,0.029540280490151,0.11245839837776445,-0.0801784913719128,0.5108751969219546,-0.0801784913719128,100.0,100.0,100.0,100.0,-0.008218125019623462,-0.008218125019623462,-0.008218125019623462,-0.30719863580198487,0.0015959066956098764,0.23077116809241363,0.23077116809241363,-0.05577111179868987,100.0,100.0,100.0,100.0,0.046497556328231895,0.046497556328231895,0.01950815388337125,0.046497556328231895,0.16056938251421135,-0.09518922680228253,0.32790324588050074,-0.09518922680228253,0.05722686292842517,0.05722686292842517,0.2895561460595748,0.05722686292842517,0.12935319317816693,0.12935319317816693,0.3487889144233771,0.12935319317816693,0.06935156127450091,-0.08785482265280298,0.3767863043281955,0.10521695696573816,0.054876236839537226,0.021875673220767215,0.021875673220767215,0.0490788579806464,0.0762994163272245,-0.06696986242548919,0.22837302679869007,-0.06696986242548919,0.12626466092266594,0.12626466092266594,0.27943181140918094,-0.124439585419176,0.11259669478407391,-0.14147053352540906,0.25909640311337084,-0.14147053352540906,0.02381936112423847,0.02381936112423847,0.3200823319478179,-0.12602393138807316,-0.011325507291921756,0.15478543858323984,0.15478543858323984,0.15478543858323984,0.22124334161621834,0.01141979248118992,0.3024855929476664,0.01141979248118992,-0.12403033701861862,-0.12403033701861862,-0.12403033701861862,-0.3733547036116463,0.04274148211490522,-0.19817602705297832,0.017509212910762406,0.017509212910762406,0.07836497942066913,0.07836497942066913,0.06992068449026027,-0.15806591422544805,0.04480846722854606,0.04480846722854606,0.04480846722854606,0.04480846722854606,0.14291513975383008,-0.056166132124074966,0.08218122988853871,0.07098670789732245,100.0,100.0,100.0,100.0,0.07767156336015607,-0.22995176343181478,0.043001186090480675,0.12676527254794454,100.0,100.0,100.0,100.0,0.01710615545345766,-0.2321337627867608,0.06542667642444254,0.06542667642444254,0.015047769117390933,0.015047769117390933,0.22470683774214806,-0.1309401030334224,0.10117843906917132,0.08693654051172994,0.3075126726526089,0.08693654051172994,-0.06829317315451507,0.1749716954468971,0.14371858533635065,0.1749716954468971,0.15055717567674454,0.16087108625215285,0.21797672711994737,-0.2044222259185556,-0.022590998237757245,0.1398470765611665,0.1398470765611665,-0.1833570966305753,0.048302649793069474,0.03172869925675197,-0.047912959860323526,-0.20463020093900358,-0.09532258792163278,-0.09532258792163278,-0.09532258792163278,-0.09532258792163278,0.07587132081526649,0.19136238946775683,0.3317842894026769,0.19136238946775683,0.262761564809869,-0.005211159999576664,0.03765264628387974,-0.1625921338220535,0.2189741354947815,0.007545277386041549,0.007545277386041549,0.007545277386041549,0.10921636171258331,-0.09984721413681102,0.2818761144142626,0.001805735294042439,-0.08327489911419697,-0.08327489911419697,0.39366576582079266,-0.08327489911419697
0.07539266186125826,-0.30094148919471847,0.06503864752945712,0.06503864752945712,0.1230893706660396,-0.05436246454097593,0.10108315613380242,-0.03222967996042664,100.0,100.0,100.0,100.0,0.1804272302239327,-0.1141036367477378,-0.04140165545570354,-0.1470986592382553,0.2013275332698261,-0.054564554139991644,0.2013275332698261,0.06505164300478201,0.24178747965926645,-0.1790013197236064,0.015203859694392679,-0.1790013197236064,0.05942702371551365,-0.02673630170255665,-0.02673630170255665,-0.02673630170255665,100.0,100.0,100.0,100.0,-0.003274703743712651,0.03160374540681207,0.4787461798096567,0.03160374540681207,0.1411250270475375,-0.08099251002594662,-0.08099251002594662,-0.30366898230386663,0.17984604937723572,-0.041126012825052155,0.17984604937723572,-0.11720606799353205,0.100494578063967,0.1398422520446095,0.1398422520446095,0.1398422520446095,0.043267427773649884,-0.19438111971791974,-0.015952606553313625,-0.2404201377349083,0.024038044150363418,0.024038044150363418,0.4050307738781576,-0.16371016209864916,0.3069361600997995,-0.10352301581365951,-0.1538599945892799,-0.1538599945892799,-0.05692263354841585,-0.05692263354841585,-0.05692263354841585,-0.05692263354841585,0.2045039573565574,0.02827680970279962,0.2290640354440578,0.2290640354440578,0.04981703363565301,-0.07589610215192172,0.4580372559609051,0.12905878140776944,0.07500166191034151,0.22417868155592519,0.321749571008335,0.22417868155592519,100.0,100.0,100.0,100.0,0.16009518566643155,0.020325174909540694,-0.03028314303550722,0.020325174909540694,0.15276006268325118,-0.11339828904387265,0.2671825181049898,-0.10251097937404606,0.07316418488452724,-0.12075289056441982,-0.04047458665489387,-0.2387178218956862,0.11873430287967714,0.08325814352300115,0.5193863580615281,0.08325814352300115,0.03244577629816706,-0.0532374660561471,0.12164352922259122,-0.0532374660561471,-0.09727973098733206,-0.09727973098733206,0.009784086947319914,-0.1779604349625582,0.22476209986872128,-0.1739481324875063,0.1370752947050885,0.1370752947050885,0.05815018573600293,0.07151068214427575,0.07151068214427575,0.07151068214427575,-0.016527924338560526,-0.009356320612593963,0.18294439406779478,0.18294439406779478,0.12634996746494165,0.037462845212355426,0.09754155675164455,0.05853440550366093,0.17584997121749357,0.0930860220266331,0.3595029447233547,0.049744384132895024,100.0,100.0,100.0,100.0,0.03965097904135616,0.06268606836433022,0.41922922678430524,0.06268606836433022,0.04582967366042846,-0.06320221072231119,-0.06320221072231119,-0.06320221072231119,0.011030876823164018,0.10819572346868035,0.10819572346868035,-0.09356458734942023,0.20266689829751564,0.06195610963062762,0.3333303050841016,0.06195610963062762,0.12548216278611943,0.03393130463816792,-0.0077534258684692145,0.011516577995736922,0.14600624155952502,0.14600624155952502,0.14600624155952502,-0.10333453859249722,0.18138318474582443,0.13054575233376253,0.23673426085212407,-0.007457123133745774,0.13066840399741425,0.02874370427165061,-0.07618272953453772,-0.15818732539476682
0.0770529376999029,0.02487426574898928,0.02487426574898928,-0.2778642749339169,-0.05669146757283522,-0.0996342427374738,-0.02797869534626974,-0.02797869534626974,0.16864032099132675,0.16864032099132675,0.3563274383700074,0.16864032099132675,0.16986320610287853,0.16768953333647524,0.3752475193226588,-0.032669003376228814,0.19076091144923074,0.13925918585041439,0.34430526382912285,0.13925918585041439,-0.19085205252455617,-0.19085205252455617,-0.19085205252455617,-0.19085205252455617,100.0,100.0,100.0,100.0,0.07188469026191759,-0.2105779601920333,0.1652486948695737,0.09049893156278786,0.09451097094072783,0.09451097094072783,0.09451097094072783,0.09451097094072783,100.0,100.0,100.0,100.0,0.11296038962091831,-0.1349951337868879,-0.008310650982450915,-0.17946397618189028,0.03609558334854901,-0.14848917922198568,0.27194963380734133,0.13591595363619874,0.12989860196733347,0.12989860196733347,0.12989860196733347,0.12989860196733347,100.0,100.0,100.0,100.0,-0.07632182185199168,-0.07632182185199168,-0.07632182185199168,-0.07632182185199168,-0.08202481003877977,-0.07433159163940092,0.3251508940079275,0.1138207377618553,0.21639863608018695,0.14251930659275436,0.2934314368464963,0.14251930659275436,0.042551753684699885,-0.2827765632949576,0.21525650139062216,0.042551753684699885,0.09141063954343154,-0.049327611571156754,0.09141063954343154,0.03211437280749898,0.15497111201576153,0.21576737369053114,0.3322532285389656,0.21576737369053114,0.10763569310701976,0.2285514351303527,0.2225629027351359,-0.08759276088887641,-0.042936305555163964,-0.042936305555163964,-0.042936305555163964,0.07531667153530533,0.14420651646377097,0.025405093938072568,0.025405093938072568,0.025405093938072568,0.12747459397384703,-0.06302259709121566,0.13999988328404972,-0.034288058972143126,-0.08565295104567663,-0.18277284014380268,-0.07589795527363377,-0.07589795527363377,0.07364959514248963,0.03472839038187028,0.2105872088331447,0.107499918235577,0.28627241696501743,-0.20336959390001047,-0.20336959390001047,-0.20336959390001047,0.07523612092316,0.06673855445453789,0.06159204876208965,0.06673855445453789,0.07875640891315902,-0.02323320243442828,-0.02323320243442828,-0.0694436565918265,100.0,100.0,100.0,100.0,0.07137209767225336,-0.19619676655495966,0.08217119313129304,0.11161741431212677,-0.21434666115598075,-0.21434666115598075,-0.02086828155253384,-0.31521305522106335,0.08791146750300063,0.008130361975551718,0.23714226237587918,-0.03448436335286739,0.012667728555313201,0.012667728555313201,0.46709349582564125,-0.2222105718634479,0.0663445355979939,0.09657268093107435,0.22195523716563365,0.030688444662179543,0.1833929708018126,-0.05872146706179285,0.24410827629507523,0.1833929708018126,0.04327974024457915,-0.0649070749025111,-0.0649070749025111,-0.22767625596225471,0.05388538241062295,-0.23736880392280538,0.2715947517270092,0.0621658208777388,0.22341832787238436,0.038060154934334345,0.3389537099472715,0.22341832787238436,0.13820599944808895,-0.10753151432637628,-0.10753151432637628,-0.1722065451776548
-0.05754716634364585,-0.05754716634364585,-0.05754716634364585,-0.10457520350869996,100.0,100.0,100.0,100.0,0.08101746312755526,-0.0032901392443514393,-0.0032901392443514393,-0.19605150303774777,0.05146814268389595,-0.1319938648489194,0.3594411106072344,0.15316761519608907,0.11818645092324935,-0.1702505288283724,0.32006861863963143,0.04988057459667681,-0.032355086130678015,-0.032355086130678015,0.13786216717185293,-0.032355086130678015,0.09106611036374665,-0.12516273217576263,0.3312217579098886,-0.12516273217576263,0.07554229064759554,0.021921287253852437,-0.010850366718717516,0.021921287253852437,0.07779995414432984,-0.15761055156989862,0.056080784696897396,0.24661548578111886,0.2514618224931247,0.002370151843571193,0.002370151843571193,0.25341505341226134,0.16112380682621566,0.1873048307025122,0.3091008039383128,-0.17840421534305637,0.18997108180223893,0.03263070299064366,0.4361801668517613,0.03263070299064366,0.0760535711576555,0.08757445888351954,-0.03608216945750192,-0.26885724619188645,0.08906522171378083,-0.05329805378275403,0.09087158235743523,-0.17104236803104772,0.04665502457870911,-0.05025271149972925,0.10009235245125912,-0.14087969075947254,0.03432221317246012,0.2097464039910839,0.25820967315628957,0.18667695759156766,-0.040634498784997926,0.05216205271363845,0.05216205271363845,0.05216205271363845,0.02380953727659898,0.1658860991142189,0.15115633370589965,-0.14599305244279084,0.11147260863544346,0.11516289833134857,0.11516289833134857,-0.007566817363449968,0.14298596522499107,-0.06590757180610787,0.2168140773690359,-0.24021893605358552,0.16786190387032984,0.08643193303724467,0.37281268516004046,0.08643193303724467,0.029071935409638924,0.19422288698879292,0.19422288698879292,0.19422288698879292,-0.002764399578304485,-0.2568592864245669,0.14292290212013525,0.013350848438381132,0.11950058596276657,-0.19509356586952953,0.3541540578553305,-0.19509356586952953,0.14634631757933741,-0.02492538604265958,0.31501978922751006,0.18649126998914767,100.0,100.0,100.0,100.0,0.09191444244539446,-0.08598472199364551,0.3874023247093237,-0.08598472199364551,-0.04749911116231123,-0.1380070750620586,-0.04749911116231123,-0.04749911116231123,-0.010954547439079351,0.12146509295718974,0.05385083978395144,0.12146509295718974,0.1875735042137337,-0.2087352322945309,0.11981599953031365,0.15423873897334395,0.07814377662619358,-0.036570433529598975,-0.036570433529598975,-0.036570433529598975,0.08666510782209162,0.0934187216917678,0.2216062835011195,0.0934187216917678,0.10602666728269526,0.14115709084673234,0.16064899410822991,0.16064899410822991,0.1603546933085008,0.1603546933085008,0.1603546933085008,0.1603546933085008,0.05688349222935215,-0.045475753720669906,0.4404025804606557,-0.045475753720669906,0.054226582507287006,-0.07506635934399436,0.13041833456540153,0.03667273475762085,0.09655112183700727,0.09655112183700727,0.13782366982917654,0.09655112183700727,0.16581157789969198,0.08876961429407154,0.44561043245633725,-0.09333775701057302,0.17879895917584604,0.16955291038728518,0.16955291038728518,0.16955291038728518,-0.06457295042332739,-0.10209309047142712,0.292134317369133,0.13630917097077316
-0.021778908821411955,0.03784777395115893,0.01445314012019222,0.03784777395115893,0.06255321884661677,-0.2258639223866087,0.29615154069247984,0.18792101618587004,0.099943918386778,-0.15225083470453687,-0.04045550517155804,-0.26089190363282183,100.0,100.0,100.0,100.0,0.027008915090481575,0.027008915090481575,0.027008915090481575,-0.1933756127885309,0.11213427053522809,0.11213427053522809,0.25200745624052423,0.11213427053522809,0.17660736846765243,-0.10009359218554188,0.1548920885342419,-0.10009359218554188,-0.06698273900620606,-0.06698273900620606,0.07807961469927094,-0.020123832033713415,0.16076248291371764,0.08276678179818603,0.08276678179818603,0.08276678179818603,0.0028833414097295743,0.15191992646142838,0.33415587045805945,-0.10974733141696572,-0.1405212767554925,-0.051703066694652036,-0.010013766555681008,-0.14882703439101394,-0.08480034491305319,-0.10345412182663567,-0.08480034491305319,-0.08480034491305319,0.05207542142959113,0.05207542142959113,0.1722429991818314,-0.11398238611981386,0.03445978137942076,-0.09971141611665768,0.03445978137942076,0.03445978137942076,100.0,100.0,100.0,100.0,0.20036166519037127,-0.03843820171993835,0.1821289429650934,-0.08463596310121982,0.1625330162855312,0.1625330162855312,0.03227689014523573,0.1625330162855312,0.11659088144886368,0.0996440225522904,0.2927687636230253,0.0996440225522904,-0.07277576028526646,-0.07277576028526646,-0.07277576028526646,-0.0759607680410267,-0.018712487526806917,-0.018712487526806917,-0.018712487526806917,-0.19976759311193357,-0.20265270248136574,-0.20265270248136574,-0.20265270248136574,-0.20265270248136574,0.05715654627144147,-0.19622166996869908,0.005058366040456966,0.005058366040456966,0.06262268776833735,0.08038264624619258,-0.0342160694152282,-0.09056845856143153,0.1580911435164255,0.13394401149496898,0.13394401149496898,0.13394401149496898,100.0,100.0,100.0,100.0,0.22812088614078596,-0.16294671833666508,0.22812088614078596,0.09842701493505393,-0.06864821465786711,-0.06864821465786711,-0.06864821465786711,0.01848772729066729,100.0,100.0,100.0,100.0,0.2217517510450106,0.2217517510450106,0.2217517510450106,-0.022512509382872394,0.04963750817743528,-0.15046623380398544,-0.026302237242620256,-0.10039048931022423,0.13824862136830582,0.13824862136830582,0.25455403528787696,0.13824862136830582,-0.024387247705608628,-0.06774750577690425,-0.013967837729930141,-0.024387247705608628,0.15675269844943157,-0.07715035162827805,0.34134127527845387,-0.07715035162827805,0.09280559049653514,-0.0867704997070442,0.07419717576055773,0.2230454933144949,0.058970845604444114,0.09547190887715698,0.5445393239731096,-0.08749227128118174,100.0,100.0,100.0,100.0,0.059081765353355964,-0.029452376906561467,0.22005779177417656,-0.029452376906561467,0.01559048943453524,-0.06326020958773132,0.01559048943453524,-0.16002855854103992,0.008160102327889362,-0.05725354826293669,0.061326543989251484,0.0892506063761008,0.04676095216108456,0.08601523995285192,0.1896893914174423,0.08601523995285192
0.03973655875826046,0.08130307286862998,0.08130307286862998,-0.07131198427917865,0.2161665373162095,-0.06510116817694425,0.4703533654059474,-0.06510116817694425,0.026883528034995965,-0.27339787597092136,0.33573733325401023,0.026883528034995965,0.08791129040648571,0.08791129040648571,0.08791129040648571,-0.16049574703928893,0.12679648597883014,-0.024163686286539168,0.021647198310536617,0.0088023333549609,0.1386070089250583,-0.19701035206329937,0.07779738636928205,-0.19701035206329937,0.29819856089757024,-0.054989756041356405,-0.054989756041356405,0.2509419331374947,0.08714955681570326,-0.08347698405455586,0.12954969990033038,-0.08347698405455586,0.2173904200966196,-0.16771023628984905,-0.16771023628984905,-0.16771023628984905,0.12043828148497032,0.1482153289439762,0.23155274061703515,-0.1715594498006328,100.0,100.0,100.0,100.0,0.02483961205576911,-0.12368651488022583,0.3498412350219481,0.02483961205576911,-0.047703270827960886,-0.047703270827960886,-0.047703270827960886,-0.047703270827960886,0.10265891694428922,0.10265891694428922,0.10265891694428922,0.10265891694428922,0.18552265758801018,-0.20146120816639984,0.05645893574082976,0.05645893574082976,100.0,100.0,100.0,100.0,0.00912300957676214,-0.18129615945467648,0.2822209131401588,0.00912300957676214,100.0,100.0,100.0,100.0,-0.015266340266865963,-0.015266340266865963,0.5108460786895153,-0.015266340266865963,0.0860676898759074,0.04767344592398663,0.3781668856515051,0.05406895208831305,100.0,100.0,100.0,100.0,0.10783559522972057,-0.20293327375324147,0.371898614695114,-0.09712974478815245,0.12913852650417945,-0.3028850556953329,0.19625232553793004,-0.07427135728275103,0.08748351831030514,-0.09952937217327815,0.184542390220522,0.184542390220522,0.10797474512123813,0.22019679621107574,0.22019679621107574,-0.04896093654005039,0.16162372767708788,0.09850283533598013,0.29916586412360224,0.09850283533598013,100.0,100.0,100.0,100.0,0.12364391784078578,-0.049530960974506544,0.2755728116759667,-0.049530960974506544,-0.03941061179383899,-0.03941061179383899,-0.03941061179383899,0.2973536405217477,0.1418895671825811,0.0964152827004963,0.10854841990355596,-0.201719468695807,-0.1616357800854775,-0.1616357800854775,-0.1616357800854775,-0.1616357800854775,0.14816107253811986,0.14816107253811986,0.14816107253811986,0.14816107253811986,0.07030408152551355,-0.07368613135113869,-0.07368613135113869,-0.20035319191809445,0.17888239613390933,-0.15042165302146207,-0.15042165302146207,-0.15042165302146207,0.2667392475914338,0.010231058828226697,0.36849581474944604,0.010231058828226697,0.12828059247152102,-0.03730831036867395,-0.03730831036867395,-0.3587831255517057,0.02127951935312002,-0.22418575222753795,-0.03055117944829094,-0.03055117944829094,0.02964475538398753,0.010834154220826004,0.21300725235162352,0.21300725235162352,0.23241700295338788,-0.07761033017581209,0.23241700295338788,0.037302681779390084,0.10236128081454145,0.05276905523660303,0.05276905523660303,0.05276905523660303
0.19407314092073077,0.12281921977829836,0.276149090557501,0.12281921977829836,0.06779995736521117,-0.07807097346556896,0.1689632014885865,-0.07807097346556896,0.024201318774111018,0.024201318774111018,0.024201318774111018,-0.14530492533192288,0.07869842336147093,0.07869842336147093,0.07869842336147093,-0.12441620590900145,0.1018486318610795,-0.18688301145850258,0.09733661071987904,-0.31299939397993704,100.0,100.0,100.0,100.0,0.14623522978553327,-0.025228334916196013,-0.025228334916196013,-0.17897483725636204,0.08944751704896603,-0.1660686987539582,0.01751624191673562,-0.24923104785331604,0.17742640896188078,-0.09596412734535245,-0.09596412734535245,-0.31498016961774067,-0.04698605544703913,0.0011494554941325896,0.15774369871390212,-0.1686449898877765,-0.005560704316274694,-0.04369011411347163,0.31749043293530765,-0.04369011411347163,100.0,100.0,100.0,100.0,0.09333173976448954,-0.18099919970709505,-0.18099919970709505,-0.18099919970709505,100.0,100.0,100.0,100.0,0.20266391592123417,-0.45504639099277544,0.20266391592123417,0.20266391592123417,-0.024943944223655243,-0.18082106646790053,0.25995091598798464,-0.024943944223655243,-0.09208752263493228,-0.09208752263493228,-0.09208752263493228,-0.2002855983194332,0.05124718999324264,-0.03128516915218636,0.1580096773505969,0.1580096773505969,0.08358014441182382,-0.002410705945544489,-0.0955739808192801,-0.0955739808192801,0.05993240540107813,0.05993240540107813,0.05993240540107813,0.05993240540107813,0.03852368896864568,-0.18178586196609098,-0.023940978055123692,-0.023940978055123692,0.010043548919160115,-0.1599954136297066,0.2741849091424033,-0.1599954136297066,100.0,100.0,100.0,100.0,-0.12124192559492404,-0.12124192559492404,-0.12124192559492404,-0.12124192559492404,0.18921899712206325,-0.11512341027309042,0.29426748095966154,0.18921899712206325,100.0,100.0,100.0,100.0,0.1456892689035936,-0.16402477318356967,0.38518322926134696,-0.31791908556697,0.15386174737488117,0.2141823773933182,0.30141094014819314,-0.0770841454179976,-0.0008833131925377741,0.09425255948420433,0.40936141909984847,0.09425255948420433,0.16244140776894467,0.20962906430906414,-0.024555453088643986,0.20962906430906414,0.05593217017144787,-0.036414354982523045,0.3867482622148476,-0.036414354982523045,0.0064188686137696335,0.06711245215891959,-0.022434406547515655,0.05709216604187424,0.060427717115379385,0.04513112826155132,0.3043656744895611,0.04513112826155132,0.23816883492723184,-0.05227101563168705,0.23816883492723184,0.23816883492723184,0.1323263982825793,0.0034662998600173967,0.09602411200697383,0.09602411200697383,100.0,100.0,100.0,100.0,0.2067165373702476,-0.22052253230309302,0.18826040430726643,0.2067165373702476,100.0,100.0,100.0,100.0,-0.03695528195437118,-0.1644675666746724,-0.044145154388151184,-0.044145154388151184,0.23374514022587686,-0.10201333497527415,0.36786498339075846,-0.10201333497527415
0.147754717531731,0.13357192045621116,0.061253053713236666,0.13357192045621116,0.27101844922590734,0.04589516972982631,0.2450023109395625,0.04589516972982631,0.09082796492233908,0.09082796492233908,0.09082796492233908,0.09082796492233908,0.16323177716956205,0.16323177716956205,0.006521580423364037,-0.16764783462385505,0.045964605443949466,0.045964605443949466,-0.04940862369171984,-0.13518023379411417,0.20586110884203457,0.1126363853824346,0.4267820967519952,0.1126363853824346,0.04670205569242984,0.04670205569242984,0.04670205569242984,-0.06170478594432009,0.00970799984177025,0.01530505900153279,0.23099153086319982,-0.14226897599693333,0.042584658625574846,-0.14184845673159724,0.008298527537128786,0.008298527537128786,0.18584742359526138,-0.150737203713761,0.08616673833667662,-0.03366103977241062,0.10853732738339017,-0.08897857957461028,0.12734055395962918,-0.09186555961511003,0.012729437149455899,-0.21535807227476522,0.27660746474589964,0.012729437149455899,100.0,100.0,100.0,100.0,0.26218484578375423,-0.16741797991484603,-0.16741797991484603,-0.22668048019502318,100.0,100.0,100.0,100.0,-0.11888898127623881,-0.11888898127623881,-0.11888898127623881,0.08561380044074955,0.11650821200206077,-0.17893889586208528,0.2920355805468794,-0.17893889586208528,0.048660838038741695,-0.17777132905457685,0.10215379836088903,0.10215379836088903,0.09304105517198649,0.05819218486294571,0.05819218486294571,-0.301347737739053,0.14459146309925094,0.09142034100880403,0.09142034100880403,-0.06847098127995355,100.0,100.0,100.0,100.0,100.0,100.0,100.0,100.0,0.0571904473390211,0.0571904473390211,0.0571904473390211,0.0571904473390211,0.1385594439216681,-0.22836925584952714,0.31284811349537445,-0.22836925584952714,0.0023221931926604433,0.0023221931926604433,0.04091657024555354,0.0023221931926604433,100.0,100.0,100.0,100.0,0.24924942682318163,0.06928639911949093,0.24924942682318163,0.24924942682318163,-0.09382826851679477,-0.09382826851679477,-0.09382826851679477,-0.03544781497973094,0.09938579504402774,0.09938579504402774,0.09938579504402774,0.09938579504402774,-0.14088913993085217,-0.14088913993085217,-0.14088913993085217,-0.14088913993085217,0.1086558899727242,-0.07438822743175941,0.302846663867966,0.21330976133981977,0.09981212367014339,0.058279078548636176,0.06331595125022361,-0.11385771339121316,0.08883637274801309,0.08883637274801309,0.2873766494956639,0.08883637274801309,0.027511066691572817,0.054166972696468314,0.01754078229292881,-0.13478249670973771,100.0,100.0,100.0,100.0,0.12775320453793426,0.11764929711420907,0.16065123824443295,0.11764929711420907,100.0,100.0,100.0,100.0,-0.03960495262505429,-0.14322024087777477,0.28274343788529294,0.08496322592923702,0.044562403648800056,-0.1761537851306274,0.10178512792889446,0.016643816700714242,0.010698504754014114,-0.09289121588191003,-0.09289121588191003,-0.29759904655918606
100.0,100.0,100.0,100.0,0.019831038087242157,-0.008132784907332824,0.44082802624038564,-0.008132784907332824,0.08182695289226491,0.005180452492306135,0.20947113489939495,0.005180452492306135,0.20756956108092683,-0.24784609045949274,0.20756956108092683,-0.10427523762978812,-0.0302648363307464,0.028565581928442038,0.028565581928442038,0.028565581928442038,0.28841801609550255,0.09418810189762526,0.09418810189762526,-0.10881828479097207,0.17949590704508525,-0.22281186665113872,-0.22281186665113872,-0.22281186665113872,0.09828315507690384,0.09828315507690384,0.09828315507690384,-0.267149684513637,100.0,100.0,100.0,100.0,100.0,100.0,100.0,100.0,0.04019882772199776,0.008299191533164808,0.40683176459161996,-0.10374527725242196,-0.0521281440067054,-0.13935448712618492,0.14872198493804867,-0.13935448712618492,0.15126438409441692,0.16724964668772663,0.26849688618261774,-0.09609395962008678,0.14189714444541732,-0.1789758681426919,-0.1789758681426919,-0.1789758681426919,100.0,100.0,100.0,100.0,100.0,100.0,100.0,100.0,0.10565594974818819,-0.07107104634320538,0.1384321817110472,0.14660399943162444,0.07701402852325331,0.07701402852325331,0.3429689460950695,-0.07642696226045775,-0.046020123765205846,-0.046020123765205846,-0.046020123765205846,-0.046020123765205846,0.10596098446584098,-0.08211018369153965,-0.08211018369153965,-0.19121966144317593,0.10688078765798947,-0.048193956925871285,0.17496754623904723,-0.026739111882777722,0.18408593312755028,-0.04767059910908733,-0.04767059910908733,-0.04767059910908733,0.08647269052700868,0.009205348599800364,0.009205348599800364,-0.1185104692071066,0.12416032354210621,-0.030679156717167623,0.2306891664134466,-0.030679156717167623,0.004933100987017269,-0.045738853359441035,0.043541462069114995,0.043541462069114995,0.18499933719632794,-0.15028007834454,-0.15028007834454,-0.15028007834454,100.0,100.0,100.0,100.0,0.009060790287453324,0.009060790287453324,0.40992685809626933,0.009060790287453324,-0.1257051339020017,-0.1257051339020017,0.3475048796282038,-0.15251384088728742,0.09837258153838803,-0.20143678979068452,-0.20143678979068452,-0.2778152123323335,0.09435156511322461,0.023409743320372902,-0.09159636962004655,0.13376000517826175,-0.13023613127921807,-0.1146412703013393,0.1638133259068753,-0.13023613127921807,0.07958676556845953,0.02679080549738501,0.02679080549738501,-0.2636617858646074,0.03301198919818922,-0.21202798731500233,0.00725186059630762,-0.31404904945895296,0.06461845688962232,-0.1167207597463816,0.423954143865365,-0.1167207597463816,100.0,100.0,100.0,100.0,0.16883831394651802,-0.15000466407313717,0.25420444918874074,-0.15000466407313717,100.0,100.0,100.0,100.0,0.13488219792868775,0.0014261466228109657,0.0014261466228109657,-0.14795566228944165,0.04803963784124525,0.033368097709750244,0.033368097709750244,-0.2830751729316715
-0.003449550825892267,0.07246106493314478,0.4695466054436015,0.07246106493314478,100.0,100.0,100.0,100.0,-0.06175373337357766,-0.2452131338286965,0.26471636810248034,0.07363565373156593,100.0,100.0,100.0,100.0,0.21783062928229155,0.21783062928229155,0.21783062928229155,0.1876478826126246,-0.04331092632260451,0.044459975028690396,0.044459975028690396,0.044459975028690396,0.22033796157541108,-0.20995118961049336,-0.20995118961049336,-0.20995118961049336,0.061557868522605655,0.01786559152990573,0.01786559152990573,0.01786559152990573,0.15149133384186736,0.12858989113580077,0.23226240438066392,-0.06347809987606984,0.12485867908816992,-0.1263857151730328,0.0198901138310182,-0.1263857151730328,-0.025568569681689517,-0.2069220346716532,0.2415056067245747,-0.025568569681689517,0.22304208043382212,0.14313106551177862,0.18096351753294132,-0.23966631305835617,0.012320207320066237,0.012320207320066237,0.012320207320066237,0.012320207320066237,-0.03514675342050258,-0.22138614029173237,0.28591335764681075,-0.07932595709133837,-0.017016582063208763,-0.017016582063208763,0.16020733970757783,-0.017016582063208763,0.1695045723154324,-0.005814297439300384,-0.005814297439300384,0.22353876207789192,-0.009068693732217581,0.00889485154981387,0.20046185863757954,0.00889485154981387,-0.03537603464857891,-0.03537603464857891,-0.03537603464857891,-0.03537603464857891,0.039370338730730786,0.039370338730730786,0.039370338730730786,0.15603782023504126,0.30155769668328924,-0.07716991365459318,-0.07716991365459318,0.24230119456909655,0.0762508163900682,-0.03951039889849822,-0.03431875421759456,-0.09973915567830398,-0.020251064794477674,-0.1843374952929194,-0.020251064794477674,-0.020251064794477674,-0.0604043871783967,-0.0604043871783967,0.11070218726408956,-0.26337405365173316,0.04255059602278424,0.03909634069559102,0.5337271081095235,0.03909634069559102,0.14704138757896373,0.14704138757896373,0.14704138757896373,0.20828615217847704,-0.1475976963012784,0.02610155346910786,-0.020591650647313782,-0.12648265184026986,0.08992861251082945,-0.03887322962529415,0.11944658845752915,0.0734624742766036,0.17147114483949447,-0.19201434020725114,-0.19201434020725114,-0.1897166126187581,100.0,100.0,100.0,100.0,0.08011688080386731,-0.010090447144436446,0.14566935916535628,-0.20574863560582057,0.13627038673254843,-0.08756411238049891,0.1543258067627488,-0.1709285043101094,0.10339467992301807,0.00371055709273084,0.34984229714470044,0.00371055709273084,100.0,100.0,100.0,100.0,0.12827745254427658,-0.05189261614557634,0.14843744644357793,-0.05189261614557634,0.09632968959503928,-0.09594125358461884,0.003435794253230942,-0.21402385122244122,0.2191107344664195,0.022030858220942515,0.3696072276776695,0.022030858220942515,0.12654406199421708,-0.19747349551646065,0.16638050636724946,-0.14012092512917948,0.09865503236364431,-0.13961717329749337,0.04386958797026992,-0.24849599318467483,0.052096300614582695,-0.0019685616786667207,0.3082235914734408,-0.0019685616786667207,-0.04748605044867066,0.06118055097534966,0.2222527932730653,-0.22104639027910916
0.06033676475824505,-0.06253677093698223,0.03177684795332794,-0.22709476288612393,0.06879624793179544,0.06879624793179544,0.06879624793179544,-0.30168510589875175,0.06003019626666724,0.0896863444907261,0.3226684968836669,-0.03649833857556806,0.16800276437886216,0.1895981488591351,0.29643352200382317,0.1895981488591351,100.0,100.0,100.0,100.0,-0.01021667889108789,-0.01021667889108789,-0.01021667889108789,-0.01021667889108789,100.0,100.0,100.0,100.0,0.05480383124067774,-0.03504894123788274,0.24328952097432996,-0.03504894123788274,0.1145325636487586,0.1145325636487586,0.1145325636487586,0.1145325636487586,0.11292321373913584,-0.1370501022957677,-0.1370501022957677,-0.29893723492794866,0.15325211105134048,0.0011873372053741726,0.22392695233111615,-0.09263357633808966,-0.18908653102314352,-0.18908653102314352,0.4138248971554489,-0.18908653102314352,0.09827817697432369,0.07159083392532666,-0.03114001162343758,-0.059826674980965534,0.10661426464542859,-0.11402372642546521,0.4439091324640118,0.14293985689645147,0.19093283789163765,-0.022105077009421367,-0.022105077009421367,-0.24738353728133577,0.110681718420271,0.20475394469011088,0.02956873901352841,0.20475394469011088,0.15982596008179673,-0.02001213898795251,0.2849034364743658,0.06618215010197837,0.3272100159702761,0.1608818715523802,0.14625218869514267,0.1608818715523802,0.1078474629943267,-0.09466618723159945,-0.004402683011898292,-0.09163602556156986,100.0,100.0,100.0,100.0,100.0,100.0,100.0,100.0,0.16989781830689182,-0.38397100555506636,0.16989781830689182,-0.10055522129218591,0.05394268031729216,-0.1387441393941457,0.2564187772508275,-0.1387441393941457,0.22047005873309433,-0.11363380346640559,-0.11363380346640559,-0.11363380346640559,0.2322208041612454,0.13832838747669574,0.13832838747669574,-0.09579524855637113,-0.2032597238934059,-0.2032597238934059,0.07755441157782106,-0.27650722581867915,100.0,100.0,100.0,100.0,0.10795808717750688,0.10795808717750688,0.34678720100195504,0.10795808717750688,100.0,100.0,100.0,100.0,0.05749364879493055,0.06140554637561419,0.10517617399833361,-0.14211803070353246,0.06969356925600313,0.06969356925600313,0.38829708133275476,0.06969356925600313,-0.05185328123137117,0.07398957761915775,0.07398957761915775,0.07398957761915775,100.0,100.0,100.0,100.0,100.0,100.0,100.0,100.0,0.11380687611525481,0.11380687611525481,0.11380687611525481,0.22653521079134614,0.12616020293890054,0.2034712335834366,0.049904981022924344,0.2034712335834366,0.08816699829191513,0.08816699829191513,0.10878482269317918,-0.06396286440314419,0.2361719739651007,-0.009050762462152698,0.5317725675975584,-0.009050762462152698,0.03621730278960478,-0.17014910464543861,0.05559722021274676,0.05559722021274676,0.0992854615494205,0.0992854615494205,0.0992854615494205,0.0992854615494205
100.0,100.0,100.0,100.0,0.13908091008806336,-0.06006258068012173,0.04234830602134419,-0.11290589361769465,0.10384071627013253,-0.10437978179845141,0.10472142836725602,0.24031758469818754,100.0,100.0,100.0,100.0,-0.0640611800959717,-0.0640611800959717,-0.0640611800959717,-0.0640611800959717,0.17996540265860766,-0.20676850149485654,-0.20676850149485654,0.012475392609012158,0.07073025727157885,0.20327232423373395,0.20327232423373395,0.20327232423373395,0.02509242690207146,0.02509242690207146,0.02509242690207146,0.1620861304684845,100.0,100.0,100.0,100.0,0.13766704551265613,-0.03630500763681992,0.08860772388833828,-0.059719547389804846,-0.10403436720457834,-0.2725682210743444,-0.10403436720457834,-0.10403436720457834,100.0,100.0,100.0,100.0,0.0038713549005254984,-0.18995442210989325,0.24975783070993587,-0.16772388234542657,-0.005085101291625982,0.023260005005729837,0.05473759730835702,-0.10735065719669128,0.13851781090718324,0.13851781090718324,0.13851781090718324,0.15258366284505295,0.15567827080173507,0.009473291543798903,0.2207804974689763,0.26636363010880676,100.0,100.0,100.0,100.0,0.2410336148413144,-0.01848688067082592,0.2410336148413144,0.21447565728409365,0.045515010511606016,-0.12552228579046093,0.3384103284492753,-0.05540616203111173,0.02945018059171597,0.02945018059171597,0.31901293963990424,-0.1645740744673456,100.0,100.0,100.0,100.0,0.07756112540878156,-0.2388766310326648,0.11432591119513708,0.07328137360940436,100.0,100.0,100.0,100.0,0.09788713174296342,-0.14821602842965687,-0.14821602842965687,-0.14821602842965687,-0.03303633909942819,-0.03303633909942819,-0.03303633909942819,-0.07867519066105833,0.004302528639531247,0.004302528639531247,0.004302528639531247,0.004302528639531247,0.16005476831450702,0.16005476831450702,0.22319928724924556,0.16005476831450702,-0.045072958645149604,-0.0972723965930411,0.07187204027292118,0.07187204027292118,0.1770602073051264,-0.16220347009371702,0.24096501028240813,0.0815757525423839,100.0,100.0,100.0,100.0,-0.004240037230030927,-0.18186441773701761,0.22844351522498701,-0.18186441773701761,100.0,100.0,100.0,100.0,-0.013088937292359989,-0.013088937292359989,-0.013088937292359989,-0.013088937292359989,0.15901291605077458,-0.07617168905356814,-0.07617168905356814,-0.31503715394420095,0.05456201338972433,-0.13278461145199696,-0.13278461145199696,-0.13278461145199696,0.028179770076325352,-0.18207687122238167,0.4405192421756371,-0.002509725942224636,0.007747894636623634,0.007747894636623634,0.007747894636623634,0.007747894636623634,0.13252589441782392,-0.015246087113060677,-0.015246087113060677,-0.28577718640568617,0.0926772569371114,-0.04777754831666683,0.1959161093809404,-0.1850175596229638,0.17995908182441767,0.0016296018885194885,0.0016296018885194885,0.0016296018885194885
0.07646835967371668,0.07646835967371668,0.44925135449713893,0.07646835967371668,0.03893004744308638,0.13147890198380358,0.22695081707218606,-0.1490707474424846,0.04830523166825329,0.04830523166825329,0.04830523166825329,-0.19210288572091788,0.08245678798065835,0.23478313623260735,0.11249208791869725,-0.0933508871152852,0.008633761864712059,0.08818133830615962,0.007140951460780601,-0.13021126185216197,0.12261729357759005,0.1028212098134125,0.3993956388562473,0.1028212098134125,-0.05138796501381651,-0.05138796501381651,-0.030289285187799143,-0.09633535598506923,0.10230360227535257,-0.007719874046761855,0.13545112467779374,-0.05739906816222714,0.014582011190159325,0.014582011190159325,0.32659328208406757,-0.031103735373939678,0.1367180675519837,-0.0318496381449523,0.15701851452962584,0.14983145804310946,0.10999849810887169,-0.14634056753121136,-0.012767446269125071,-0.24671385899816559,100.0,100.0,100.0,100.0,0.06369244246940631,0.06630468007650092,0.10511989072656786,0.06369244246940631,0.04824168367016632,-0.002585966243234719,0.046234983093710144,-0.20308424013563076,0.1485163643248465,0.050439669661273265,0.050439669661273265,-0.23489423729864262,100.0,100.0,100.0,100.0,0.2283782645447912,-0.15576846866065985,0.21466218089127917,-0.15576846866065985,0.06552754542841571,0.06552754542841571,0.13182329890222932,0.06552754542841571,-0.08927225471851362,-0.08927225471851362,-0.08927225471851362,-0.1540422643512847,100.0,100.0,100.0,100.0,0.165868161664929,-0.0918671659012125,-0.062284196696205815,-0.17224900366222734,0.13319872452790985,-0.05989153493223395,0.20072525300336858,0.2304951412331535,100.0,100.0,100.0,100.0,0.0410588987005922,0.2044044091172734,0.2044044091172734,-0.08463502734124609,0.03503109845739255,-0.09994422590633509,0.31356518248012694,0.22269064092412716,0.01413055674318487,-0.009503848254211328,0.13548317410837069,-0.1980247500408265,-0.022772562775196944,-0.022772562775196944,0.06315115648420326,-0.022772562775196944,100.0,100.0,100.0,100.0,100.0,100.0,100.0,100.0,0.1304487419464742,0.012885938521768893,-0.09781500124706966,-0.0874652769863685,-0.00991101489710599,-0.0846913907426115,0.07023140980493071,-0.23106772524277833,100.0,100.0,100.0,100.0,0.15845690540019197,0.15845690540019197,0.37544448407453335,0.15845690540019197,-0.021122560426561354,-0.021122560426561354,0.005707675901308787,-0.021122560426561354,0.23464655432790943,0.15000350326679174,0.1630512028247348,-0.049555372609815226,0.19242541669326274,0.15457679389131798,0.15457679389131798,-0.10475117698017994,0.17411497724440372,0.17411497724440372,0.17411497724440372,0.04926771469043395,0.13236577199167068,0.13236577199167068,0.13236577199167068,0.026598254220965636,-0.030637320664258047,-0.030637320664258047,0.2609153795182888,-0.030637320664258047,-0.001784483835326086,-0.050390421373212584,0.44308348381739293,-0.1506590220356656
0.026183741280212405,-0.15908464059528973,0.008103018797987735,-0.15908464059528973,0.07994625318447007,0.12135319474170463,0.12135319474170463,-0.18951462313155026,0.10144603693800058,0.1314470383048731,0.09228270190798225,-0.17164473636528174,-0.028257758072141384,-0.028257758072141384,0.20411454331606507,-0.24047792121447842,0.07601959313522677,0.004692502775831598,0.06429903693684355,-0.009147447448953447,-0.07173164092346368,-0.13152027774788133,0.32226722388403484,-0.13152027774788133,0.08320301741870909,-0.02546890893832205,0.39957988510211323,0.016307216591984364,100.0,100.0,100.0,100.0,-0.09691009073792034,-0.09691009073792034,0.47782304944155923,-0.09691009073792034,0.025915422591131096,0.078485088716335,0.16261922700103276,0.16261922700103276,0.10480674167383269,-0.050572730385259106,0.47234555191051136,-0.050572730385259106,-0.09038032936728979,0.049488665563420416,0.072665396459249,-0.15349885578520853,0.14122901342842484,0.14122901342842484,0.14122901342842484,0.14122901342842484,0.014833828136454862,0.05513016554733801,0.05513016554733801,0.037561374916474266,100.0,100.0,100.0,100.0,-0.054712974766701644,0.11314328987194738,0.11314328987194738,-0.15015168174172053,0.014973344195601965,0.028806663867903787,0.09148234594832817,0.028806663867903787,-0.0443451549355504,0.09660350695267386,0.09660350695267386,0.09660350695267386,0.1405502056783972,0.0162131786217974,0.016028203434784116,-0.11364418050405053,0.10435760352709435,-0.1431846574681055,-0.1431846574681055,-0.1431846574681055,0.27627988056752806,-0.11673568085027566,-0.11673568085027566,-0.11673568085027566,0.09280121483574182,-0.0895908949563545,0.05413828738586076,-0.0895908949563545,-0.11214693592252219,-0.11214693592252219,-0.029600558093609772,0.012869407745323441,100.0,100.0,100.0,100.0,0.15849568491840071,0.15849568491840071,0.15849568491840071,0.34663440724333094,0.05311302411178509,0.14967366970780743,0.15017096664233856,-0.20937909838862248,0.19963645929896642,0.05404066354336917,0.05404066354336917,-0.16986294057281534,100.0,100.0,100.0,100.0,0.09573890748186742,0.020575387678133196,0.4640075934129805,0.1345080216232859,100.0,100.0,100.0,100.0,0.07994471578311087,0.07994471578311087,0.31753651233456787,0.07994471578311087,0.0013177160801042392,-0.11454365232074575,0.0013177160801042392,0.02785157752266078,0.15308930043809155,-0.1604200890191262,0.15308930043809155,-0.1400146325015485,0.230443696760544,-0.023836994545074278,-0.023836994545074278,-0.023836994545074278,-0.005737581011615318,0.08440964284064537,-0.006562211350033709,-0.17154046506587378,100.0,100.0,100.0,100.0,0.1665878223082073,0.09176585933820891,0.09176585933820891,0.09176585933820891,0.050184837158782594,-0.1357460266818475,0.0810225063085205,0.0810225063085205,0.11546753967118381,-0.03208827543541469,-0.015850844412091086,-0.015850844412091086,0.07872597886324414,-0.16549817002010103,0.13069128676528874,0.13069128676528874
0.12010984233903522,-0.10499980783053961,0.17896246352396217,0.014956835829688552,0.0704524506472625,-0.1495472677549941,0.13947129062365,0.13947129062365,0.17265595264374164,-0.15393788472767836,-0.15393788472767836,-0.15393788472767836,0.08286891706833711,0.03198678328397027,0.34732381382896316,-0.14639408402366,-0.11021547977956216,-0.11021547977956216,0.29103343324453124,-0.11021547977956216,0.04071834471835301,0.06964409122644022,0.47103843254994676,0.06964409122644022,100.0,100.0,100.0,100.0,0.0944288727867914,-0.030177272745746834,0.06313189220581752,0.11911486921612897,-0.09054581853078722,-0.09054581853078722,0.05351744052627601,-0.09054581853078722,-0.13338209782390875,-0.13338209782390875,0.37088551591348873,-0.13338209782390875,100.0,100.0,100.0,100.0,0.041237535319657556,-0.06178603636274067,0.3464301244854313,0.130287751252526,0.20838782790184268,0.13732603543867006,0.2555064811578513,-0.2209488767710997,-0.19101069939565063,-0.19101069939565063,-0.19101069939565063,-0.27645264371547384,0.13753125913403288,-0.06153693785890156,0.305847400703662,-0.06153693785890156,-0.10078024322462456,-0.1028208014648897,-0.04019249570077852,-0.10078024322462456,0.11460022373515585,-0.17072530947582637,0.21067681619352802,0.17464814724488836,0.1329170185177614,-0.03558814735101315,-0.03558814735101315,-0.03558814735101315,100.0,100.0,100.0,100.0,0.11798376902334808,0.11798376902334808,0.31544332818869847,0.09601471357877975,-0.09390793015953307,-0.09390793015953307,-0.09390793015953307,-0.09390793015953307,0.033917047882774415,0.16588978829913154,0.16588978829913154,0.16588978829913154,0.0768216536817954,-0.10244543386822466,0.13676176123222744,0.13676176123222744,100.0,100.0,100.0,100.0,0.11222738841391575,0.03937872708215303,0.2939253991629647,-0.04107460990217522,0.13426167480866102,0.14671198276534575,0.14671198276534575,-0.029019691913466802,100.0,100.0,100.0,100.0,0.1992055715373649,-0.11226508178389302,0.1992055715373649,0.020976537888178968,-0.04189789273585446,-0.04189789273585446,-0.028242099451844666,-0.04099020747908376,0.10616184648845486,-0.05942586203641283,0.33255248659162095,0.21766531110915543,0.09025370545881167,0.007766675251852401,0.09025370545881167,0.09025370545881167,-0.0147166896509201,-0.0147166896509201,0.15820781701043873,-0.0147166896509201,0.07787750944835206,-0.039730280727683746,-0.0479864141998084,-0.11082215567676135,0.17523008310687646,0.1108027766747526,0.40116089622733303,0.1108027766747526,100.0,100.0,100.0,100.0,0.026413079016157404,-0.06637474971504145,-0.06637474971504145,-0.06637474971504145,0.16083067555828878,0.02463940210278935,0.30530249553370975,0.02463940210278935,0.1168246592803748,-0.028558236251120264,0.07198172064451583,0.07198172064451583,0.1168357370744627,0.1168357370744627,0.3167228374444454,-0.05550475405606224,100.0,100.0,100.0,100.0
0.19955195674114407,-0.2495718643650675,0.19955195674114407,0.19955195674114407,0.2285281260701682,-0.1285078320390362,0.4403945781186066,-0.1285078320390362,100.0,100.0,100.0,100.0,0.13359329027973446,-0.18283327493131793,-0.18283327493131793,-0.18283327493131793,0.07047076594759503,0.03551828428034648,0.29489930874226294,-0.1516786249598347,-0.041619714772864316,-0.20147880625419515,0.003553934520139579,-0.041619714772864316,0.15439252260278297,-0.1958404817222761,-0.1958404817222761,-0.1958404817222761,0.10567003085435123,-0.09384887240638831,0.116852877981246,0.116852877981246,100.0,100.0,100.0,100.0,0.029065884384005893,0.02450236100117703,0.02450236100117703,0.02450236100117703,0.006843316777956986,-0.19078927962526054,0.006843316777956986,0.006843316777956986,0.08871323124754986,-0.2648975450410927,0.047636231924870945,0.047636231924870945,0.2622148630296827,-0.16598267137686568,0.20241113705587477,-0.16598267137686568,100.0,100.0,100.0,100.0,0.0043221599318203525,-0.07544702800227787,0.1937366960309391,0.06484192179651005,0.1436969816766474,0.19413910119483307,0.19413910119483307,0.19413910119483307,0.015148614617768556,-0.2216080494424549,0.5487112891179875,-0.2216080494424549,0.04507411986428249,0.04828743716940783,0.04828743716940783,0.04828743716940783,0.15443545319386492,0.13898689084970584,0.2622704055866403,0.15443545319386492,-0.03616737538939586,-0.11472191895925048,-0.11472191895925048,-0.07882907863089662,0.06244149824179113,-0.12928657343726666,0.019614485641131385,0.19492882186400123,0.08971039681832031,-0.1475615745981926,0.08297583220011298,0.08297583220011298,0.1742287889595724,0.019772217822877206,0.19220109159153453,0.09125252376278475,-0.049898238976758866,-0.1029425239770573,-0.1029425239770573,-0.1029425239770573,0.043600714613562026,0.011212926743254012,0.011212926743254012,0.011212926743254012,0.13094708362894705,-0.15092365055202406,0.13094708362894705,-0.028773309892972027,0.2489722063543026,-0.13697462134440774,-0.13697462134440774,-0.22740214244221585,0.09491588602870693,-0.046059148110044246,-0.007385825634551604,-0.11609685869193401,0.07665584651668568,-0.07642344033274023,-0.07642344033274023,-0.07642344033274023,-0.005714178841701863,-0.12399372728302326,-0.12399372728302326,-0.1313797026410649,0.16108319072040608,-0.024579620242391145,-0.024579620242391145,-0.024579620242391145,-0.13536774672162613,-0.13536774672162613,0.23329427024280644,-0.13536774672162613,0.20097644118149408,-0.19398181428796252,-0.19398181428796252,-0.19398181428796252,-0.022120760569653307,0.22262468827643353,0.19069713266102647,0.22262468827643353,-0.04893522623862043,-0.04893522623862043,-0.04893522623862043,-0.04893522623862043,0.2401199982741435,0.015938779926648022,0.015938779926648022,0.015938779926648022,100.0,100.0,100.0,100.0,-0.010287464050437373,-0.03930888996992346,0.28953190219762576,0.15175182166583262,0.07175064918604274,0.03601843544011934,-0.058297907763751544,0.059277838309030155,0.14305867184243842,-0.3376149186127351,0.20048887629577655,-0.1589242741898543
0.22808729248881104,-0.02529362611351905,-0.02529362611351905,-0.19309332523994774,-0.14314763849250006,-0.14314763849250006,-0.14314763849250006,-0.21183426404778713,0.005080141625406893,0.014901253969054992,0.014901253969054992,-0.21833031031407343,0.012695327899885677,-0.07314534925177354,0.33784532618259117,0.04541732600943957,0.1350321870194777,0.06631160872694492,0.06631160872694492,0.06631160872694492,0.11484423107228978,-0.002567560679182318,-0.002567560679182318,-0.002567560679182318,0.25972162808637583,0.05382979177541998,0.05382979177541998,-0.09971576176280231,-0.0676706450514229,-0.0676706450514229,0.01801442359764069,-0.0676706450514229,100.0,100.0,100.0,100.0,-0.017042022401699747,-0.001713821315366286,0.2930493450968536,-0.001713821315366286,100.0,100.0,100.0,100.0,-0.014844769083125597,-0.014844769083125597,-0.014844769083125597,-0.014844769083125597,0.20527432778775173,0.019929672130156437,0.1754182847066029,0.019929672130156437,0.0815900508852278,0.24636145507292295,0.2819184113287847,0.24636145507292295,0.2135444546978299,0.19082174361100307,0.25492695703030593,0.19082174361100307,100.0,100.0,100.0,100.0,0.08290628346490349,-0.017051339353222617,0.3312367057327319,0.11502485863003832,0.14722859109204908,-0.04091342683830206,-0.04091342683830206,-0.24040270300177216,0.012083966652352939,0.005833162218241893,0.3428889572009855,-0.18850125586200414,0.17423058584898693,0.03329591209766741,0.12621086742392454,0.03329591209766741,0.06932448718607043,-0.0129480301043867,0.42448164834763696,-0.06770027650914753,-0.014088944948800154,-0.04278060798460618,0.22507899185325414,0.04293420783781718,0.10504002851282605,-0.046519287021110536,0.27900599920968333,-0.09340984656516388,-0.011980492120555433,-0.0005699773545937981,0.1757248189285652,-0.0385648969461493,0.10309945371798737,0.10309945371798737,0.2011368643791195,0.10309945371798737,0.07828769726251587,0.07828769726251587,0.4959349486932279,0.07828769726251587,0.030248268760462656,-0.1837896412539483,0.31826109077830556,-0.1837896412539483,-0.12796068763403817,0.01800814478348275,0.01000025710619986,-0.12796068763403817,0.055170745748790564,-0.24689777854890302,0.032832034732726195,0.032832034732726195,100.0,100.0,100.0,100.0,0.08324193946943911,-0.03668096271775835,-0.03668096271775835,-0.03668096271775835,0.10407388328625125,-0.11145629852171474,0.45056680540237404,-0.11145629852171474,0.14929919219827148,0.22861738981887672,0.22230598454876613,0.22861738981887672,100.0,100.0,100.0,100.0,0.11217104985447592,0.14737437599973988,0.14737437599973988,0.14737437599973988,0.028153378468913887,0.028153378468913887,0.028153378468913887,0.028153378468913887,0.14214330168626368,0.08485470461287312,0.21125134316462502,0.08485470461287312,0.1116698545118571,0.2119261101483921,0.2119261101483921,0.2119261101483921,0.16385276359838355,-0.0858586173079263,-0.07730989204978975,-0.0858586173079263,100.0,100.0,100.0,100.0
