ChristianCella/workcell_optimization/results/data/screwing/turbo_ikflow/complete_beta_trend_wide.csv
piece1_joint1,piece1_joint2,piece1_joint3,piece1_joint4,piece2_joint1,piece2_joint2,piece2_joint3,piece2_joint4,piece3_joint1,piece3_joint2,piece3_joint3,piece3_joint4,piece4_joint1,piece4_joint2,piece4_joint3,piece4_joint4,piece5_joint1,piece5_joint2,piece5_joint3,piece5_joint4,piece6_joint1,piece6_joint2,piece6_joint3,piece6_joint4,piece7_joint1,piece7_joint2,piece7_joint3,piece7_joint4,piece8_joint1,piece8_joint2,piece8_joint3,piece8_joint4,piece9_joint1,piece9_joint2,piece9_joint3,piece9_joint4,piece10_joint1,piece10_joint2,piece10_joint3,piece10_joint4,piece11_joint1,piece11_joint2,piece11_joint3,piece11_joint4,piece12_joint1,piece12_joint2,piece12_joint3,piece12_joint4,piece13_joint1,piece13_joint2,piece13_joint3,piece13_joint4,piece14_joint1,piece14_joint2,piece14_joint3,piece14_joint4,piece15_joint1,piece15_joint2,piece15_joint3,piece15_joint4,piece16_joint1,piece16_joint2,piece16_joint3,piece16_joint4,piece17_joint1,piece17_joint2,piece17_joint3,piece17_joint4,piece18_joint1,piece18_joint2,piece18_joint3,piece18_joint4,piece19_joint1,piece19_joint2,piece19_joint3,piece19_joint4,piece20_joint1,piece20_joint2,piece20_joint3,piece20_joint4,piece21_joint1,piece21_joint2,piece21_joint3,piece21_joint4,piece22_joint1,piece22_joint2,piece22_joint3,piece22_joint4,piece23_joint1,piece23_joint2,piece23_joint3,piece23_joint4,piece24_joint1,piece24_joint2,piece24_joint3,piece24_joint4,piece25_joint1,piece25_joint2,piece25_joint3,piece25_joint4,piece26_joint1,piece26_joint2,piece26_joint3,piece26_joint4,piece27_joint1,piece27_joint2,piece27_joint3,piece27_joint4,piece28_joint1,piece28_joint2,piece28_joint3,piece28_joint4,piece29_joint1,piece29_joint2,piece29_joint3,piece29_joint4,piece30_joint1,piece30_joint2,piece30_joint3,piece30_joint4,piece31_joint1,piece31_joint2,piece31_joint3,piece31_joint4,piece32_joint1,piece32_joint2,piece32_joint3,piece32_joint4,piece33_joint1,piece33_joint2,piece33_joint3,piece33_joint4,piece34_joint1,piece34_joint2,piece34_joint3,piece34_joint4,piece35_joint1,piece35_joint2,piece35_joint3,piece35_joint4,piece36_joint1,piece36_joint2,piece36_joint3,piece36_joint4,piece37_joint1,piece37_joint2,piece37_joint3,piece37_joint4,piece38_joint1,piece38_joint2,piece38_joint3,piece38_joint4,piece39_joint1,piece39_joint2,piece39_joint3,piece39_joint4,piece40_joint1,piece40_joint2,piece40_joint3,piece40_joint4
100.0,100.0,100.0,100.0,0.053176441964131835,0.029893402257554224,-0.037436753685356164,0.19865050509450383,100.0,100.0,100.0,100.0,0.2086169746635544,0.3914819916746063,0.3754260887580785,-0.1434201271087957,0.14057909474213748,-0.22490297441029666,0.1733339374726439,-0.2272590649904774,0.042512849840913775,-0.10979727662699745,-0.043877460974245365,0.06754179921283843,0.1144559484733596,0.0634025362234856,0.006884073978112321,0.20322835555072064,100.0,100.0,100.0,100.0,0.011374137478350444,-0.025043438514249113,0.06446208769007968,0.1477705593019882,0.10892416531927246,-0.31829491534089477,0.11746900647044557,-0.4642419750792511,0.07199168862583433,0.07199168862583433,0.07199168862583433,-0.15815021131967946,0.0036404544359127863,-0.2075904076816762,0.14646147931562978,-0.022819170872634797,100.0,100.0,100.0,100.0,100.0,100.0,100.0,100.0,-0.07715060395294035,0.018012102986829218,0.031360886233987154,0.22383845635816424,0.06699300773361083,0.08656497487794015,0.06011978723732457,0.06699300773361083,0.07880854743538877,0.4461814706864138,0.4594941131142004,0.02766023487553746,0.13529425369480882,0.13810514473243565,0.13125931883550512,-0.11486718356255951,0.10199366822395635,0.29675644791676636,-0.001556128008576546,0.3361450197599866,0.14368710614399008,-0.08966307735465208,-0.02716605568093014,0.061018264007259876,0.24097321968055904,0.2156243430151461,0.20503104739214456,0.22629657416166038,0.11439906420918741,0.1799092082141383,-0.057939814099619145,0.05417931736004415,0.010310011109057066,0.46899085613739616,0.47355702422465085,-0.13945361602240347,0.13593300837478142,0.07874616746577956,0.19321501211612957,-0.2066087482151731,0.07183523235191376,-0.026270068869224387,-0.09601896944937266,0.0064957949883446,0.035967079319038295,-0.03612940161357701,0.28384779907327634,-0.0973343485996857,0.10875545799370265,0.060102358959008964,0.10588651273125536,0.25578117889139246,0.13396786670564925,-0.2265856518249615,0.22489771369952355,-0.213138759446591,0.018516137529815346,0.33897766105101446,0.15467841316839842,-0.10936118835558578,100.0,100.0,100.0,100.0,0.059951762211327156,0.03819863851349364,-0.14387424216079775,0.2081483986442414,-0.019525167703128277,-0.004665310993025043,-0.15095866827619453,-0.197356170796884,0.042260334360057814,0.2740566157697288,-0.08688010252175157,-0.004087276467150139,0.13613014263197015,-0.01479239746863182,0.1927527904813743,-0.06931301089522529,100.0,100.0,100.0,100.0,0.009910690107563753,-0.02955179392792647,0.034654717203816535,0.21293839835741224,0.122648016303769,0.4214386370646568,0.17247790598314783,-0.12898435849742917,0.274078859161418,0.007268257551089827,0.007268257551089827,0.16684574764761947,0.11807804861760163,0.10736217864649429,-0.10087234424551514,-0.10087234424551514,0.03574353652710397,0.13791184386331468,0.4230259000576054,0.17966038868454215
0.08854927008568128,-0.03428652421218198,-0.07454190412352868,0.007318516477998874,100.0,100.0,100.0,100.0,0.32324532909041626,-0.31552079958452744,0.16135486458001183,0.16929950476136119,0.037134257207123864,-0.15180579005052341,-0.06566972777482769,0.13201750868491724,100.0,100.0,100.0,100.0,0.26524937263795223,0.013714684832933734,-0.008409643651745952,-0.19208632473128284,0.1042497798338025,-0.04394773554740625,-0.010469004707219592,0.022929161677485228,0.0881098782087979,0.12184966592151224,0.05867777003247391,0.020146691181408348,100.0,100.0,100.0,100.0,0.14627883934064242,-0.18375142948252254,-0.010328630059625171,0.1795914485018288,0.1346560857838728,0.4044855596081591,0.38102015538115697,-0.13178377022004822,0.004202497677155682,0.07749759647602525,0.0428112924152894,0.13973448713570952,100.0,100.0,100.0,100.0,0.22448924848034602,-0.049816509940212625,0.06559364334649287,-0.33941541828179067,0.08218780144970875,-0.3671389039513132,0.22335385041879663,-0.20812592276681016,0.11742338693379203,-0.21238565771498089,0.06840865616493062,-0.1983566872746339,-0.04284168882378111,0.3570447183256995,0.4530084167062049,-0.0936035069863798,0.07722682464584735,0.214731653826586,0.1628025372076037,0.1558376925662291,0.09131464383380038,-0.21812276066288683,0.059849531216643305,-0.10015257792216736,0.13006327257796707,0.04389893094927884,0.09303775637723005,0.006022196039518982,0.12284427918408511,0.06868807877992421,0.2193917264073344,-0.16234090023221528,-0.03156097496937978,-0.40138026878493543,-0.1044138364945014,-0.10117930768976179,0.2507693113080017,0.2143476271475828,0.20137358995702245,-0.07895535680462534,0.18660678818060103,0.10995632435928043,0.09603622357767568,0.00014715601756384866,0.10295046232825715,-0.038728563156114865,0.1345032522297246,-0.3770255130038814,100.0,100.0,100.0,100.0,0.07157298235602666,0.16476780120855747,0.0799460724269992,0.07818291039156283,0.1488040420469618,0.3281746851109612,0.21944984042836196,-0.15820316547429203,0.10355970820863857,0.08322042034219304,0.22943337058204344,0.09222285188786353,0.20618242459531386,-0.006485643669494886,0.0472208700473075,0.13406038994975206,0.13428830625285143,0.006059116439228365,-0.09309874366054789,0.006059116439228365,0.0343792409289583,0.41602773832202883,0.3924168770353204,-0.06346874562991064,0.1846243536991281,-0.22526575456023135,0.20487413498175508,-0.38308461837487656,0.24343650944303352,-0.012644121117714985,-0.012644121117714985,-0.11983381190579914,100.0,100.0,100.0,100.0,0.1335403246032294,-0.10886987309024514,0.05652591986896805,0.02570399794712014,0.05338693223002672,-0.2235679386122038,0.07757205856291302,-0.08044494269336604,0.245837901037058,0.23081308367232037,0.06920137563766487,-0.3759261540539697,100.0,100.0,100.0,100.0,-0.018314341064667873,-0.2558276429142204,-0.01932252152290656,-0.15547680689033905
0.02494313964479128,-0.42581346976662093,0.3628767074693338,0.19564539615115445,0.11661829320380883,-0.3166447067019689,0.17747244400754422,0.0624127838478275,0.1703195586254432,-0.042745571310929084,-0.01648721338809328,0.1754042784320623,0.07927532055835355,-0.1679823566237872,-0.02527136138536845,-0.02527136138536845,0.17076420594883543,0.014120951143301023,0.22201040412082404,-0.2741941602647966,0.08836157487340035,-0.07087426440623923,0.09480908390895779,-0.1878005653046546,0.14781149078093755,0.22900856468051128,0.0834139556827419,-0.11782640303824891,0.1443111888817371,0.42097690179669567,0.532174590425065,-0.1564356845665717,0.19772831754073852,0.12797505015589672,0.41832828251032106,-0.04658473967145152,0.08493861201446593,-0.0019788238477826438,-0.0528772433060532,-0.014750594955995289,0.31731728053396335,0.1451863701728633,0.1451863701728633,0.38533676888423674,100.0,100.0,100.0,100.0,0.06658408930207736,0.20810604536314936,0.38826409424344854,0.008538137735650514,0.19071144359814435,-0.37567204986929564,0.05930003160547817,-0.1655632445564186,0.07208914074123202,-0.06498937618312794,-0.07455194077013262,0.1047924546794841,100.0,100.0,100.0,100.0,0.03344995705741215,-0.059658362438589074,0.16384337352933703,0.03807108748518211,100.0,100.0,100.0,100.0,100.0,100.0,100.0,100.0,0.1731311174599742,0.1720377075361006,0.09076873613745218,-0.20358577456194282,0.12146859083428488,0.008942536835190218,0.08370572607944649,-0.048205982317734264,0.16567876365345996,-0.1682341319542489,-0.12061573356904107,-0.09283871081113489,0.11717009505607474,-0.1867540206387251,0.12854723950104863,-0.3275753477949381,0.22211402547869707,0.06596686835251027,0.19941557426950557,-0.10746493058774531,0.1388110321325204,-0.23400184275502828,-0.021436551900027405,0.02359548664656999,0.10652823146887594,-0.12883300989962307,0.07991474461158209,0.0270570704659916,0.09492088440486882,-0.13758102074340656,0.018376291074821298,0.05947503632995077,0.012540715167483363,-0.4157282919080312,0.06429059206750362,-0.1989513508793262,0.04061334056712709,0.42547678868373506,0.4674668087822508,-0.07189096280884008,0.09346422598859827,0.15049453555900869,0.15036844236121336,0.08199185962495512,0.09275207873500675,0.1826406643446672,0.07067443304465008,0.13566107858565438,0.1499558043282279,-0.2069039723803784,-0.0246080908478759,0.202569276204345,0.07391154988574211,-0.052393123794047286,-0.019854080109600068,0.10933243397657638,0.017455023536472783,-0.11918974917128072,0.11873312747246018,-0.06840735145305658,0.10879836949944427,0.1273163064931525,0.17316242930116105,0.0942891373105649,0.2418076224599808,-0.3922518356180032,0.1994062919165348,-0.28391145453486916,100.0,100.0,100.0,100.0,0.1380174748995671,-0.25708831562957385,0.216692663827041,-0.18180800626700383,0.1449754885796865,-0.0016068092042009208,0.2564277471297496,-0.19819794088335524,0.10290532985073808,-0.05825488045401216,0.1444897131461853,-0.021743682928635186
0.17886998762727296,0.3353859194650195,0.3907565180782182,-0.056663995630717126,100.0,100.0,100.0,100.0,100.0,100.0,100.0,100.0,100.0,100.0,100.0,100.0,0.11277819354436702,0.0834226948927943,-0.05702026838496872,0.127412098519178,0.21818882608967122,0.18094427589500622,0.14678413905411195,0.22980669966512146,0.1186553182389181,0.13871628140445305,0.12078961720966085,-0.04968087210623702,0.05569602745316828,-0.42928352549688065,0.04144816068794328,-0.18889862275133734,0.01686470309978647,-0.23019119530789067,0.14918188832849813,0.27770009149507485,0.12212891934054917,-0.21027217706901719,0.29700622596297976,-0.06948348298188847,0.02322531833368042,0.22990187927890396,0.1866365949295941,0.03340875883951665,0.12551809721639035,-0.19536310178164656,0.0578889274552879,0.11302394235492404,0.18398963754074643,-0.3014315059604744,0.09062470187513884,0.10767396102553184,0.32294634397094896,0.11105835158826433,0.0407297055183817,-0.13546564141326134,0.17926864475536453,0.28318421278175576,0.07686766134812573,-0.09878313934066839,0.08509665727402,0.19758684504409352,0.16543042369130165,-0.2080388007224295,-0.015575165159575674,0.10204561826092977,0.0793239557976448,0.13667331047589648,0.2077650134280125,-0.2984060020958262,-0.04216857367629645,0.27465405872551035,0.11078743484567886,-0.2878910835435494,0.04380176067626043,-0.07234905984620527,100.0,100.0,100.0,100.0,0.058049575613752874,-0.038997976855511374,0.05542162445795249,-0.15745398129957738,0.11721089797053982,-0.24096372775053507,-0.06731662636682643,0.17121413571581723,0.041531123549147134,0.12470298130116118,0.0974354158854295,0.27657138627311345,0.03812453687598146,0.4367415173733465,0.4232322118089273,-0.07561352558074391,-0.017321669834172056,0.18619589183950758,0.08158943325898074,-0.0946757367968341,0.10477719544652435,-0.07296476291840029,-0.12083511854520247,0.14451856403274832,0.09598519385530227,0.24282572212924214,0.312328600288027,0.03991486609172901,0.006461991516090261,-0.19851935669423998,0.3778682295893224,-0.11529636016757878,0.09933926544349996,0.21512814473019304,0.3224698658270438,0.0590678708751373,0.14099104283202812,0.080961782109089,-0.10820409556485097,-0.4013104236713198,0.1075620360766547,-0.37061728573123187,0.13963491093094194,-0.3451904100634037,0.08504656267416418,-0.10313901376470955,0.012264705364475104,0.09215101003235868,0.1664372935410301,0.040430242031648043,0.09119346352783317,-0.06620687687919811,0.088213759765918,-0.027994092605059917,0.1735987372604023,-0.38405156334904417,0.038775409932745454,0.2921123256960309,-0.10065323192336004,-0.12875637298834156,0.11271054929021705,-0.11604248229342122,0.08721848593089353,-0.1492942127423016,0.202940215270467,0.0335950374676575,0.3987740160252405,0.0797646033064103,0.03485560956640202,0.032247150244423255,0.09560585709101266,-0.06951071971917064,0.22515870101592295,-0.07201569764202095,0.36008091047870516,-0.3607637032196842,0.09804829766305609,-0.17522111242950084,0.1713561661933714,-0.3155166705340868
0.19151166272177012,-0.03644768794746428,0.08860325602198588,0.011564411403756901,0.14695225159853287,0.387418511362478,0.3295727016321913,0.07681070757114543,0.08501925804892514,0.027099046429901293,0.13406129551737445,0.14181501622412157,0.17230550620388685,0.15961576365465774,0.05158741290064896,0.1567218365694458,0.12112324848337122,-0.2044625351154829,-0.1405895419212314,0.09490401876783273,0.07383628160382837,0.3334610165733174,0.48239902027029635,-0.09061835241470456,0.10367880444373997,-0.4036957418803234,0.21018735025482546,0.04433767453925578,-0.14784165764070578,-0.0644817616417653,-0.14784165764070578,-0.0026692493766974842,0.012356955757463185,0.05584388134452748,0.02295348216311371,0.15084651540311758,0.1905229906658284,0.02841784908375016,0.02333973000424015,-0.11499674628257067,0.04965793044572647,-0.3269281241421803,0.19207966520542158,-0.21034930177091204,-0.013696096288041752,-0.013696096288041752,-0.013696096288041752,-0.04411726954019979,0.3724973293285035,-0.32196980978500017,-0.16750836539139835,-0.23748980204846507,0.05422257494457565,-0.1914102025385312,-0.049507455071967826,0.15309541687316858,0.077126924361579,0.21277826925396004,0.20696359357826893,0.0475846335057166,0.1128685574855038,-0.26916743024399203,0.15283497313953373,-0.34086142719193296,0.04637292347844724,-0.07160891076498004,-0.022398324894518415,0.19484185194542689,0.216052727186971,0.41770969566294097,0.12510366768115624,0.12226973742120034,0.21110829876831758,0.01359486876762582,0.21182328355000718,0.04284217002151608,0.2388707641944859,-0.14786825757763927,0.3985013380657656,-0.06327740494574285,0.018835839598377174,-0.2422808271193466,-0.020310343127932597,0.016314812803700035,0.09737539289137864,0.054760701121094546,0.4660031953308962,-0.01856410227270701,0.09519334513302141,0.365864477267873,0.026927092062656713,0.2780219238629992,0.14688786684230176,0.4230065559309763,-0.08745331041181735,0.17870151132236703,100.0,100.0,100.0,100.0,0.07106421389062209,0.42523630398461704,0.3572082125910148,0.22588123964960619,0.11500599628177953,-0.37314740979128314,0.08320395258533833,0.3093285046433198,0.12537310983935243,0.05342702738259131,0.0029188143713090586,0.03534419549912342,0.11698379095923689,0.24318777503916095,0.09925877466579971,0.2767569200183988,0.08073295850878216,-0.22744838451562044,0.10820108857832883,-0.3342910169795189,0.1046950793479875,-0.32680938577574425,0.061981234422147535,0.09755090073226376,0.023506073269336993,0.17443950517820278,-0.17756922612993556,0.1832310385732368,0.2501118154343949,-0.18115741847063715,-0.016721341712488236,0.06463373023704436,0.21516942746460405,-0.09114486170570503,0.04186808689896406,-0.1157346329831333,0.11485722902338842,0.263166667432983,0.010412381653865634,0.22340467113814977,0.13948900576867912,0.182741066002689,-0.07110287168927021,-0.1468405068801919,0.11499574915483657,0.119370644782536,0.13937600412232398,0.12774595764515878,-0.03935349231260529,0.18513191244477084,-0.10393347644393351,0.1781635129379882,0.2700531429407328,-0.21993155653011326,-0.013180511702626643,0.22784499135088626,0.08713278162286378,0.04996466364328542,0.40510693208964266,0.016962360266135935
0.09883009761276505,-0.13562154433138002,0.06603891492578988,0.14442397101524054,0.03790052974495975,-0.3655665423755329,0.0795382074061605,-0.26557895320843494,0.024046196339816653,-0.4681497275865848,0.11311511178127365,-0.08241080410445212,0.09175548135198164,-0.23258032053796576,0.09512246486480237,0.23052040274725527,0.14307103794788664,-0.02876504382361777,0.11844923891352532,-0.01774020070201566,0.06591348120785667,-0.3077220036717646,0.08760306636512204,0.14918220319431713,0.015610697114231471,0.19274122152105222,-0.13395213067155637,0.14356389852161583,0.17361511400593083,0.14495821424911073,-0.17992318909386434,0.14495821424911073,0.0895028558484534,0.44179626907544745,0.22307907758319345,0.29301771037710317,0.06644666783311622,0.021609434172233787,0.4707430085377977,-0.021204628698051384,0.014171799558048842,0.2867316755073986,0.17642265330719767,-0.16298995289824988,0.2420992715818423,-0.0916691821154237,0.15584381925307425,-0.08794907707528281,0.04368768364544455,0.07946208858133064,0.3806831517057694,0.0663393166732078,0.10657510930756828,0.1696766458304546,0.04568199851406337,0.17206735187178954,0.17160537899842956,0.09461682131927668,0.022462101947332017,0.2201346501544274,0.11329043394555866,0.07536339637059607,0.1537908820831913,-0.4245379802201408,0.13288461360121528,0.043193306627827346,0.0922519734233558,-0.2823827877883284,0.3292908621031078,0.19579634584211864,0.13574354897017132,-0.00043516763194378916,0.16154511103663652,0.13781858269535685,0.29056741103024275,0.07002969675457424,0.03210267809910876,0.34814233160829405,-0.15849269527499557,0.23026354684072142,0.10671047756770963,-0.10375540929698787,0.1447485425941246,-0.08639211729948756,0.15248166240601868,0.31968185822169987,0.13585346277654714,-0.10051382098587666,0.0625320821393345,-0.0009097780138403039,-0.1325447326565755,0.212744960760418,0.23943269489109686,-0.3229187476615043,-0.16303667267895947,0.17364253005465818,0.15172357073442988,-0.1465853954468046,-0.008392133286491077,-0.1457109653881971,0.2081820714790005,-0.25031848733586665,0.023274619916199696,0.13799281569630706,0.04462373514678611,-0.4497842527322041,0.1874538467223359,0.1042885013866858,100.0,100.0,100.0,100.0,-0.010771489077381874,-0.21981042146437424,0.0443165486282375,0.08192838974039691,0.18349431007668282,-0.3352759251986344,0.2513766624358548,-0.20607343649713855,-0.007304891548977191,-0.3883708247970053,0.20898054768892627,-0.067689890970548,0.09346979650601916,-0.10808880954723674,0.09024348751994246,0.22176450854930319,0.11604691813649523,0.2290695219007854,-0.06215926828593769,0.3238074438687605,0.10100247798934774,-0.4995281099509085,0.10450414868579964,-0.01970104655755919,0.1164799341358627,-0.28012485282886607,0.21915537429951507,0.17483048535733997,0.050754403582805675,0.329151389914536,-0.07975315432401936,0.2276078424948944,-0.02844742906160271,-0.002906044014597514,0.32596880319032207,0.09232774644712033,0.14101094778078774,-0.2429538072436921,-0.012806457569136426,0.1737447744894518,0.04353646225854772,0.050677200063044235,0.12521380066834759,-0.08723219397203648,0.13500178541938157,0.24953178000813114,-0.06369713808732341,0.27750739982152045
0.21208619130057896,-0.24322191611841776,-0.028619931374337285,0.19123453999598708,0.054750145045104906,-0.14292753362303845,0.12031953705328646,-0.08215785969413664,0.03487448812696255,-0.24555197914069457,0.22527370715620343,-0.309231961252625,0.10197065623157886,-0.30995877974341324,0.12335869902701796,-0.10105218097993343,0.16851054972045393,-0.2922208374054752,0.11946740897989885,-0.0009982065774201548,0.10829121023921105,-0.20620565960275944,0.09867458988459683,0.42478250784349175,0.12095937842693497,0.4524820412664886,0.586377126074986,0.3561004940244296,0.20518787340551758,-0.15619255163050172,-0.046749295966129,0.18457114514131687,-0.03881411064465599,-0.09831576176229984,-0.006203710597497011,-0.2226590146015872,0.154102755162191,0.07778191093835406,0.2266898981223443,0.02557901467329745,0.10404769331527117,-0.42358084526821316,0.0013007597061393747,0.30169890332543714,0.19051060783474813,0.28522010182804963,-0.10677883245588732,0.09993257773621864,0.174319445576825,-0.3346792683109762,-0.08400225908985692,-0.33910291507378354,100.0,100.0,100.0,100.0,0.14736084183348017,-0.028429119399361685,0.10127221103993538,-0.16773407980767696,0.08507956604609179,-0.049925861348664426,0.17333633076812513,-0.014444219403928885,0.09161545649998953,-0.273692920304741,0.11070884327400851,0.1629747364216141,0.1456215849622136,-0.11714436545175284,0.05243399715680927,0.05634344355306216,100.0,100.0,100.0,100.0,0.1480799005260417,-0.21808499210392113,0.09760425302655261,-0.09343151086901205,-0.005384861462018636,0.3152668497630512,0.04256097995171684,-0.11409520245164467,0.06711749123887842,-0.05570470756988367,0.11437650126741472,-0.34626280800189035,-0.06790249750731024,-0.3457896416168707,0.04588024300892335,0.14428501749756756,0.11112713289039913,-0.3208047959392042,0.31508736138378934,0.2236266852217836,0.064154074743393,0.2515793692168353,0.17959508130696744,0.07528682560605211,0.08103028614898183,-0.17197824910084833,0.16202585034033537,-0.39815794122960424,0.19147700704988901,0.07967556905090624,0.258670419943294,-0.15778493387808112,0.07202736200344866,0.4957988028660322,0.5273252864496868,-0.09940373341677164,100.0,100.0,100.0,100.0,0.10808842659890742,-0.1920054902320089,0.06207127034826588,0.20942096199240634,0.17628670444222896,-0.21940025664018936,0.04976853382436129,0.18883505819482382,0.07791420991535006,-0.20245718600448312,0.1417670761877085,-0.2603847763739181,0.0424542360021236,-0.2508079544631528,0.18927812510814293,-0.017764714941177595,0.10880237981349257,-0.2510302948519178,0.1487933569408884,0.2282530222455243,0.11916882119016084,-0.0430491273194307,-0.04006445861214434,0.17689470401303023,-0.00986689642079288,-0.26623810351842253,0.04547725365653865,0.052386938521104126,0.14698855207503078,-0.11575448861058604,-0.041063718829908336,0.18418403211014112,100.0,100.0,100.0,100.0,0.10015456209285929,-0.3560384295976276,0.272592357156296,0.07449836848453961,100.0,100.0,100.0,100.0
0.05971992362619276,0.047809462880789674,0.06567510792661875,0.20603873560421224,0.11228696687409312,-0.03481553403908552,0.1831690523092999,-0.3506343621097484,0.0867327086748486,0.013145608089679059,0.2077035015740755,0.05795275779355186,-0.01064255724602814,-0.30920097099859545,0.07778605908684302,0.1538228487224148,0.12401892106884618,0.1873586014849579,0.5019502812931708,0.18962958915840247,0.1358500203670274,-0.32988603368642544,0.16789789824078555,-0.06863921847140045,0.1178008136922081,-0.16779731435871761,0.0943193802364276,0.150469350431515,0.2557690648283107,0.20255251896398652,0.03971419764836719,-0.4090237555778188,-0.003962619515992462,0.10753616029181032,-0.01617789204750776,-0.18855046859734573,0.1259631306367186,0.05839448474716763,0.0926031006783591,0.28843430348876675,0.07266702060731747,-0.3416053165210048,0.10090275574759426,-0.24718946942543588,0.07263484323916318,-0.1629008736076634,0.17508383421879986,-0.33164305284714984,0.11456278102827219,-0.19553113752562284,0.1535447362154535,0.22813429875404828,0.17902899519644763,-0.32511823464636597,0.2068394481041447,-0.22056032946772938,0.09561928989521952,0.03815100448254982,0.20868562113713499,-0.2758396779542076,0.12305440961178107,-0.040386262215074506,-0.025553631530731064,0.21073941508775768,-0.02092836579778914,0.3421838053628682,0.10616866549603503,-0.03232102315774925,0.1486752647046465,-0.06419539422640348,0.24408926581124002,-0.40009199343803764,0.07533243081416696,0.227069230794347,0.08296347541636441,0.08296347541636441,0.12531927289022426,0.09965672732440566,0.13139266704417285,-0.16649042900585903,0.16536047529179104,-0.33659016649209894,-0.09013375468403863,-0.15248182551770656,0.06934086558428744,-0.27904554323631614,0.06699474769981961,-0.033158327854645314,0.09008340978766438,-0.11153110692390075,-0.00777399464731493,0.038473027695231685,0.08123354006800328,-0.19744488762764004,0.21514090396231206,0.21297424934804693,0.06008632481043779,-0.23292213754035695,-0.026484321345231498,0.11104784009443497,0.1648385781785739,-0.18588029526089475,0.03617671668910029,0.26644297973974085,0.028312291484161863,-0.4694383573270395,-0.01246585927093602,-0.057414346765398326,0.0927058202062792,-0.1827936936189028,0.049221988096486764,0.23710748183950991,0.0768170272897494,-0.19882604355518152,0.006714408259810366,-0.03460310216468477,0.07395224066692453,0.31403845871372316,0.06926490176447911,-0.016448916711913862,0.12564990348956828,-0.035256491315280344,0.12418105596259228,-0.20093174081474152,0.00964330641185615,-0.3796534072076762,0.22157375121124515,0.1456500924364201,0.10659146693535591,-0.06016188618383,0.09305227157812818,-0.17641577473358971,0.15739096395251456,0.11502307098979117,0.2394624821201512,0.15306143138634748,-0.01704929733547676,-0.41388274280443854,0.0279538679396538,-0.18676643894046166,0.06314097309986672,-0.16780745713276077,0.10630288500136473,0.17523837519875446,0.10580415886051088,0.12047425549664034,0.12930303268221577,-0.2965923902180806,0.11245889236206724,-0.18210945762193953,0.11718140748270348,-0.22482289726300134,0.10931145534325377,-0.235968457920113,0.12582429761509104,-0.3181388726564862,0.05374440997382054,0.03531522287264467,0.2474085193356386,0.2907038097766016
0.14489796229261548,0.12639107603228708,0.02109199764727597,0.08653511369741265,0.09220562821410513,-0.30410970392885656,0.172915315280454,-0.29165880935542843,0.11591607799127299,-0.256001261434181,0.20421709908849436,-0.3186260899220734,0.07748799431336505,-0.08681300602237901,0.11683870561919563,-0.18495439558120058,0.07030295008832588,-0.4247969337783397,0.16705599784431602,-0.3464383988397996,0.15394642504134085,-0.25017602397025607,0.05695258152024109,0.16815125980238527,0.01830614161897095,-0.48195409479082596,0.11521960746206503,0.16471097292006232,0.18478991591908944,-0.05765903294981457,0.36417280961843046,-0.12502413670822304,0.09836352729906903,-0.4179996578750612,0.0959175107761546,-0.11608991434335122,0.09755988351443545,-0.25776963210142284,0.15034323799729982,-0.2849842228462633,0.12554461686474322,-0.24598684967467002,0.17021710410015284,0.08645783256489946,0.08898408779889216,-0.31365321555157283,0.09795779095526144,-0.1265807656308925,0.10662275211950506,-0.31214111749885,0.054351141684605475,-0.11865526540275373,100.0,100.0,100.0,100.0,0.0807763044853648,-0.2263991573224174,0.09695292090153468,0.013365441293630426,0.15330254430181428,0.1472896730064003,0.15886470146485407,-0.15102320872626696,0.12715313560571936,-0.12650441078606256,-0.030632767639227426,0.11172703664645262,0.03298402572351122,-0.028654473484753265,-0.1208764240010681,0.3500780214238831,0.11436876721404085,0.028337213925916073,0.12858309453573855,-0.34173714433850444,0.10520262044028007,-0.1391177638478811,0.059349971172239724,0.12475154736120464,0.0705871396095012,-0.2331678642768435,0.08953145589277146,-0.3954170633964858,0.10405726475147731,0.29122123713318593,0.043204527901334625,0.26729414470175494,-0.014908862914982836,-0.34003305567455855,0.17014395598732066,-0.28366371702852977,0.11466996458779861,-0.3539016879174605,0.2133867156976483,-0.23474289448363356,0.1608740369860809,0.2979130206830563,0.08454978909624418,0.07996492787063873,0.005960398522640076,-0.01843384595768351,0.1274358914571891,0.1758125675233626,0.13014426213180824,0.014272483760125573,0.14712672975654145,-0.06016334188271915,0.1556955563230616,-0.1373972300070749,0.20295698074157126,-0.2655007000752567,0.11832275073854066,-0.19503381410479056,0.13394023590527793,-0.08406021300134302,0.15410997577284088,0.15664579070911724,0.15652577336984844,-0.06727870550357008,-0.03006061874249781,-0.4291953992069756,0.015609120267441226,-0.21536006266304425,0.0935911920238707,-0.2023038428277634,0.11111396028471546,-0.1798582532045973,0.0782883539981829,-0.18752391779708316,0.09493697317350847,-0.31479842404860403,0.07121075402353705,-0.2944970361049216,0.239245623721681,-0.3731503799972877,0.10889818295853414,-0.2912138673039764,0.13616739911159553,0.08823626635173261,0.03276245270373229,-0.3593130752634567,0.20462690326969463,-0.16527499511859342,0.07494706831002286,-0.24097867191889638,0.10282666711149697,-0.1683889382234519,0.06118558141143373,-0.061970802686045066,0.05604440310094004,-0.17843286253178697,100.0,100.0,100.0,100.0,0.10760848414159527,-0.32121124121667716,0.13888704094824267,0.1959087792541346
0.1234450524032272,0.12085230045677176,0.1622771879808851,-0.1289723359455158,0.06658973128722212,-0.24487193080319508,0.10913671574061551,-0.40789001340147457,0.05252848598341593,-0.17324204675716878,0.1180831390240295,-0.04485152024099659,0.14912696840186543,-0.3040060299317435,0.10922588842883621,-0.28429056430139477,0.14098167847458198,-0.3191426531652811,0.19951733129993576,-0.3260405165351273,0.06616877992601852,-0.2865159228001131,0.13037913642246,-0.4591421238810817,-0.022393555269415943,0.4755286652512425,-0.1452873042678881,-0.06031370055455071,-0.048223520380985326,-0.4330391562041582,0.3324382677975841,-0.23931885778732606,0.10065437437470262,-0.09161519399147151,0.1021403492057746,-0.0552115466110962,0.04484243110863452,-0.3047781417033516,0.16580054518135404,-0.3510597487730222,-0.00835101257507408,-0.3397531796262051,-0.04555864924905854,-0.12745736975474153,0.04590980506330375,-0.19139114277778346,0.15523574454510772,-0.31461009679109353,0.09969888884830475,-0.20239345363080724,0.15571379213596584,-0.18609793821661424,0.0803977123363646,-0.23329706639259518,0.1597231886419796,-0.2365863558032648,-0.0066004962680404,-0.4530394426852589,0.08954518222385273,-0.31839052595400197,0.060344273272833954,-0.2786717905069484,0.09842443351924428,-0.353620393382466,0.13822952791150914,-0.36058496770872156,0.15134527125721775,0.12193698761877698,0.008920923988718896,0.27144398775801737,-0.13653088579840572,0.1267132808033864,0.09384728537459573,0.0986564421779792,0.05167775280180527,-0.18275878467845974,0.19829830730259687,0.039221067874591745,0.46221937367183047,0.093411344168653,0.05473309049138868,0.075424944432184,0.08591192659378677,-0.32616820914577493,0.07113948193041178,0.13709088073791387,0.06849418678072948,-0.20860357081447278,0.16091626793060987,-0.28865335095970074,0.07619871158250037,-0.2016503270959463,0.05233722591442898,0.24578474660082145,0.03759542792967086,0.10723823537224127,100.0,100.0,100.0,100.0,0.04512126372645036,0.04586649130411167,0.15674188795859506,-0.12734394600392,0.10953140197617296,-0.2919767440968324,0.06483525449438543,-0.058794193599805436,0.07535179405157824,-0.024080089085544668,0.16791135954974265,-0.21913987598836868,0.07801297542450239,0.01875370669217804,0.15274766272804535,-0.31973897847420374,0.0878101796225581,0.1794526978308416,0.11043420485556968,-0.18730638177737308,0.08833700520570853,-0.1345973987086374,0.11678568978935217,-0.3518610403339756,0.10794965732644876,0.11700785502821912,0.09956753329722928,-0.35640342909993694,0.07719438665667133,0.09359195266845763,0.20382929739590908,-0.37233314014677954,0.11252121694375095,0.04743576604462241,0.07367674173395444,-0.36323799270719603,0.08302746176034606,-0.006151377322755849,0.05326290281916943,-0.3669083937643465,0.10470874986285321,0.0562007694136877,0.11966916927923298,-0.36053713562543915,0.09841977824582314,-0.29055954271387957,0.09989850176206425,-0.02130974493600464,0.06780827638925094,-0.0421095316393245,0.05686152514370052,0.3027416457068432,0.07116463868386143,0.0372998244587503,0.1654058714852858,-0.22775936436240105,0.07955903971973005,0.1591259961306991,0.21410487445285956,-0.20864466892981695
0.09829732770684034,-0.10037858099335865,0.17758592340970597,-0.3413790783826141,0.07522470434602081,0.030170682061222524,0.1690316523960313,-0.2968680812734751,0.0863485323033094,-0.03406450818664235,0.06978596724099324,-0.23073431074021977,0.09229531883903776,-0.08239571198021034,0.053925672365108854,-0.2859792655857679,0.11746933362283335,0.12078322296054868,0.13035116503101207,0.08498340988300979,0.05831012914275896,-0.016019465421397337,0.06245700677413574,-0.2332131864574873,0.09870448377009192,-0.30104420107694707,0.3391037179030507,-0.16295484810646968,100.0,100.0,100.0,100.0,0.0998877515218329,-0.08953383045449159,0.11055319786439052,-0.35494033946789183,0.11682485588833234,0.054949416234892856,0.1608431612288047,-0.15005783492157806,0.07832522210607253,-0.12098182535761373,0.060196554030449566,-0.17412345762179895,0.10335006277884774,0.046900901322414784,0.03529994330718065,0.029297217623555347,0.08926876355312394,0.01585748304302064,0.1127965059461287,-0.25491188301551876,0.10114092753181086,0.12537039811304565,0.03982595968142075,-0.17624654318582117,0.05850637015050188,-0.3596131966881991,0.0906781538373271,-0.17676160727801038,0.11221837074085905,0.3787073999675856,0.3942611665033003,0.09569185780467669,0.06969833581584331,0.20386829231152193,0.04140362933093705,0.046198101583489574,0.10757641737688337,0.03793597642123524,0.11551281754869375,-0.18620105649753552,0.09557859152080275,-0.19140318870655965,0.0951736390144785,-0.3738311018087515,0.0682834471003268,0.11434447140987092,0.05305160397266726,0.23454757479509247,0.07219009807862159,-0.3808454752748604,0.13715291294634652,-0.20496356424881554,0.13403483961519938,0.20952651014030355,0.12524660972843474,-0.038515498786482416,-0.04920765757817635,-0.30415575187697097,0.021792459373675313,-0.1862328096841317,0.09082220791505123,-0.17401212848072034,0.05308809263907847,-0.18327128868219172,0.09047528285469242,0.12029749423392647,0.05191615034629263,-0.2894823663741206,0.033101342390469204,-0.02889872093357038,0.11444511351918371,-0.18591355038298374,0.016988575319621696,0.15746482979001414,0.4108054760640292,-0.04737298418783907,0.02178839660763726,0.10840158146880334,0.02052393029545961,-0.2150127208171407,0.18611901644122952,0.04088592388096368,0.17026687889092768,-0.2037889255734727,0.19189406836861483,0.05591707503453759,0.16320733429361475,-0.3407979214502459,0.15601882246576,-0.47287464976690874,0.0396235389211918,0.12411000207374404,-0.011642266889728446,-0.3613539244226691,0.051536356929233244,0.06354727427786451,0.056719417662187924,0.03586731182935571,0.15997833750346876,-0.1444779101296268,0.03560492424356623,0.17713718784506666,0.013843782830994251,-0.18183977155650222,0.17850394149598928,0.19885404184790312,0.06369425089648742,-0.07373253890235389,-0.01630031073028553,0.07060564371757688,0.07307592160863031,-0.24317431186841226,0.03674924406647677,-0.309213520499071,0.33703555230959226,-0.12232650480002405,0.19411841474776398,-0.14367433866094909,0.18799058603015775,-0.43206710948138277,0.225374648310483,0.029155051703806306,0.3966367752932683,0.22923776557620254,0.05735388180460939,0.03904877143151526,0.08272673561210556,-0.2307464676701012
0.06984826031027647,-0.24948671767083064,0.06298077698407084,-0.2904946142480941,0.17651280565320998,-0.271515295055342,-0.15065270799449618,0.09714887460751244,0.10298893979116303,-0.3654837093982567,0.27915257648748826,-0.39059268255788016,0.02765688464164638,0.3951460311509634,-0.07705235716669022,0.12651273582526623,0.16451835380702898,-0.42363642683082997,0.05892919608742604,0.24160573130296067,0.18908209735653111,0.1398749622214846,0.2572877309047379,0.08404724253158102,0.1338131330239618,-0.2957877203007016,0.19143423058893871,-0.1846554330175416,0.3136945209724907,0.36995279697579464,0.05642563905545785,-0.07921812961944186,0.05363745077466216,-0.07120384976421074,0.1592365183388189,-0.24515210838740667,0.11752971783721172,-0.4118558859260762,0.20772797990062586,-0.4473946823434998,0.1908357827246389,0.007924561238607339,0.5200254049377012,0.09225361725785661,0.08098938301615163,-0.41841454072218653,0.13881259027381676,0.18577001479334362,0.10461233400580874,0.06787964486155955,0.05428174680576839,-0.11683248658591967,0.10212282374849482,-0.10195011014676118,0.13163412252363732,-0.2503459245304528,0.044296780515621255,-0.003636441016466716,0.07122933544818127,0.13216754753714927,0.0992012810985082,-0.058450677438313586,0.06979638842719695,-0.3209129222754403,0.2476983285144122,-0.05450948678992194,0.005782149386852557,-0.06471144477753306,0.16921434789026066,-0.11969927580147986,0.27186670356738757,-0.34674365568588383,0.020234683369615186,-0.06515338201435741,0.08297256512393823,-0.0419417189968006,0.15354083929738926,0.3524703194184046,0.10132945695306296,-0.014685119430562485,0.0019930524829331123,0.07001796042535327,0.1232038602527715,-0.1364347283810529,0.01993097581436449,-0.3015339610045865,0.05875658521616049,0.05456326293072378,0.04928319925473223,-0.37784721346502265,0.369731563787495,-0.18864293653013822,0.022541895638041053,-0.41156488817896697,-0.05629044213479277,-0.1794489075658594,0.2059919934579022,0.04053667199524358,0.3096080196338382,0.10702973918391372,-0.051093053570852184,-0.42090764814406273,0.07386788150469815,-0.22485781346208225,0.21990565394531367,0.11536935948012776,-0.07666566008845713,0.14164024475976142,0.08347007160315462,-0.1935222011695043,0.0758806271825781,0.10732077600469467,-0.033351881356109454,0.1139322520777796,-0.07500623164250542,-0.1847975834570499,0.09826877328347756,0.006660010647212396,0.07084231162524667,0.03210351224575103,-0.04182135954057538,-0.2868833108532374,0.036747411787884536,0.08053159408877907,-0.032669735995007256,-0.22478926543949185,0.007339099579271133,-0.12065126091671594,0.11967402064562577,0.1344284648060013,-0.028545532295589378,0.18482737591441972,0.0032930310991753156,0.10901924516428102,0.0450843707604643,-0.12966421086211413,0.19453195972627943,-0.27001121727386024,0.2102153988157009,-0.15574559696466558,0.1557983818766963,-0.17542234971715487,0.08331488810039982,0.13273046884245215,0.04975729338755538,-0.1282243836628331,0.4440561542035463,-0.08775214885597114,0.07249587145151126,-0.32158732412072566,0.17288623652804153,-0.25791338558826415,-0.040622154544288226,-0.443387076516836,0.11248129737432244,-0.20228697482517205,0.1582061890419333,0.11647507128614136,0.15089658744609402,-0.05249242009813434
0.15335105973884688,-0.06212442144865991,0.011604445727328064,-0.02324708078728069,0.09590989457434057,-0.48148580091212845,0.1330464744916865,0.05994943800885414,-0.011014220737553856,-0.2728415558303009,0.09529445692084838,-0.12621013721800767,0.1666077000334155,-0.4445518343076153,0.12717706776780446,-0.1320105206392036,0.07513412535097456,-0.2955492255852576,0.3714630877056685,-0.1480155095225539,0.010938906712370938,-0.2483636965634956,0.11175785380040176,0.12225723936640268,0.04109740941072822,0.10215487457735983,0.08629300572925669,-0.006948432673561452,-0.047334580710481494,-0.2671049902271643,0.04094972351424256,-0.21006581737017513,0.08276808321468936,0.0188398237767411,0.14167852759883712,-0.34485960371801055,100.0,100.0,100.0,100.0,0.0468157374248494,-0.30254862916416514,0.10483098684519995,-0.18478926710501709,0.2198343419635695,-0.2765508219465101,0.06959876927301996,-0.16907067097625791,0.04169123708559905,-0.2644590719463746,0.03193125917739782,0.16288966893977402,0.22276947400689995,-0.35310898139233965,0.016731124758506077,-0.23641318864265531,100.0,100.0,100.0,100.0,0.04130977475171148,-0.29308532341126853,0.12435454013654251,-0.050423448117735026,0.2025478181563198,0.0583312731013615,0.1496114907022177,-0.030208618394500706,0.11404675728143185,-0.19603891202909582,0.025434393901386465,0.11706297540395019,0.04777147300765928,-0.06173207248191669,0.12171943966020865,-0.03829075741255354,-0.03568178775684991,-0.41351735076944574,0.3438581004860912,-0.20705372471017114,0.17495579140867867,-0.3876350951343225,0.2316646077055876,-0.2367505716859086,0.12141845572790586,-0.3352194977439101,0.192653842825856,-0.4694243437800168,0.028480861134664776,-0.05569886332433563,-0.006845831639107555,-0.24409923950427498,0.08216221756210859,-0.14544720750933676,0.24037880439755516,-0.33798470556843896,0.058498480020532595,0.04982887768557762,0.2688850007777781,-0.21492482393316886,0.09681544606565043,-0.19562823748063757,0.19489437087797748,-0.26941950151564814,0.1387756131261666,0.3425163767998575,-0.014706480526615912,0.06717709564387225,0.013653522043657714,-0.4205876372901141,0.17891547877965852,-0.29949093281339967,0.050078515669413584,-0.11939363974126793,-0.000990260174615662,0.01238803366667738,0.16750914367493464,0.20497368545626055,0.08049086255796738,0.08595834106813793,0.0767703336723968,-0.30428170971783985,0.15907647908838407,-0.245808793717384,0.09750143496720742,0.22034810497667984,0.14119219671960104,0.06690363023988044,0.2117152049190488,-0.27042717937061106,-0.1688288839550549,0.012160972997702996,0.08873928514804219,-0.423750161158648,0.11116264796944875,0.06877929386437197,0.07673563445534631,-0.16461705398907434,0.1550240904949409,-0.3632596800402619,-0.008430920914400009,-0.3321915623676658,0.08387340336297934,-0.24755811538900702,0.25224026433250146,-0.3548970772285819,0.02376626114851929,-0.2692718580394232,0.16752288879173227,0.11875890861052463,0.20617844949535385,0.014830636710823256,-0.03814275422629158,-0.3787126049896227,0.30260845399046227,-0.21294334472716442,0.0584584389170309,0.08674963802451097,-0.1775968281613035,0.13405775496649633
0.18856089409593574,0.3710940123029466,0.43321813567790685,-0.14804524811900854,0.21044693927266012,0.07073544065284584,-0.013847517237183943,0.07635651425883223,0.13116894834140777,-0.3715367533073608,0.18382424204476588,-0.2357263790730012,0.05451673374038686,0.41097302443327643,0.4779637734001006,-0.08240048853348625,-0.018966654741270718,-0.37303009683738986,-0.005949340549208121,-0.22356208375421363,0.19920095519719708,-0.3384701320074563,0.21953251295432186,-0.21653860369789327,0.04891559961947302,-0.2155270082734416,0.16286205721460806,-0.37316320219975807,0.21313447843981567,-0.12142286960408767,0.3794157213100325,-0.255909620686797,0.048685012088204506,-0.15950623397010558,0.0016273929341685672,-0.21999687741862511,0.051653263539683726,0.18379519005540929,-0.048223632009545235,-0.02785424098616108,0.22019438624133014,0.3322001740306364,0.272958724386121,0.06218904307605799,0.04559840198263475,-0.18698216773709975,0.08566798000061346,-0.2669659217321685,0.2032256854789973,-0.3650334413183276,0.11326820712527663,0.3104871464582332,0.1338416372565842,0.018877547215289954,0.338059684188772,-0.19778711951382535,0.08707697237954984,-0.34161883430041384,0.11582801457550015,-0.19210085639312294,0.08631983641642751,-0.3217651185553332,0.10154305022745524,-0.24636923329582916,0.06382408576149638,0.05150697460990855,-0.013362756588043673,-0.09393890229732577,0.0664660048881645,-0.3567011213215797,0.11464692489654818,-0.2348471054071816,0.13021208709472773,0.4200112495926779,0.3220823449144942,-0.1537231987627258,0.04848257004472249,0.2699439430286315,0.39897038000431584,-0.13339219283617593,100.0,100.0,100.0,100.0,100.0,100.0,100.0,100.0,100.0,100.0,100.0,100.0,100.0,100.0,100.0,100.0,0.03486860244866017,-0.21414575810687855,0.035639657941726945,0.08293189501887219,100.0,100.0,100.0,100.0,0.09700823780810791,0.19005251796463438,0.09700823780810791,-0.02077663622866684,0.18992679371813695,-0.06294077060583327,0.062291978280715296,0.04126815548389502,100.0,100.0,100.0,100.0,0.12508083367625938,-0.23870970547473486,0.17195888372073154,-0.15201839762964817,0.08984923632859881,-0.5276012374626242,0.1048675895995516,0.16893411699616612,100.0,100.0,100.0,100.0,100.0,100.0,100.0,100.0,0.10841243571000896,0.09539359820598448,0.12068352374096976,0.04032783103660055,100.0,100.0,100.0,100.0,100.0,100.0,100.0,100.0,-0.050808536080598064,-0.13657494907793338,0.31168415662721416,-0.033407575761925934,0.16398299740429634,0.15388273063797986,-0.15329547360916057,-0.15329547360916057,0.12956331999888065,-0.26567522141353483,0.16788444141013228,-0.3439041301939678,0.07233029274569637,-0.10097185184823165,0.24162124823619632,-0.32367686212463515
100.0,100.0,100.0,100.0,0.015929773968923325,-0.1930724156711856,0.05189414891153181,0.10692989911462064,100.0,100.0,100.0,100.0,0.08829685079980508,-0.008777288603524447,0.18268376916736673,-0.33519752376452266,0.1349772209492657,0.150500026807273,0.09038725885570675,0.0388734385605229,0.08472113814110377,-0.12818396782528527,0.5295864886663723,-9.274023310816039e-06,0.09850377678272207,0.061093464892136184,0.09850377678272207,-0.044431425431213936,0.15075481924737938,-0.001407251494887813,0.12940613674365603,0.19771314723224692,0.13547977609561374,0.019279134751256602,0.21890578394399904,-0.06209313457332909,0.004163406375086484,-0.38157257300978664,0.046686373664842754,-0.2649400589679004,0.09178122105335974,-0.3731205456397798,0.10608411210627965,-0.532598896099791,100.0,100.0,100.0,100.0,0.10586887924067001,-0.1327893629602128,0.18151653746418886,-0.2558031264492029,0.09933869090394463,-0.10387507109737681,0.1801922137933911,-0.24207835309207393,-0.0030879163227203812,0.28613322329403523,-0.12618620195464803,-0.024755870525772744,0.04631026757355999,-0.3607109773960948,0.0060265835264947665,-0.32902718182743834,0.13228298947392578,0.057592312327764114,0.2104223558537531,-0.17104681286270806,100.0,100.0,100.0,100.0,0.08404007885107813,-0.19722654594573935,0.0608538951251574,0.11331064739559454,0.08616384855123316,-0.36042325483802096,0.07085496319236935,-0.26885711034822285,0.13773354865162135,-0.3244107239219805,0.254073694788487,-0.3723817146856716,0.027364779574351558,-0.39779839749394846,0.16848325342675302,-0.2693813610946489,0.08742782033549232,-0.058428118725886734,0.16110772896909403,-0.38629578888651217,0.07632619774098091,-0.2100413766564398,0.14051301686100287,-0.354001035824772,0.06533915266454442,-0.3119576333970148,0.08469546315623061,-0.3511068725960436,0.12628705400911858,-0.31999150843404395,0.24735356098220038,-0.24694028531938086,0.07703357727465257,-0.20724730163559624,0.12273249566176349,-0.438399706319227,0.17096097310084413,0.04645720824339457,0.20407759967229588,-0.2646245624146658,-0.012757323120136665,-0.2381690830249802,0.04115129744755057,0.14751443673072848,0.06412495153970688,0.19925214544858164,0.18235853621568235,0.04550122401316623,0.09711494224778353,0.08681752320208783,0.22475381306938053,-0.2656398752976069,0.06796912878806063,-0.24732896845450233,0.15115499375217845,-0.3599570772870386,0.16320234735230277,0.16871492560702742,0.1894705000550412,-0.45852185252518296,0.15557585565866122,-0.11603849138536608,0.30074584975135304,-0.24379989875064803,0.05192777753945594,-0.31673444368469283,0.1481163124752397,-0.391618088982724,0.07574858076883155,-0.27554893652245804,0.12371304003487732,-0.136799460211271,0.06992511614856096,-0.19596567212105312,0.16270847495595966,-0.48003026606364724,0.09568451674346913,-0.04066712193885575,0.22714647888103937,-0.3799154278751924,100.0,100.0,100.0,100.0,0.08381367198262148,-0.14601390817491194,0.19853070560424108,-0.36496396538006665
0.11319598150690285,-0.060850622959752874,0.21363382328135855,-0.4262549483937986,0.16378459133470438,0.04677836561805057,0.18939616190069022,0.003647964495098705,0.1656003924280529,-0.1523046709243867,0.28392665554221075,-0.21152787945280851,0.07444149026526822,-0.14907982996191732,0.11679558067221371,-0.42476333439678937,0.074995618722411,-0.19601143922990616,0.14682091200454217,-0.3758227483379922,0.10886494465843041,-0.33150728133759416,0.12872710925271239,-0.35925129805194683,0.1360180792418049,0.059487961468618414,0.27607869781697647,-0.42067375519310324,0.04320102116051335,-0.24401419029821617,0.16149916407636863,-0.16016295216432544,0.03896392115271854,-0.27018336343892085,0.22035228057730433,-0.3909689130282095,0.06138326826880323,-0.2528906013713164,0.11627284060405858,-0.4293271353471058,0.09557506911948963,-0.11222369976588319,0.15859735654477627,-0.400693291885283,0.10624371766950161,0.04830731547492456,0.17063016613509063,-0.36521208298310387,0.07779930950626807,-0.05558484801703915,0.21045249981221004,-0.39767510289844266,0.14114707431463774,-0.2440582133726859,0.15698019494929843,-0.173638776264379,0.07483844174442644,-0.37600958682943,0.19375170965126104,-0.4047838771495706,0.06399555645436804,-0.22456361580689896,0.11871535273720382,-0.17514274540330235,0.10908978579902762,-0.086987276986114,0.17977586090479497,-0.4006397628729351,0.046011085052899914,-0.26825567824264035,0.11619232990382541,-0.21033893721250538,0.10051175904937475,0.07223941275166909,0.12427131864145495,-0.45572752116584986,0.01355742950437303,-0.27200961596657086,0.22083722492948502,-0.24060392972902211,0.0926375567127064,0.13157582926492414,0.09036341393657352,-0.033467261809477754,0.07649343720762536,-0.2054281443440122,0.045826264745344625,0.1201331831390534,0.02569597579597334,-0.1787440347094913,0.043704716432912634,0.10105864276434111,0.11048980642444386,-0.20370303727015174,0.04115255177033407,0.12024555704333262,0.09324965590060735,-0.30315414571843996,0.08515430989678384,0.23190532650313136,0.056384567875158845,-0.04490151043291208,0.5199414225949348,-0.028826552174574693,0.06417668023563683,-0.22273723290506506,0.05296347284150402,0.090349742288146,0.019293732591072567,-0.21295007907209917,0.042998641950684854,0.11345736534104851,-0.00042869594468283867,-0.20880663966721458,0.029399180854794156,0.08122536103134598,0.008888080460600592,-0.20948866041427353,0.029336314920214133,0.08749218612489901,0.0412067172913867,-0.22426300567146307,0.040395566274247154,0.04860486681466637,0.0959168480834938,-0.27929623080568494,0.05182749498352253,0.12580448704463254,0.0503103229542667,-0.24587933016233937,0.10831360461171036,-0.22768303598135387,0.20680605074057629,-0.2494180726253945,0.08708580921003978,0.17229958928674,0.07806177550170977,-0.2183215445355895,0.04556856514395907,0.10482755459310894,0.08678204252593136,-0.2042311374299411,0.041027160587345415,0.10728840212516169,0.10620767361640439,-0.21824772096318507,0.06239498004310595,0.08354662563654999,0.09376537553559823,-0.38107463894038573,0.1099618985727121,0.27183164147719313,-0.002458786734928803,-0.21192069342858752,0.056203472482447045,0.10935495659688474,0.027855152104314856,-0.16573858435420954,0.042694809864457686,0.059410806084462794
0.11305476258356481,-0.21424881124541342,0.04786959957786137,0.11584395892696986,0.04411386169887592,-0.20592561930777778,0.05227241796968924,0.1699408055225428,0.10963060488000596,-0.20243825484529887,0.21831709689198345,-0.39484943207703116,0.009577025967516,-0.23141082195836987,0.03286975159513658,0.08568209750028312,0.002905107736173612,-0.22380885908925374,0.05589392393089465,0.07699094453250956,0.06073338992410367,-0.030344699912134974,0.07925904522291,-0.016238239313352776,0.08664846184240654,-0.19988138961173757,0.06652621645964767,0.143162919464225,0.09166741636493438,-0.0772990190135679,0.0689711093071827,-0.309238127068555,0.10285362572682152,-0.17697655921770597,0.05883272953139634,0.277725876278849,0.050315352787551074,-0.07861403226278532,0.5370224634787031,-0.06971989961844069,0.04099869171314946,-0.2029648570460775,0.04124998434903632,0.16680437135390258,0.0847053935437937,-0.17762599918980312,0.05319005547400675,0.12424214419485835,0.1563769144320956,-0.04539821820656319,0.08993094968024706,-0.10673075577777653,0.10840604889502084,-0.11699290946413247,0.07448664889940934,0.05683227897741361,0.06901975903718059,-0.11545347601597625,0.13184556062677552,-0.22068718716190414,0.0750466364982844,-0.2062234227045573,0.05731451037632128,0.06335674858845505,0.0037404247189495726,-0.20075716402402585,0.05199617839528545,0.1254754245077307,0.10922558440931708,-0.19164835870766112,0.04105163106734143,0.10084434990883553,0.08196381485383433,-0.20570908735371207,0.03530140716027995,0.07361207303959139,0.10908105966621323,-0.20047305817648203,0.04568203232101312,0.12331387879492726,0.04408478370283497,-0.25590392020214725,0.0695636653977706,-0.09529237178228239,0.0011260168042540944,-0.23532076906788013,0.055195675768924785,0.1174209492665094,-0.013064092296997877,-0.19472739963425972,0.05797026388008182,0.07108531421076822,0.0852386089348006,0.17044467381160996,-0.08617843642978659,0.20731493876793147,0.008993189348633177,-0.2941557070786352,0.07192672283977092,0.0547402833020746,0.016102743565473247,-0.29671470936898875,0.06355190978441086,0.06774899404447068,-0.0053037194126591,-0.1814193678731889,0.058301753530717176,0.08797412781752867,-0.012870642496139874,-0.2137097270015189,0.05275194820057022,0.11962097901602653,0.0851566220725537,-0.18215765796866962,0.0581742227430138,0.10576431527452118,0.0029465489426010877,-0.23389137897123713,0.06356739839127558,0.13095786134100937,-0.012986450030896879,-0.28775781999565964,0.061794232729299126,0.06117362168247351,-0.0345208333204451,-0.25994421394184003,0.06470150894418693,0.056189807208575096,0.08680545327079445,-0.18775530782851957,0.05148121268729857,0.10900256551454954,0.010630032837011916,-0.2630348451338633,0.08788967976228966,0.11176430941589274,0.1055479093729879,-0.17835230760176607,0.0661539790996082,0.11123655271377104,0.08285583160124643,-0.19410207412771024,0.03706784192671851,0.07114435746329707,-0.002936166096538715,-0.2746446682267857,0.05920643955747947,0.055207411689297825,-0.014609575139943543,-0.2958353588833071,0.05598651055058172,0.12847255619175627,0.018609863377998505,-0.30600248980059586,0.05151840665561506,0.07014275603429657,0.11174919927659195,-0.20900457196090572,0.05769269813499677,0.10920195242257638
0.0024132143207213075,-0.2716370259532614,0.06886670426465578,0.1500471089706674,0.07667000024430334,-0.2754231065961382,0.05193075297607441,0.06125821015937462,0.06383932334105119,-0.2541576798929617,0.06501063260968089,0.10623080321951447,0.04696755160538518,-0.25131911043284144,0.0794473987171483,0.06672571908905738,0.019411735970001356,-0.2536473112387474,0.06700866303633568,0.05484770224783785,-0.003242239728926906,-0.2574057443352865,0.051784245715889125,0.1239780755989834,0.04885165996526116,0.01015839819636646,0.1507854971253765,-0.2438818043735732,-0.007434071847214903,-0.20329111528871902,0.06653026142895227,0.11197360404731538,-0.005926976278388729,-0.2239107705908445,0.04632489949367526,0.11653620491444547,-0.0005499089846353541,-0.2077338131968821,0.04755548636632108,0.12470447108179561,0.011117880604674064,-0.30605145300841324,0.07281139992793409,0.03777606163255636,0.10311661215039718,-0.22273114745367842,0.04507371015553785,0.11850252218521597,0.047846425790536974,-0.251160494699649,0.08433985186499056,0.05800362023082163,0.05740933702089786,-0.32976659120400126,0.11125769986196375,-0.3602204456561343,0.001252102619973855,-0.2654413710961062,0.11512696672759866,-0.05336270197513886,0.018713934726722767,-0.277321619319674,0.050351836891010346,0.05245466935691921,-0.0064229077075599605,-0.2852515463282454,0.07501828637441134,0.08183037465161089,0.011561329771937162,-0.22326824245683113,0.07497014952917856,0.12955072522507166,-0.02150336509717747,-0.30000879163349503,0.05567975962426273,0.1010537568567155,0.001070249933088463,-0.21602701702403398,0.0796408830139343,0.12940123446420554,0.05164610217077898,-0.15019660227095635,0.12952488841369675,-0.2988924057347322,0.018425413762298594,-0.46104247452768987,0.09705921690818026,-0.3843310534762331,0.046609803928861826,-0.23109163904393623,0.1409282856172284,-0.26208980087318356,0.018104445723324168,-0.3908800042717263,0.22033925099567836,-0.25353792068289754,-0.029264239006952353,0.08909689664518855,-0.19651873285318977,0.27637214287328316,0.02784241384073618,-0.03516415654411511,0.16862079122305282,-0.17946125312938638,0.10209219817306368,-0.08920515468222806,0.19042733953931174,-0.3993846020594547,0.05984783562918436,-0.27899542114694337,0.12803059138701917,-0.40812403156961197,0.09494852015248009,0.07933390974432328,0.043699023469115666,-0.313987383243895,0.053333600461861294,-0.27191886974158674,0.37064551194592166,-0.1118137241402786,0.06274539116364691,-0.09129792794895163,0.12377357789260095,-0.2433954027077853,0.09154722527567755,-0.2671231222646267,0.0658502917342228,-0.34205294561805927,0.06077831440553909,-0.10627260915355131,0.16512539267565868,-0.3214919831383164,0.04635843128596248,-0.026819239752695095,0.10141013637985538,-0.3249604512572056,0.08954873289565687,-0.022192500393252497,0.0673100913750945,-0.3270415981631826,0.06965006325603104,-0.1807404129485138,0.16943943312164472,-0.39163278961307524,0.013923252617423689,0.15369698704139118,-0.16971143356011725,0.22876676109383792,0.09702562699870144,-0.13001524972770384,0.07821710620497557,-0.37332746973214337,0.04167173078727836,-0.0076555533657149295,-0.10967000793928683,0.3130553945437491,0.08484177652126969,-0.07722852859395476,0.11374428543910832,-0.3927855310225813
-0.013749587177292341,-0.4442262669215483,0.19610577761144185,-0.27003691755031867,0.05877017080342111,-0.1226725450137707,0.11529599366582306,-0.36635377568697564,0.08210890037928398,-0.15295087916938055,0.15275353257567112,-0.3915053042798121,-0.0011805943599087765,-0.39952913892489245,0.044236328419351094,-0.34098931877864047,0.06271767909872247,-0.060830980698338234,0.08438086002695516,-0.3481989130992428,0.049730356550924566,-0.2019742134204946,0.13992672827603103,-0.4449036481857274,0.08581656627314801,-0.14593075780694362,0.0655818967586868,-0.27834654345147675,-0.019193884096838077,-0.3994526255211355,0.19346873786273716,-0.29422442102839086,0.06143370167257932,0.3446698754425955,-0.09696695659083215,0.17610136519508293,0.004128127047596332,0.11078655593728354,-0.17593019824497258,0.20999449200809076,0.07375325846224065,-0.049263898107045415,0.08887479495206999,0.01784816391666439,0.0982473658835594,-0.2919139669063928,0.38600592631407527,-0.17831016771784708,-0.020935737460482846,0.44837710488339855,-0.0788481044620464,0.27941597343903934,0.03916511874157959,-0.18391490802202493,0.11741060495802258,-0.25959304463650157,0.06845703309201126,0.0013685832913982315,0.1648009523755518,-0.19921854287659485,0.03605466719576646,-0.35621929171781,0.32702012814776593,-0.27868462549239237,0.06593649172027448,-0.09584281228973493,0.11159099179782694,-0.20904527349651014,0.06619897494239532,0.28664476420951635,-0.09088054950858773,0.29914792154146297,0.043283233760285075,-0.39585476473871184,0.1783543718407647,-0.3087781270110906,0.08048454630390411,-0.1320964487525072,0.16869898777744566,-0.26220216498086735,0.11997851637068047,-0.15952758664553565,0.07942434720560303,0.04680817638063617,0.09872296983421856,-0.44536506641869145,0.11959947975471338,-0.0031300376997615282,0.09618736236787466,-0.3628607424462838,0.07382349107043182,0.1164363275054343,0.11188991276693239,-0.2743085111626523,0.12816325514210017,0.07230470915583574,0.04093701418355642,-0.4104460412955456,0.1931716305404474,-0.3565131229917845,0.14686779413961187,-0.2395954211351014,0.05349463853200885,0.14515156679911714,0.1514957779159088,-0.3951665422230992,0.04877110966659942,0.13095072184066636,0.10808767556571565,-0.36060619557337426,0.16884749408378655,0.1179055834616588,0.11127680734858486,-0.09401996736398145,0.12116811661536012,0.10825607425355577,0.1138385689759092,-0.3615395796895899,0.1422854208714338,0.11809082911266598,0.10484175314146281,-0.13385488734146123,0.0943916842161744,0.06205049361549087,0.10380373294908636,-0.2979214699556939,0.10200835354124904,0.0851562029284659,0.1124439537831167,-0.23025769576478994,0.11126750216448918,0.11558312779213493,0.07080981364016511,-0.29528359064553344,0.299227440985715,-0.15710668898984503,0.10495064989253379,-0.44637280052709494,0.10028480078803842,-0.027181763941147043,0.11273780112350719,-0.24136858983630324,0.07523453206943087,0.05619912075682622,0.17580571893256156,-0.389301741165137,0.11065433298259006,0.05798017435719639,0.09010076543955248,-0.3155083059299158,0.11532341638711563,0.1500708527672292,0.14528279750108877,-0.41539749619629235,0.09917631431460262,0.1657964177535122,0.11555901521604155,-0.34649426122317484,0.11249824397484057,0.13593490529156924
0.1454556970557557,-0.21565425623661547,0.08535375684067015,0.16641378275526142,0.14304640335312452,-0.17729762215332023,0.11276567067682491,0.07044804796074554,0.14427741275514672,-0.20292698607405493,0.06537624886204281,0.11130167450541571,0.11272877745415834,-0.09182894165762376,0.09494947406507072,-0.04892016471590263,0.09712304919981182,-0.4434404363645053,0.08407244409948122,0.09459885894008717,0.1497695017097686,-0.07628940650368432,0.07417869337970766,0.17062549614802444,0.12025395415762352,-0.2537942670813423,0.1395033980673876,0.08050399990892546,0.10749226945509874,-0.38335568777138784,0.12978803167833894,0.10233229506897243,0.09169085984896616,-0.353072769217608,0.09968618304077279,0.12440313545823871,0.088000645272162,-0.354367051861257,0.0653606305759578,0.09561784311250168,0.11928514960169902,-0.16501272577397677,0.09857323354412986,0.027025375554571508,0.09565543343974978,-0.30773222827894287,0.1441464254227901,0.11865707613362418,0.10716283115069247,-0.2994666594693268,0.18771121589871265,0.08196121972214915,0.15152712626965203,-0.24516822680561157,0.09650747406018012,0.01738173298948001,0.08149759557858553,-0.5566125791751627,0.10418438022686072,0.18447528397432034,0.10603009646698741,-0.22782786989519002,0.15791889168626877,0.1353965554556489,0.10857633631255616,-0.08962219040545123,0.10901162183406445,0.014799123959256519,0.14545568288308208,-0.1996835215455262,0.08681398215632463,0.047417998664847895,0.1127505775644744,-0.1533179311398633,0.0965080211610726,0.06713286615325582,0.11275875139373082,-0.16131594613728664,0.10473546687559912,0.049742029264108326,0.009846378568161836,-0.3836161578572573,0.0769389004774851,-0.32746552472706997,0.01648210227399677,-0.42251930390244824,0.2217733656726929,-0.32358631702427254,0.018670733230631176,-0.20870054373340108,0.05730366107204289,0.12650443642365428,0.09007044700234725,-0.20381901301907035,0.06160602218608881,0.12363489978688022,0.03779692276909241,-0.17930601776925392,0.09859576864340519,-0.28788417568274527,0.05010402768184963,0.08306100509889558,0.07187248566630658,-0.3416316025935592,0.05904750481227328,-0.23118511757536214,0.11120271885425198,-0.2595229134058579,0.06967148719848532,0.03053234561913634,0.006530188220066416,-0.04144237469512625,-0.023998608872017914,-0.42584572037646273,0.01403687527755406,-0.3052056048192377,0.09897753507975535,-0.003069741473454228,0.037830057690697146,-0.28319114823257563,0.003018374905241896,0.12095846627198573,-0.15613301644732835,-0.15005960110288216,0.0312183759134566,-0.30269098335224415,0.1964213590241935,-0.10114099218510592,0.05177953528850436,0.07074305739071787,0.08394859301839595,-0.2236628755169113,0.04857630917763658,0.1539590411339718,0.07155595841912989,-0.20284845780521177,0.09147222569617389,-0.18696442248855216,0.06119636317067432,0.11753869115208596,0.016667806982680163,-0.38692679286247184,0.2953335540928323,-0.2922481575296674,0.08750046245450051,0.11556683131611678,0.05973907232869103,-0.3647903827003708,0.06993172993372909,0.04047132928018761,0.07361961802894673,-0.3111197602386328,0.05681926206237738,-0.11342172330985781,0.14595610459024727,-0.2620113533926117,0.08971239624639782,-0.015741615619019395,0.04363828104213495,-0.17525762054367938
0.051316134976286815,-0.23539732081922943,0.11813144496428676,-0.25954349857074727,0.0644147483487544,0.030612664640150142,0.07638933450804544,-0.2816831258974253,0.06839284568050798,0.06340978908536105,0.060365315392439445,-0.27222890838754177,0.0284239124368262,-0.011907981960802234,-0.05081395502579494,0.022087929604532167,0.14821513850127213,0.034566195733962087,0.047001245383164456,-0.019097494524332098,-0.0012976620003404687,-0.23365881944300163,0.056450079200663736,0.10257667730227836,0.08923523785638866,0.1458641817875543,0.0490632259050684,-0.2731204786308677,0.055174333636320946,-0.04443144074415369,0.050835527618508604,-0.23027992779504003,0.10110730087450498,-0.029103996244436225,0.048116533867214394,-0.2740888324061946,0.09782830133766802,0.20127188483511546,0.05187335492406005,-0.26751832624658267,0.04723703374366174,-0.13752420371939508,0.25612259115327557,-0.013567286871093542,-0.015210930708455729,-0.4452794865985933,-0.11723105767231733,-0.13834732181082568,0.006412536664699292,-0.4316235802419057,0.3331492564336276,-0.2665798808350385,0.07482321121671609,0.03711134441955208,0.04719677108488976,-0.30407150644342484,-0.005690731821431351,-0.44525409526503457,0.2077838109602529,-0.27855880277509526,0.014679941778830766,-0.20625807126337015,0.060849735821110834,0.11708813537607834,0.06365035401623467,0.18841916522635943,0.056266608546684735,-0.29001625607779913,0.060727428581520776,0.023901078744936122,0.055988326455876786,-0.19188087165453177,-0.030885042095722917,0.08293445299285426,-0.174392121627291,0.14656003333767287,0.049479131005466435,-0.1462229887338606,0.0987013704539406,-0.23691067005094377,0.06397243755639026,-0.17263706855732025,0.08051388647723669,-0.2422812596679426,0.024481964531798257,0.0657514907522128,-0.14881927903019443,0.13869892732811626,-0.017172117550536214,-0.22553971016394816,0.04049326417710135,0.09970911720684453,0.03297970777683022,-0.3682957856260521,0.3160498349716632,-0.27791946286318464,0.08642946657230738,-0.004470257696041868,-0.08060792663705935,0.14683954831648316,0.0063155836009088084,-0.2761609782393014,-0.13570711906250138,0.05883749493077704,-0.008943350339483114,-0.2946113655976796,-0.08754318724508499,-0.11640722606463069,0.045234593668712575,-0.19046786289593992,0.08225742197730775,-0.2179120694445706,0.08056628834245971,-0.012998008284432712,0.17322846680964823,-0.03136515949946145,0.046892937340071425,-0.14094204139237027,0.11758932880356807,-0.31977886875728795,0.08869679997394352,-0.02854399365492477,-0.08044039517938933,0.07208079670182943,0.05662716916647438,-0.19212182080727225,0.11775323392014705,-0.30008808061287695,0.09254949702623912,-0.20526377894347964,0.056981676963350866,0.12492666112835947,0.004619928207262022,-0.4406044948860515,0.13990264379714218,-0.22661037094426806,-0.011941741287213876,0.01926347032926469,-0.1706562592207287,0.15765370333435588,0.0631885333658458,-0.14595827065755007,0.10664548562220734,-0.3652975214804664,-0.0009634624274472703,-0.24012328877370537,0.044568685220353954,0.1167126659997609,0.05850726356297653,-0.1416654288100152,0.10029101032858083,-0.39218255007786307,0.048104502893571946,-0.1373675062900737,0.10380570542065026,-0.3111822730422808,0.06663441833511391,0.03520600760785035,0.24225357613267445,0.03556301842473679
0.07763179780464646,0.022636957012990705,0.2728459655094901,0.21336681504579436,0.06762377306146071,0.05523279444980919,0.07569816086096554,-0.2089422439490183,0.05322696082821526,0.018318288165591064,-0.11591425840863097,0.19664248639002663,-0.004349369552825652,-0.21814868821799582,0.049942423212257614,0.09977649608010603,0.041577308588314654,-0.19046925753869418,0.12276523927072491,-0.3129554930864335,0.07502814560196427,-0.031795805170365544,0.13748723299493856,-0.0023092948442538994,0.0697935192995309,-0.21140982481906215,0.11933925839371456,-0.2733929111098564,0.009701359638733349,-0.012469897915155143,0.09241437799198407,-0.07551958103935391,0.043803099925357414,-0.21111261700284345,0.09945225111522529,-0.32798148834901153,0.029084377351064263,-0.4357302171488251,0.20159902899708454,-0.34811022223676524,-0.022702730506180248,-0.029608243866838996,-0.159096392442333,0.08816523531167693,0.0032132617794778107,-0.4429989282317015,0.15106379212135354,-0.18543403264422498,0.01764900321273502,-0.3828706390553298,0.3288259363748097,-0.21996406120383216,0.006192794801829261,-0.41711548801438825,-0.034323857806085975,-0.10784349500191434,0.08671559406811105,0.008903055427584999,0.28994319757039066,0.052376767281453504,0.03680472040687595,-0.21379625183999842,0.12281452708810674,-0.23709481463043325,0.058367599897371766,-0.16018209993676957,0.10850774306129785,-0.3102485315440989,0.0659894044565377,-0.1677560084873469,0.14187010632738117,-0.2728769729737944,-0.002906441202752255,-0.20358553104869337,0.05641887487958665,0.10641757132106813,0.028643282978721298,0.01987680863877756,0.3091867570149018,-0.030704268654023537,0.09370943072719404,-0.03880888006884943,0.22302503725570003,-0.35790852956858965,0.04882802776119393,-0.15079545573398737,-0.13175293931587512,0.20128478522520543,0.0638781870939327,-0.1325588144340363,0.08841229207026552,-0.35485275581079373,0.020983990101571787,-0.10242756590539931,-0.11485490177347848,0.012488349818455369,0.02790702270448395,-0.27420809288204095,0.0017695355795714768,0.0760078109282715,-0.0028070617190991617,-0.4149658280003644,0.10014625547265146,-0.28755278746591517,0.0012349869598006283,-0.42389409660699856,0.15023274652183283,-0.3251996355755344,0.005514728469933932,-0.42338138800474245,0.13045945542362722,-0.3298323782139726,0.07442170867031697,-0.18226898039523767,0.07861419953375204,-0.24952448275578146,0.00045234010988424306,-0.42326957435204593,0.24755934251995426,-0.28846097795338876,0.027131322579466773,-0.2256223023830813,0.0577131791847148,-0.1481228969622952,0.07484645738260487,-0.13746242149097443,0.10455034021359147,-0.426676975773935,0.05328290566594618,-0.18091637692000603,0.11245437526999996,-0.3125090248172515,0.0021413554349297183,-0.10896877544175525,0.07685954536204259,0.002947789726143797,0.04603959272542101,-0.21719173461785812,0.14192887027454276,-0.2743377218192322,-0.01514154637149899,-0.4328936578479842,-0.15656070239775358,-0.007841297771377133,0.016021595473356832,-0.36246302359360283,0.22190860533774015,-0.18292771970216493,0.05048285565982984,-0.1898506170227139,0.09462235111599962,-0.27962733761499065,-0.023292444188043684,-0.3655312457735631,0.026139071054066473,0.02561651396808287,0.09837825440371781,-0.19332289099166716,0.054528647192653906,0.09898667740649382
0.04414527762211597,-0.25477337161787966,0.08933143500544814,-0.23466960611357945,-0.04007813095444991,0.06713331235113655,-0.02811587797292993,0.1601133238642496,0.0032579163549146736,-0.45951782939662045,0.1533971128902836,-0.29982903564088204,0.06475088959850801,-0.20206052368391156,0.11572874237535656,-0.296246505399208,0.00593439055177989,-0.19920434177163449,-0.1356158976126158,-0.08265935923073113,-0.003351522150032732,-0.20346682436561087,0.04440051938313995,0.10463865956087573,0.07032417222759574,-0.18177689035474354,0.136010872126324,-0.25132955089492115,0.05955144010714253,-0.06626735941493848,0.16311017747582626,-0.31702299749317975,0.061986753250159315,-0.14910014008181313,0.10175340290680523,-0.28312384720587463,-0.012012535132591075,0.08166671819534335,-0.1549218822566985,0.2482213334550222,0.022034313105543213,-0.4015541031467736,0.30097919263027934,-0.3040930213855215,0.014949254214104164,-0.3811096738798958,0.0028439264267699736,-0.10311837475983561,0.05894341866941753,-0.20522710855513354,0.13860140778189306,-0.21339583531791897,0.06008326859408184,-0.18446855003208865,0.11044076707857867,-0.2576036836892697,0.06143480728519245,-0.38810651272163843,0.328813897092217,-0.25280518774180116,-0.012533830225800534,-0.1009344490492366,-0.14023296259677343,0.06836665304621209,0.058794184610354516,-0.004870292663286986,0.09043663036210466,-0.19373503025185512,0.11115815706576289,-0.2043243753963059,0.06053707707907118,0.11992863282696044,0.0067628922949169445,-0.3043739621748159,-0.1676527493945061,0.00836134269673866,0.02278731457824097,-0.3987534871051891,0.0701966180455702,-0.2844666834446615,0.03140274033612364,-0.15385519525413605,0.011613157740389912,0.14566226887432576,0.024138566795550542,-0.3944954182560116,0.14581993639036628,-0.2502698542642184,0.07246164771079941,-0.3361855267595852,0.11503193611379019,-0.2039577256740589,0.041326181913425554,-0.31530095361183696,0.2865752329859958,-0.1659147132817974,0.03189834736516092,0.11643612131524814,-0.15113465138667953,0.3155086768989671,0.10809991725867692,0.07896756334048657,-0.00896997478578676,0.09138410907890424,0.09172294426134395,0.1202907225500997,-0.10360522785127549,0.17947822030897775,0.07483013282087594,0.06385946094286307,-0.0923609032388491,0.1768710773816044,0.12942618845898132,-0.05608042525649885,0.019255492004236575,0.12843106358120449,0.20045806469422658,-0.3498598673224952,0.18093778895529639,-0.41114534079540516,0.009748899078995829,0.2154584672689876,-0.08614229132562612,0.018217172130986177,-0.020096605533891563,0.3208926535937913,-0.013867382301330486,0.04201553805263849,0.09026471870195774,-0.2264846027774728,0.21253451813026303,-0.31804855038540225,-0.02190550782580243,-0.14529473795051273,-0.1238528196011897,0.05730645439506413,-0.0015306931570486168,-0.3996137473539965,0.0653391645818126,-0.3130315992271935,0.19781429515503285,0.1471441522196165,0.12300240650396264,-0.039586904755336286,0.12296129174958442,0.07222520100471029,-0.05199797652643903,0.1143595671126122,0.024502813815662793,0.062145992190655024,-0.09510933970864913,0.12274442317003821,-0.0285793879768004,-0.0025634085722057373,-0.034001627365465685,0.2525907485696921,-0.0226324362419531,-0.3265830296733984,0.03402231328397959,-0.21469217834437165
0.1178217380969159,0.0945932298721844,-0.06778407021247919,0.13681522173261879,0.13966980688528813,-0.09520288502789918,0.003894959260287302,0.19784434564159936,0.13520659181315564,0.12812745322163022,0.01182999725029786,-0.047202403385174424,0.1563550476512992,-0.03359185886763316,0.04730124678712701,0.15702403921242922,0.13270059340547652,0.3019441799757207,0.04998612624734771,0.0783687485368654,0.008596255546982385,0.17207684677171983,-0.06633055922237761,0.2014094573169747,0.07756528068337964,-0.27950428547683004,0.17085241682559482,-0.1933105001522057,-0.06437431726401821,0.09947622236574957,-0.07643677968358321,0.25329774591994336,-0.049037922521496934,0.11387150927083671,-0.055384241187259604,0.2758008421871926,-0.012899629056115136,0.004009262541923166,-0.15273427456827743,0.0018172741638642909,-0.039824002982826595,0.08325036871400583,-0.12806036245063418,0.2028310555183183,0.014439581602606666,-0.3230886144516549,-0.07406732442548568,-0.2276886620663665,-0.04294707578495367,0.01729302685486668,-0.08107449560529054,0.2192895657462004,0.015811527341132094,-0.3903317865081695,0.09292678528321763,-0.32041599072041266,-0.022211069705506754,0.11699868929597859,-0.19327876287228074,0.16227183511733606,0.03212165349752992,0.08456118288172627,-0.15099269792651648,0.30631640658532433,0.1469014799340793,0.09476202433756198,-0.0053373035465685975,-0.01698666600475028,0.005071374611848501,-0.2275643681842222,0.1910967036502067,-0.2748418142131702,0.09951086629636086,-0.21868432411902677,0.3025905393212227,-0.09372998526000874,0.0610386626535836,-0.3411264432081824,0.12041121389803178,-0.26407127610040715,0.002667838362541336,-0.21192203040839885,0.05400650968418155,0.1197271016930751,0.14834257987217883,0.05649049515866676,0.024306089817899633,0.04155459443686865,0.029511455754242043,0.026266740550640513,-0.07197055107495193,0.19669828774755704,0.08603215806484232,-0.19986696622392858,0.04620455952733277,0.11124458943972478,0.05043884069055479,0.06970555845325033,0.1410521385809373,-0.1601046037324875,-0.009628670518054959,-0.21706796920163157,0.047692940791768404,0.10767921393302367,-0.02220404347613185,-0.22922977920519522,0.045110827735877115,0.11885722133906244,-0.008910502015753885,-0.23482508942269936,0.05521512414893825,0.1199570723016808,-0.01933186809957937,0.04173114876965364,-0.05965208717685476,0.16645705941989306,0.0046583693763739345,-0.20622220071213201,0.05717624646606086,0.11986998796470669,0.05108683436308216,-0.33600184423113577,0.13966355639443476,-0.32009069512021876,0.08406984684409038,-0.22334527194554113,0.06797400513328088,0.12209866975931787,0.11001730476589601,-0.2009910026499525,0.06411833209179973,0.11988920315133932,0.06100185716585275,0.07330220009028826,0.07630929014776508,-0.17161895087192883,0.06722728096748921,0.07882124241907663,0.06498300236175794,-0.2786955606778129,0.13712113683158142,-0.017431812330642893,3.479572053104174e-05,0.12948278610565167,-0.023542019989866398,-0.053356209690550015,0.039078999563068026,-0.07583150070978609,0.06879646728590427,-0.14063746663640403,0.10423572018070233,-0.3828391509036285,0.10433397299926937,-0.2083294790721577,0.044474451876970085,0.1034941778320477,-0.022304964126174366,-0.2155615431199719,0.043489325022043654,0.08979141699475468
0.055544545423364546,-0.15940931144863427,0.1257778314452196,-0.23423311671914,-0.015618412373491,-0.23197246452611975,0.03630570622524752,0.07639743381595798,-0.014367542545500503,-0.23951528482500262,0.04829505523293742,0.08833039778400988,0.007052162186112668,-0.3879643046849017,0.19881016441719424,-0.34127884935515407,0.049141735758048054,-0.21602444765632714,0.13418380824760073,-0.280655716737388,0.06142024521170242,-0.02881287344436772,0.14542144507632587,-0.21845724550888257,-0.022957671859473373,-0.39666766603723663,0.10209508809724857,-0.29620962891202157,0.05508052599895971,0.04666987188834493,0.05284610684948153,-0.21226027211825343,-0.023904544501668706,-0.30670812368423983,0.07064753916545502,-0.056129015034562385,0.06835104626369745,-0.04803577629999826,0.13481857520087231,-0.24239346294463837,-0.010037078931487337,-0.2305302282241488,0.05657632230425795,0.10889845104079085,0.06241154034491361,0.10703654110843457,0.050688371325636014,-0.2616904034232617,0.1413507792223011,0.028138989895563724,-0.006109610367026175,0.09947296130938496,-0.020881475481979675,-0.23611136820093276,0.04414670788234308,0.11735348007098284,-0.0013063486237411097,0.10643971827534274,-0.16419767885880657,0.20800979022762142,0.051321925237579925,0.10147870867388126,-0.11444837491960401,0.18407154862520828,0.0031424821503087327,-0.19249172589023922,0.062246499070681485,0.12139041422460453,0.03797492524266179,0.11479170364321319,-0.13534286445887073,0.1988221710432166,0.057569396097725274,0.019675933416522642,0.047659240620942,-0.23867616617467158,-0.026504444530500243,-0.4157113857700694,-0.18072572732386272,-0.01556754783695137,-0.034876283336001956,-0.26127540799983895,0.026407418051776547,0.08426659984788648,-0.03349209377800657,-0.24411480588129825,0.021205918737127186,0.08729041067703305,-0.03870544751466332,-0.2604325209746818,0.0224176620175508,0.07143219032294808,-0.012499355409974836,-0.2221772205705492,0.037623649536810994,0.10418869874174752,0.07587372642136966,-0.20489345865020162,0.031098040152815806,0.09961180690975027,0.09590569572890895,-0.21433618472188348,0.04081408729448469,0.11201714154009368,-0.031798144276392305,-0.25608606597170963,0.010984830011682288,0.08765206024231585,-0.027843956508538756,-0.23621596338224926,0.03337860359163097,0.10790286275128247,-0.025440914700718506,-0.2670256779570249,0.03291357364317221,0.09894058167654161,-0.030132736476856603,-0.2545470747163403,0.02574585291505327,0.08568431447226625,-0.002652113682800994,-0.22864574831354528,0.05388557077353129,0.1169180085353835,-0.01097207709147413,-0.2309612884093952,0.03959726637598724,0.10696544605501523,-0.019602386565461982,-0.2592940650849246,0.032183761139794126,0.06211552350157496,-0.01391060336525838,-0.23869879025111596,0.04127510323338415,0.0908151894759773,-0.036114402552504934,-0.26146679475854967,0.026280565292282725,0.09999357878209014,-0.02933902836390969,-0.2582509704493936,0.0334059567128147,0.08132282246192989,-0.03790213725520607,-0.252567608194037,0.022049650732458084,0.0857401717398554,0.06903123647849,0.1271290082087297,0.13917638000766763,-0.21747700905509246,-0.019312795669645777,-0.24303530295772408,0.028788354138193625,0.07246593648264144,-0.014954619382549342,-0.22637101051052455,0.03133107720527148,0.08940654640680763
0.05714569204400037,-0.0025913227690707724,0.08173232111756171,-0.21912824847817702,-0.037082699125433105,-0.26745269519582804,0.01824247415160498,0.09279562749159034,-0.011864787749929176,-0.22416668018303754,0.05000647202379116,0.10552578473311072,-0.04221378276844198,-0.2602506773784493,0.018644610019656383,0.07309563840495323,-0.032859754435645164,-0.25969626231031173,0.019339767684513495,0.08617798631120903,-0.037393184597655185,-0.26084100424771983,0.030117185588045853,0.07292493803402875,-0.012819318790744653,-0.22836055538480005,0.05089984804028619,0.08085305060741117,-0.027977078248326702,-0.2763959806481223,0.013638910859170697,0.07263545602039438,-0.03000328790099565,-0.27037492252693046,0.024075914923968794,0.07605720253103172,0.05061290235447732,0.10780697909770026,0.10392518632843686,-0.16367444371821432,-0.033232869910205076,-0.24978787859828835,0.037413229167098105,0.08432457562663986,-0.010689694291456345,-0.23318164987361117,0.04678924360831509,0.12177805270134613,0.0752036596030371,-0.16938970470651415,0.13404017607526592,-0.23891390140250404,0.059962053210155256,0.04772056535862672,0.08364284081771714,-0.25215304831436886,-0.02353096824037562,-0.2548997169457788,0.03032140028436976,0.10072710731566027,-0.008839352318523813,-0.22699724521182119,0.04815967642091008,0.12251198591624482,0.06161909413016754,0.09920207778533545,0.05646073542142223,-0.24587122779568782,-0.028198236746698916,-0.26827424113797715,0.03793810767500172,0.0964361283331798,-0.03331881992665852,-0.2535961645940932,0.035229345183735966,0.08367061500381519,-0.016954349700500623,-0.22350008189762122,0.04152222474308355,0.1112190353052765,0.11673805251459438,-0.0029682918153143816,0.08523690646033148,0.11212182216254862,-0.011325132031575535,-0.22108423494650697,0.05827033776290247,0.11912708534171206,-0.01419218979770838,-0.2107432907823406,0.05623281542045626,0.07329635734197748,0.0558690018340872,-0.16509364388456033,0.13017100383694863,-0.23787598224418413,0.06524929107527602,-0.14389048511532418,0.12892147690666877,-0.2270145459917363,-0.03321081094389104,-0.2332170626203902,0.03906999632265476,0.07718064814345955,-0.037125895431244116,-0.24571996869851853,0.028033899711737968,0.0825768308057558,-0.04810841020759766,-0.26208476728755875,0.013846369205344947,0.09845894307442124,0.04290750783941458,-0.17837168901920622,0.09205054172406413,-0.29582692911102204,-0.02814796288024346,-0.242140755981382,0.03999571353287776,0.0959207177816314,0.07690998170295522,-0.17207914260146012,0.0845192026994986,-0.24500882562954807,-0.028038768790010028,-0.24653599089912387,0.044008210749146806,0.07093725773043667,0.06003168153272214,-0.21362075756731227,0.1305459481617507,-0.22427015318986057,0.06425951516304351,-0.23599649820471455,0.10028806487255579,-0.31387748509469665,-0.03958882910027113,-0.29357504323955536,0.010831792421320277,0.10470665753930722,-0.03712059699438083,-0.2481512559456553,0.03012698005933556,0.10444069619800302,-0.040322632722609275,-0.25442555718161197,0.03019480197069052,0.10596854316055353,0.08274468587918704,-0.21795813390546392,0.05357435640030567,0.10252055850799069,-0.029460552979616944,-0.24208729274914273,0.03544885471134064,0.10198740918653268,-0.02751180761276229,-0.24043543551574653,0.03655648808884693,0.10067476812088909
-0.01802692407231732,-0.2078589128920862,0.05984645922087686,0.11800935001967963,0.049249181916949845,-0.1750596247360517,0.07809172985237915,-0.22757620819116653,-0.04056184064610932,-0.25727328710759656,0.027083836603522024,0.09076822994447487,0.05956791433276639,-0.19086382907647334,0.13656537950166367,-0.2702412636761597,-0.04202325135585546,-0.26607469852978344,0.012590440535239951,0.09959573198480466,0.057312259372926826,-0.21339351647917087,0.12229593293661073,-0.33836940718898817,-0.035506960295867626,-0.2779854080924913,0.020986897738529516,0.10225767024629567,-0.040217769844582946,-0.26917692163968243,0.028075751853415487,0.08152919511862179,0.07034373640795419,-0.18432399515783604,0.13600045048403156,-0.3103991878127854,-0.038856405675884845,-0.2366639311341605,0.033258930459090785,0.08906586621404065,0.04755102746749987,-0.1899113524535965,0.09821864743279277,-0.2851009942161137,0.056305103521487224,-0.18936876870076697,0.0800102922147913,-0.22426572608603731,-0.037626028398938915,-0.27345575315776893,0.01400270037315858,0.10153478930743959,-0.04592502263592242,-0.2787520587330908,0.00932852227001434,0.08762491686489197,0.06862625480924917,-0.08469950050604053,0.08567618211117395,-0.3961015068071796,-0.03345847107083444,-0.2580945513294173,0.0303572824872616,0.10210547363707,0.08097178427575125,-0.21000745648724256,0.05227271937672663,0.09331874776902582,-0.04097183056293748,-0.24411324995437345,0.03264243953527304,0.09073304576033871,-0.035537922140864625,-0.2399200007480037,0.03204803683739478,0.09610854479735587,0.0812797787818638,-0.2197148682302567,0.04114481179471255,0.10184106096687473,-0.03479075227054991,-0.23496040414163305,0.032945184087055504,0.08308297195359357,0.10635835124705023,-0.228139273579042,0.03771978837861509,0.10773614317470752,-0.02845795140904981,-0.2452984763138455,0.03207824971955662,0.10873492260465285,-0.03788890607113775,-0.20837497929258542,0.03429402134089594,0.10186401638947419,-0.03185888224824539,-0.2387942205065085,0.03493505696581732,0.09073210790077552,-0.037794467590169356,-0.24205457084489096,0.025986290399544837,0.09485036937050507,-0.029408528832385518,-0.2545727272643683,0.028956817044986972,0.09484912401287071,-0.0352872627825271,-0.2372461000214111,0.028874465473076764,0.10924721577507904,-0.035920324639713376,-0.25400356714358374,0.04607576544469986,0.10396884375924176,0.0992536018414197,-0.22077864058691227,0.04649184756790767,0.09807487466899599,0.09967688169089245,-0.24812343850125446,0.033762298577743266,0.0889114623908746,-0.026760423744011247,-0.17376543292603563,0.039027559060981,0.09033490920275308,-0.03222001668756421,-0.2466510626635714,0.03547974525375373,0.09892688639197558,-0.026823673783247855,-0.20364522593923448,0.028716811693189057,0.08438248732862569,-0.03656553151251809,-0.23880891935645793,0.024495835723569368,0.10892864806624708,-0.02619996469943675,-0.22309861238208464,0.033164918236764464,0.09089691640977585,-0.02237897382638218,-0.2536180939934262,0.03411454362733424,0.0700387746483635,0.10684125668571484,-0.24263821628713586,0.039353939989814554,0.0958346498839367,0.07905695887141881,-0.23518868375667074,0.03956116013712408,0.0824240870851226,0.1023508530817855,-0.22250914496517415,0.025480190185801332,0.11049541733640253
0.10164075686748139,-0.21006323760148982,0.025701909570494515,0.1104684963984166,-0.02529769834502517,-0.25558759709488715,0.0255137794177814,0.09201805659009626,-0.02698452045001698,-0.21107906574717117,0.03540490014278076,0.09146864146405795,-0.028877254566065297,-0.2483198440724691,0.03693653368267841,0.08670607541129417,-0.03177404412571336,-0.24037718575156286,0.03841698715935371,0.0852059417081637,0.07473206976112143,-0.23618991366833098,0.030861541978981603,0.11039448260737034,-0.03218758422774402,-0.2477970525126881,0.040584541950706474,0.10137202142134327,-0.030347362334425282,-0.23192155184866015,0.03907354815693215,0.09169099711546855,-0.027258994477244572,-0.2472731716691361,0.03347513101665363,0.08846201899221051,-0.027304562074861434,-0.24689528483110074,0.0313582608480385,0.0852732580309386,0.10013934343738704,-0.24695004408072208,0.033172084172864665,0.09801201126436945,-0.03775486447838039,-0.2467503826452741,0.028198030491332744,0.10250954758010304,0.10558638191655709,-0.23929239628518106,0.03002069623558794,0.10598755438209836,0.0799513619324619,-0.2320645920126507,0.04060763649060761,0.11216412121173938,0.10447958116020849,-0.24758188244133572,0.04504740594717398,0.09788773364015166,-0.030120518804692336,-0.23932845048541265,0.04385051777109099,0.09795901132826237,-0.028000864188718,-0.22082421484916848,0.026062688300222236,0.08789440079299063,-0.031165206329753524,-0.25201568421449,0.03827164157482342,0.09739547352718332,-0.03763957853119346,-0.24214655251256662,0.040805281702879906,0.07920647683772258,0.10058450217065322,-0.24667817715880763,0.034520928833989516,0.10852773594101175,0.04809335352268136,-0.18942836220674666,0.09331536267252674,-0.2540881767870999,0.10009022891924477,-0.1222812322537543,0.10540424391868067,0.05970945336496987,0.0750321736895799,-0.08471675134717165,0.1474207029253472,-0.2241082290278156,0.05322816878733628,-0.19098990295859858,0.12454565778679064,-0.289165663222724,0.047891255821285006,-0.2076201904314544,0.12707213639399695,-0.264357235557798,0.07379069616315434,-0.16722086330221775,0.12990470897732811,-0.2248086665918215,0.06755891655668728,-0.16007594461793495,0.14894070043570629,-0.2477768224444061,0.0844971124006356,-0.19255183212758054,0.13474025966500175,-0.2150825446345103,0.06797866672605785,-0.21241634667468223,0.12757104399095578,-0.3295710690244305,0.08925898304674648,0.09866744799780232,0.12293242974469681,0.11329583620042014,0.055838148451198694,-0.16688407360819812,0.09675324077297762,-0.24127515905191046,0.05329752134129635,-0.19312168424063125,0.14148814625139142,-0.30252972554607,0.07567748717109864,-0.141923016340012,0.09294378980709482,-0.40992451998710333,0.05938905663515492,-0.1711991960517511,0.08099517882118416,-0.2368358313310701,0.051222167305209135,0.15179739215979524,0.07637269891838948,-0.1827288632342554,0.10435527670458668,-0.023504750642541455,0.07616504777877298,0.13355459887318422,0.10474690282887152,-0.16386766248066165,0.10981824817455046,0.0727334349654159,0.10874179618907422,-0.13071580478864459,0.08581807495578744,0.0992731194229613,0.10818899214500835,-0.0844712591031987,0.07772430920971113,0.1325761605645283,0.05930387246337712,0.09218082943668829,0.07235583273176618,-0.20343053259000518
0.06666624585669509,-0.113743133154316,0.1348936045882203,-0.2151779659474536,0.07181499825970479,0.09287389603781261,0.08807318229587652,-0.23380216686560495,0.04736225899200298,-0.13703268771569432,0.10333265903431725,-0.2804592908287994,0.06056938129199829,0.07044840232321276,0.07102884030101676,-0.2527573574775452,0.06705502673491179,-0.13522614185197412,0.1385028585212672,-0.26956941157183373,0.04289199261358493,-0.1897132374321076,0.13837776608750496,-0.36330395032498863,0.11222305935458471,-0.11661812083536888,0.08117435153334043,0.08466633829820829,0.06605613232819947,-0.1385586305463556,0.0852030662426189,-0.23450919144449572,0.07785763025650363,-0.10825084040344202,0.13552822052821312,-0.29487062966719546,0.05062025134767305,-0.19244073232668407,0.10367997552932609,-0.2874417808463264,0.09826442018370912,0.1123601738845542,0.0735099379786738,0.13984156603698308,0.07153698148959128,0.11384647261428826,0.08133377301885747,-0.2023516169775513,0.10547910117860154,-0.0596325264452951,0.09999754170436408,0.15076233407834352,0.04480855996800317,-0.17003680979682823,0.0803526312907689,-0.2630907308333683,0.05363710162958452,0.08739390609752323,0.05390258651661674,-0.19937107232665807,0.06419452197365844,0.045834271518950184,0.07857909746401953,-0.2900958583661323,0.1094189591923481,-0.2127146479816668,0.12215016745554469,0.06116695022403461,0.05391637604553765,-0.14229415926826933,0.14081039624288133,-0.2552145207229658,0.06332107410434742,-0.2081478084366141,0.13508656292202287,-0.33114621384182835,0.04993265268830984,-0.14341342220771383,0.07362637844936418,-0.2721044290167982,-0.02460928832902722,-0.4073661185892914,-0.019396470519022234,-0.21482435558114996,0.054574823135280386,-0.2374407218140736,0.08069127084540756,-0.237419746385849,0.06510718820555389,0.0944964898976545,0.06791647434565765,-0.23811552376439177,0.055877937008329305,0.09920154817733012,0.05624772623097975,-0.2354100323630873,0.04573350256387682,-0.17097190319489694,0.07628261363828137,-0.2332070283905877,0.11965615528067725,-0.13581460953241148,0.08036518673133516,0.05524834419762032,0.06997460481116347,-0.2543711031717726,0.07581745751195532,-0.25836706297985657,0.0639258368352361,0.0965549631646343,0.07937949934332258,-0.18266084145650618,0.0557401235083262,-0.02167765282055934,0.060045547457987916,-0.22683327527596053,0.06211292896237306,-0.04481181080938504,0.1267786218547485,-0.33836395309819317,0.03064090093356053,-0.3837818902930704,0.09874983854424227,-0.3049217406633132,0.05555825439812936,0.09870849567302373,0.058003054076232505,-0.2061327551265894,0.0686276511163551,0.08992533011483198,0.07245152682377445,-0.28578019915944697,0.0489828548581587,-0.19237213103012624,0.07741409430826052,-0.23513494061225929,0.07350652852320522,-0.21498109476272081,0.08437818259325894,-0.24051061126318127,0.045854801209653996,-0.23674283599643148,0.08573086558430316,-0.2595878538592851,0.04462806013812813,-0.14618576716161835,0.07866230674381766,-0.310307717433892,0.04949669985970092,-0.17155937781955982,0.0767329444774526,-0.2576562214661106,0.07414522300055315,-0.14489959630789034,0.07526990863308973,-0.3608205111328627,0.05675417177989962,-0.01725561388904326,0.07061906204585142,-0.23468653864517375
0.06684244149564146,-0.018594233043750838,0.09356832573632633,-0.23373800538662354,-0.021558511379753384,-0.42647435691832203,0.07035042407906274,-0.24975259544336434,0.056161979301941674,-0.16969066326842336,0.09217404413046874,-0.33435841870202,0.055619907469042745,0.09606554837071458,0.08070260557469298,-0.17518463928565944,0.0671280214728971,0.025004767260971023,0.06487888373642256,-0.20694722645364022,0.05232123525865077,-0.04730061137136981,0.07573699744921596,-0.20642327051205622,0.04225362925092288,-0.17172556250007676,0.08117157571645717,-0.24233688132916062,0.09676297921700731,0.018206099483473737,0.06961979015115223,0.10617273205686613,0.12450391709453221,-0.20595540303747786,0.08436006936809201,0.10597981646778523,0.0480359637237721,0.026672081359695243,0.08142393530483068,-0.09027707468317044,0.061878157435279246,0.11116306124701991,0.051506182099088735,-0.2560740079852917,0.06589195183739417,-0.2195105058444401,0.0772455865439078,-0.23567331395755506,0.055670971339965875,-0.14481855302217056,0.12319916513606208,-0.3663981373412411,0.06280815584471643,-0.19127297330354875,0.07844233795472161,-0.3118471782117302,0.06191869265149623,0.025846536568727357,0.05161817752584942,-0.2785450031763094,0.06321601906882252,0.10802474569685686,0.0995582928821436,-0.2089041452021041,0.05540639881262423,-0.11508011254241272,0.13041327081904652,-0.2899264085063904,0.06242795081894878,-0.017298073085243337,0.07000249927028407,-0.21084778304521654,0.056549456618830006,-0.19307535922217636,0.08099065753442106,-0.24230142244386269,0.06870709449571903,0.04622048196498334,0.099190706201043,-0.2770618832005812,0.0021795300368939,-0.017060634072050225,-0.0356514637788186,0.0032737123120706937,0.06156195509178147,-0.19739819736951505,0.08417985228950181,-0.29181805362254154,0.025118272590619745,-0.3601927270035016,0.11734280686841521,-0.3183461389095342,0.050936387502950965,-0.14314250112334567,0.0832994636969617,-0.34934303639910347,0.07694460565137883,0.16823145769832584,0.065929517184733,-0.28240134466271355,0.05600546296384766,-0.14518702205150755,0.08391096208863669,-0.29925265132091783,0.05003620090390902,-0.14564046267554812,0.08035207883563192,-0.263279491285474,0.043406670319622115,-0.19450134321688012,0.08053058240557284,-0.23959395997624333,0.057349868593652785,-0.1937400237621495,0.09857479188893037,-0.30119422333838114,0.06404616713589574,0.024562052334835365,0.08908068591061052,-0.25259214345551184,0.07255484463472381,-0.1956219897694002,0.08360904587665197,-0.2460052453319685,0.06316599723503918,0.02530093403583991,0.07882437747020668,-0.20238398531686025,0.06691082695568935,0.08845824615280948,0.062299892431321426,-0.18173954642255707,0.07032041430077964,-0.2154024334018489,0.07605365456342489,-0.29740530371184776,0.0633767038290323,-0.15025930540222748,0.08292950734182564,-0.23934500942246587,0.058100546475757055,-0.14790413850366618,0.08145971466627244,-0.27543039175382017,0.05523643609708422,-0.17043991318148688,0.07827798322495501,-0.24744468607624417,0.06582521549458484,0.09117786768077976,0.06473361050921095,-0.23287257230087355,0.0677174197673592,0.11167052066297048,0.10191338560752622,-0.23773419846713303,0.061084007981751676,0.0015025061446467015,0.09762350251179025,-0.20112460612727157
