ChristianCella/workcell_optimization/results/data/screwing/turbo_ikflow/complete_beta_trend_wide.csv
piece1_joint1,piece1_joint2,piece1_joint3,piece1_joint4,piece2_joint1,piece2_joint2,piece2_joint3,piece2_joint4,piece3_joint1,piece3_joint2,piece3_joint3,piece3_joint4,piece4_joint1,piece4_joint2,piece4_joint3,piece4_joint4,piece5_joint1,piece5_joint2,piece5_joint3,piece5_joint4,piece6_joint1,piece6_joint2,piece6_joint3,piece6_joint4,piece7_joint1,piece7_joint2,piece7_joint3,piece7_joint4,piece8_joint1,piece8_joint2,piece8_joint3,piece8_joint4,piece9_joint1,piece9_joint2,piece9_joint3,piece9_joint4,piece10_joint1,piece10_joint2,piece10_joint3,piece10_joint4,piece11_joint1,piece11_joint2,piece11_joint3,piece11_joint4,piece12_joint1,piece12_joint2,piece12_joint3,piece12_joint4,piece13_joint1,piece13_joint2,piece13_joint3,piece13_joint4,piece14_joint1,piece14_joint2,piece14_joint3,piece14_joint4,piece15_joint1,piece15_joint2,piece15_joint3,piece15_joint4,piece16_joint1,piece16_joint2,piece16_joint3,piece16_joint4,piece17_joint1,piece17_joint2,piece17_joint3,piece17_joint4,piece18_joint1,piece18_joint2,piece18_joint3,piece18_joint4,piece19_joint1,piece19_joint2,piece19_joint3,piece19_joint4,piece20_joint1,piece20_joint2,piece20_joint3,piece20_joint4,piece21_joint1,piece21_joint2,piece21_joint3,piece21_joint4,piece22_joint1,piece22_joint2,piece22_joint3,piece22_joint4,piece23_joint1,piece23_joint2,piece23_joint3,piece23_joint4,piece24_joint1,piece24_joint2,piece24_joint3,piece24_joint4,piece25_joint1,piece25_joint2,piece25_joint3,piece25_joint4,piece26_joint1,piece26_joint2,piece26_joint3,piece26_joint4,piece27_joint1,piece27_joint2,piece27_joint3,piece27_joint4,piece28_joint1,piece28_joint2,piece28_joint3,piece28_joint4,piece29_joint1,piece29_joint2,piece29_joint3,piece29_joint4,piece30_joint1,piece30_joint2,piece30_joint3,piece30_joint4,piece31_joint1,piece31_joint2,piece31_joint3,piece31_joint4,piece32_joint1,piece32_joint2,piece32_joint3,piece32_joint4,piece33_joint1,piece33_joint2,piece33_joint3,piece33_joint4,piece34_joint1,piece34_joint2,piece34_joint3,piece34_joint4,piece35_joint1,piece35_joint2,piece35_joint3,piece35_joint4,piece36_joint1,piece36_joint2,piece36_joint3,piece36_joint4,piece37_joint1,piece37_joint2,piece37_joint3,piece37_joint4,piece38_joint1,piece38_joint2,piece38_joint3,piece38_joint4,piece39_joint1,piece39_joint2,piece39_joint3,piece39_joint4,piece40_joint1,piece40_joint2,piece40_joint3,piece40_joint4
100.0,100.0,100.0,100.0,0.0574605796624376,0.01949947003413919,0.01025664294534974,0.19865050509450383,100.0,100.0,100.0,100.0,0.20903952812804438,0.37572054986250597,0.3413096176396497,-0.15065287409605785,0.08585557247891556,-0.10823392207617133,0.16863169317162166,-0.16614623725205868,0.042525734659461786,-0.07941352627172546,-0.04634899513426779,0.06754179921283843,0.10904749234328669,0.09889063718535826,0.006884073978112321,0.209171652096822,100.0,100.0,100.0,100.0,0.021306609521115766,-0.024946518208336356,0.050095442480267094,0.1477705593019882,0.11155534304293213,-0.3252779935259576,0.1243480343335164,-0.467284041485725,0.07199168862583433,0.07199168862583433,0.07199168862583433,-0.18667301487409743,0.0036404544359127863,-0.20410261599383941,0.11661148622370363,-0.030695224649437934,100.0,100.0,100.0,100.0,100.0,100.0,100.0,100.0,-0.08043397847682575,0.021908500500812236,0.03529882232838025,0.24866948030850322,0.06699300773361083,0.11321244736458708,0.06365487788855977,0.06699300773361083,0.08040372021657279,0.40202786116752043,0.33390964597296946,0.02766023487553746,0.14056198945109522,0.13810514473243565,0.1288072069801827,-0.11265073342651921,0.10332763634522668,0.2487184109886677,-0.014089133565656442,0.34499095164902244,0.1425400472900793,-0.08809346512825336,-0.03020260275487506,0.061018264007259876,0.22950705737308844,0.23251054734753904,0.20504453486463253,0.22563357588497338,0.11209499475016882,0.1805633047547712,-0.061951541024651176,-0.04874316253729209,0.010506506304372047,0.4452713766989924,0.4653408758703037,-0.14906834299649702,0.12564920143974267,0.06770189692421262,0.19121132075240405,-0.15062715747984762,0.0713233359742995,-0.017884361821156824,-0.08599052723088696,0.0064957949883446,0.03735265532065336,-0.03612940161357701,0.2837109317392327,-0.09904668434817945,0.11288790838483748,0.07984640400106266,0.09876675871596635,0.24878713740001865,0.11857696203685106,-0.24301778569821542,0.19287210277129144,-0.17022460166962647,0.01960224852024806,0.339352040305659,0.1636150631742196,-0.10936118835558578,100.0,100.0,100.0,100.0,0.06008002138472565,0.04703026757821312,-0.12888784750907906,0.2081483986442414,-0.025770350671621305,-0.004665310993025043,0.0579384148741672,-0.1452365149905893,0.040685807850053476,0.2740428402213879,-0.07934369549690301,-0.004087276467150139,0.13625823938875953,-0.01479239746863182,0.2273483784185391,-0.08531708149296321,100.0,100.0,100.0,100.0,0.00977131366787954,-0.028791579842344664,-0.02684282897409374,0.23465004277323132,0.11761315868064592,0.4257754336236155,0.1940632155502725,-0.12898435849742917,0.27599235791575805,0.007268257551089827,0.007268257551089827,0.18064318696060574,0.10345089630229003,0.16216467669448753,-0.10087234424551514,-0.10087234424551514,0.032552372323217005,0.17134121524160434,0.4224520675348251,0.18599144597075262
100.0,100.0,100.0,100.0,0.0574605796624376,0.01949947003413919,0.01025664294534974,0.19865050509450383,100.0,100.0,100.0,100.0,0.20903952812804438,0.37572054986250597,0.3413096176396497,-0.15065287409605785,0.08585557247891556,-0.10823392207617133,0.16863169317162166,-0.16614623725205868,0.042525734659461786,-0.07941352627172546,-0.04634899513426779,0.06754179921283843,0.10904749234328669,0.09889063718535826,0.006884073978112321,0.209171652096822,100.0,100.0,100.0,100.0,0.021306609521115766,-0.024946518208336356,0.050095442480267094,0.1477705593019882,0.11155534304293213,-0.3252779935259576,0.1243480343335164,-0.467284041485725,0.07199168862583433,0.07199168862583433,0.07199168862583433,-0.18667301487409743,0.0036404544359127863,-0.20410261599383941,0.11661148622370363,-0.030695224649437934,100.0,100.0,100.0,100.0,100.0,100.0,100.0,100.0,-0.08043397847682575,0.021908500500812236,0.03529882232838025,0.24866948030850322,0.06699300773361083,0.11321244736458708,0.06365487788855977,0.06699300773361083,0.08040372021657279,0.40202786116752043,0.33390964597296946,0.02766023487553746,0.14056198945109522,0.13810514473243565,0.1288072069801827,-0.11265073342651921,0.10332763634522668,0.2487184109886677,-0.014089133565656442,0.34499095164902244,0.1425400472900793,-0.08809346512825336,-0.03020260275487506,0.061018264007259876,0.22950705737308844,0.23251054734753904,0.20504453486463253,0.22563357588497338,0.11209499475016882,0.1805633047547712,-0.061951541024651176,-0.04874316253729209,0.010506506304372047,0.4452713766989924,0.4653408758703037,-0.14906834299649702,0.12564920143974267,0.06770189692421262,0.19121132075240405,-0.15062715747984762,0.0713233359742995,-0.017884361821156824,-0.08599052723088696,0.0064957949883446,0.03735265532065336,-0.03612940161357701,0.2837109317392327,-0.09904668434817945,0.11288790838483748,0.07984640400106266,0.09876675871596635,0.24878713740001865,0.11857696203685106,-0.24301778569821542,0.19287210277129144,-0.17022460166962647,0.01960224852024806,0.339352040305659,0.1636150631742196,-0.10936118835558578,100.0,100.0,100.0,100.0,0.06008002138472565,0.04703026757821312,-0.12888784750907906,0.2081483986442414,-0.025770350671621305,-0.004665310993025043,0.0579384148741672,-0.1452365149905893,0.040685807850053476,0.2740428402213879,-0.07934369549690301,-0.004087276467150139,0.13625823938875953,-0.01479239746863182,0.2273483784185391,-0.08531708149296321,100.0,100.0,100.0,100.0,0.00977131366787954,-0.028791579842344664,-0.02684282897409374,0.23465004277323132,0.11761315868064592,0.4257754336236155,0.1940632155502725,-0.12898435849742917,0.27599235791575805,0.007268257551089827,0.007268257551089827,0.18064318696060574,0.10345089630229003,0.16216467669448753,-0.10087234424551514,-0.10087234424551514,0.032552372323217005,0.17134121524160434,0.4224520675348251,0.18599144597075262
0.07546754697866148,-0.03528758790244104,-0.08393888784217221,0.007318516477998874,100.0,100.0,100.0,100.0,0.3351050078049393,-0.2855635457308091,0.16135486458001183,0.14995139440248767,0.03787564150336309,-0.21012372204033164,-0.03558291761275684,0.13201750868491724,100.0,100.0,100.0,100.0,0.26331661848190235,0.0036957080711023382,-0.008409643651745952,-0.21197252956704044,0.10505384676157295,-0.0031718536297093633,-0.012219539365908083,0.024734566673516097,0.08448650617847897,0.1214841545322652,0.05669774837265719,0.020105094563705028,100.0,100.0,100.0,100.0,0.1409214608830145,-0.18597912849266512,-0.011420651918805272,0.17986515269472075,0.10902266703691349,0.4048241226863218,0.37722870373503375,-0.13178377022004822,0.0008684530341269148,0.08213932498815459,0.06300145176363638,0.13973448713570952,100.0,100.0,100.0,100.0,0.22368381036518453,-0.08387885576809631,0.06559364334649287,-0.2632151788443222,0.08524469349225279,-0.3608450736770911,0.16335355837566004,-0.21587896459971204,0.09631236254760224,-0.24351640500669014,0.06520779612083533,-0.23005446453090894,-0.0403013311918332,0.35880684525127643,0.4566090673365267,-0.10003460381744333,0.08005235735566252,0.19515999337875947,0.06872729099038585,0.1558376925662291,0.09905396026902064,-0.22037044470540312,0.05176396104961639,-0.10015257792216736,0.1295050336488193,0.04306286985963709,0.09077496849455108,0.006022196039518982,0.12272835792784775,0.06868807877992421,0.24138904650690138,-0.1854233759092875,-0.031073790040183298,-0.3876504685351909,-0.10749624221378443,-0.09587028427943656,0.24274450227179759,0.240274569386825,0.20137358995702245,-0.1045500153757918,0.18736896754867852,0.14228000408848127,0.10232541912904666,-0.0028811709002140203,0.09513079673335861,-0.12420687991753149,0.12137874491694421,-0.3744941766807897,100.0,100.0,100.0,100.0,0.06962728787126907,0.17273468905250952,0.08398990670149792,0.07818291039156283,0.15237023403139885,0.28781339225315244,0.21505350471001553,-0.15820316547429203,0.08453012080729932,0.0854217220011724,0.24204403974430494,0.09222285188786353,0.20172741094747013,-0.005457058712665247,0.04781520774562477,0.13406038994975206,0.12485599197641659,0.006059116439228365,-0.10376928687521958,0.006059116439228365,0.0330229833329902,0.35073269173060273,0.3711516716612616,-0.06346874562991064,0.19752255654998413,-0.00521215079519172,0.19188944829355814,-0.3747774763634039,0.2434338318738629,-0.012644121117714985,-0.012644121117714985,-0.13751417005672606,100.0,100.0,100.0,100.0,0.12286571373301922,-0.07480952513185413,0.09997913074196046,0.02570399794712014,0.05370890866220845,-0.12400049211465707,0.07769780177037883,-0.08054478131611786,0.24587318865246033,0.24389303203393148,0.06920137563766487,-0.37617489121992703,100.0,100.0,100.0,100.0,-0.0182244595825376,-0.2529159473034685,-0.019301797931350423,-0.15641236943126277
0.07546754697866148,-0.03528758790244104,-0.08393888784217221,0.007318516477998874,100.0,100.0,100.0,100.0,0.3351050078049393,-0.2855635457308091,0.16135486458001183,0.14995139440248767,0.03787564150336309,-0.21012372204033164,-0.03558291761275684,0.13201750868491724,100.0,100.0,100.0,100.0,0.26331661848190235,0.0036957080711023382,-0.008409643651745952,-0.21197252956704044,0.10505384676157295,-0.0031718536297093633,-0.012219539365908083,0.024734566673516097,0.08448650617847897,0.1214841545322652,0.05669774837265719,0.020105094563705028,100.0,100.0,100.0,100.0,0.1409214608830145,-0.18597912849266512,-0.011420651918805272,0.17986515269472075,0.10902266703691349,0.4048241226863218,0.37722870373503375,-0.13178377022004822,0.0008684530341269148,0.08213932498815459,0.06300145176363638,0.13973448713570952,100.0,100.0,100.0,100.0,0.22368381036518453,-0.08387885576809631,0.06559364334649287,-0.2632151788443222,0.08524469349225279,-0.3608450736770911,0.16335355837566004,-0.21587896459971204,0.09631236254760224,-0.24351640500669014,0.06520779612083533,-0.23005446453090894,-0.0403013311918332,0.35880684525127643,0.4566090673365267,-0.10003460381744333,0.08005235735566252,0.19515999337875947,0.06872729099038585,0.1558376925662291,0.09905396026902064,-0.22037044470540312,0.05176396104961639,-0.10015257792216736,0.1295050336488193,0.04306286985963709,0.09077496849455108,0.006022196039518982,0.12272835792784775,0.06868807877992421,0.24138904650690138,-0.1854233759092875,-0.031073790040183298,-0.3876504685351909,-0.10749624221378443,-0.09587028427943656,0.24274450227179759,0.240274569386825,0.20137358995702245,-0.1045500153757918,0.18736896754867852,0.14228000408848127,0.10232541912904666,-0.0028811709002140203,0.09513079673335861,-0.12420687991753149,0.12137874491694421,-0.3744941766807897,100.0,100.0,100.0,100.0,0.06962728787126907,0.17273468905250952,0.08398990670149792,0.07818291039156283,0.15237023403139885,0.28781339225315244,0.21505350471001553,-0.15820316547429203,0.08453012080729932,0.0854217220011724,0.24204403974430494,0.09222285188786353,0.20172741094747013,-0.005457058712665247,0.04781520774562477,0.13406038994975206,0.12485599197641659,0.006059116439228365,-0.10376928687521958,0.006059116439228365,0.0330229833329902,0.35073269173060273,0.3711516716612616,-0.06346874562991064,0.19752255654998413,-0.00521215079519172,0.19188944829355814,-0.3747774763634039,0.2434338318738629,-0.012644121117714985,-0.012644121117714985,-0.13751417005672606,100.0,100.0,100.0,100.0,0.12286571373301922,-0.07480952513185413,0.09997913074196046,0.02570399794712014,0.05370890866220845,-0.12400049211465707,0.07769780177037883,-0.08054478131611786,0.24587318865246033,0.24389303203393148,0.06920137563766487,-0.37617489121992703,100.0,100.0,100.0,100.0,-0.0182244595825376,-0.2529159473034685,-0.019301797931350423,-0.15641236943126277
0.023543732982180918,-0.4037512623990366,0.23669890858248346,0.2328007711252233,0.11942857155693368,-0.34581544478911264,0.17073531711603065,0.06779049153083974,0.0536298557999847,-0.06973844861667268,-0.02666335853550028,0.1754042784320623,0.07862758672317323,-0.17132934786805717,-0.02527136138536845,-0.02527136138536845,0.0881416124414265,-0.0028502215993843893,0.2219282104720086,-0.12458941431836466,0.04581367835871686,-0.07087426440623923,0.10713928285194185,-0.19609821059033167,0.1454412597424309,0.22352314139369972,0.06243671877899089,-0.11782640303824891,0.1328622947973616,0.4213641299540981,0.518704433028806,-0.15186882579046954,0.16907139185234635,0.12948563721022072,0.3812789876535698,-0.04658473967145152,0.07827636578208375,-0.00041998672130891604,-0.04371854656419594,-0.0011957512567397459,0.32402809101424557,0.1451863701728633,0.1451863701728633,0.38515247202747016,100.0,100.0,100.0,100.0,0.06896274906105576,0.20829176013796324,0.3941951011775617,0.008538137735650514,0.1918919980375613,-0.42864717005415826,0.12865375328274067,-0.15928221328772849,0.15300141016641164,-0.06624423107200147,-0.05258535842497039,0.1047924546794841,100.0,100.0,100.0,100.0,0.024964852173327987,-0.03987248814143576,0.1431836641281179,-0.03949462852115507,100.0,100.0,100.0,100.0,100.0,100.0,100.0,100.0,0.17127715676531188,0.1720377075361006,0.08052231828527173,-0.17816894480620493,0.12300061470554799,0.019707300748788858,0.08370572607944649,-0.013010364926868717,0.13535317422884258,-0.19266837173763796,0.08177471714590212,-0.09283871081113489,0.08543803992942285,-0.18865096476544224,0.128078088570177,-0.32645183735967265,0.22070562380724157,0.09168805912557118,0.19941557426950557,-0.08332973119958297,0.14157028005698177,-0.18531118021745707,-0.01465033270042404,0.02359548664656999,0.10566443245098853,-0.0964716812093209,0.06580786757705592,0.08259399171690135,0.09537200669585964,-0.1440840633590927,0.018831870102042993,0.05947503632995077,0.013740245054144153,-0.43293615448208583,0.12286719596869249,-0.19573443945172392,0.03814516187041367,0.4520667124880462,0.46496678179713335,-0.055035390045189855,0.08906203060289783,0.15037578147051273,0.14066686890161845,0.08199185962495512,0.09218848803326554,0.1560911205736997,0.05619820863462617,0.13566107858565438,0.1439496822428583,-0.21239219787971703,-0.027264473338830003,0.13531792056157885,0.07700682564960414,-0.09208087191109626,-0.019885793728583075,0.11219570927033427,0.023165265880793953,-0.11723188543020646,0.1006058140476773,-0.06840735145305658,0.1124721577723608,0.09729328710406149,0.17562496207931602,0.0942891373105649,0.24208890458927465,-0.39866736675269265,0.23434119676516274,-0.2835919381515132,100.0,100.0,100.0,100.0,0.1398461339186484,-0.25682753046392603,0.17269011200234335,-0.18180800626700383,0.13505133869676317,0.018848350207702584,0.2569217693365424,-0.2212835863531389,0.09922602743798017,-0.0686159188276221,0.1501420485268657,-0.021743682928635186
0.023543732982180918,-0.4037512623990366,0.23669890858248346,0.2328007711252233,0.11942857155693368,-0.34581544478911264,0.17073531711603065,0.06779049153083974,0.0536298557999847,-0.06973844861667268,-0.02666335853550028,0.1754042784320623,0.07862758672317323,-0.17132934786805717,-0.02527136138536845,-0.02527136138536845,0.0881416124414265,-0.0028502215993843893,0.2219282104720086,-0.12458941431836466,0.04581367835871686,-0.07087426440623923,0.10713928285194185,-0.19609821059033167,0.1454412597424309,0.22352314139369972,0.06243671877899089,-0.11782640303824891,0.1328622947973616,0.4213641299540981,0.518704433028806,-0.15186882579046954,0.16907139185234635,0.12948563721022072,0.3812789876535698,-0.04658473967145152,0.07827636578208375,-0.00041998672130891604,-0.04371854656419594,-0.0011957512567397459,0.32402809101424557,0.1451863701728633,0.1451863701728633,0.38515247202747016,100.0,100.0,100.0,100.0,0.06896274906105576,0.20829176013796324,0.3941951011775617,0.008538137735650514,0.1918919980375613,-0.42864717005415826,0.12865375328274067,-0.15928221328772849,0.15300141016641164,-0.06624423107200147,-0.05258535842497039,0.1047924546794841,100.0,100.0,100.0,100.0,0.024964852173327987,-0.03987248814143576,0.1431836641281179,-0.03949462852115507,100.0,100.0,100.0,100.0,100.0,100.0,100.0,100.0,0.17127715676531188,0.1720377075361006,0.08052231828527173,-0.17816894480620493,0.12300061470554799,0.019707300748788858,0.08370572607944649,-0.013010364926868717,0.13535317422884258,-0.19266837173763796,0.08177471714590212,-0.09283871081113489,0.08543803992942285,-0.18865096476544224,0.128078088570177,-0.32645183735967265,0.22070562380724157,0.09168805912557118,0.19941557426950557,-0.08332973119958297,0.14157028005698177,-0.18531118021745707,-0.01465033270042404,0.02359548664656999,0.10566443245098853,-0.0964716812093209,0.06580786757705592,0.08259399171690135,0.09537200669585964,-0.1440840633590927,0.018831870102042993,0.05947503632995077,0.013740245054144153,-0.43293615448208583,0.12286719596869249,-0.19573443945172392,0.03814516187041367,0.4520667124880462,0.46496678179713335,-0.055035390045189855,0.08906203060289783,0.15037578147051273,0.14066686890161845,0.08199185962495512,0.09218848803326554,0.1560911205736997,0.05619820863462617,0.13566107858565438,0.1439496822428583,-0.21239219787971703,-0.027264473338830003,0.13531792056157885,0.07700682564960414,-0.09208087191109626,-0.019885793728583075,0.11219570927033427,0.023165265880793953,-0.11723188543020646,0.1006058140476773,-0.06840735145305658,0.1124721577723608,0.09729328710406149,0.17562496207931602,0.0942891373105649,0.24208890458927465,-0.39866736675269265,0.23434119676516274,-0.2835919381515132,100.0,100.0,100.0,100.0,0.1398461339186484,-0.25682753046392603,0.17269011200234335,-0.18180800626700383,0.13505133869676317,0.018848350207702584,0.2569217693365424,-0.2212835863531389,0.09922602743798017,-0.0686159188276221,0.1501420485268657,-0.021743682928635186
0.17768854594599398,0.3362750511281191,0.37756632366715837,-0.056663995630717126,100.0,100.0,100.0,100.0,100.0,100.0,100.0,100.0,100.0,100.0,100.0,100.0,0.11259976497088679,0.08667112566103621,-0.07083885451740869,0.09453098397095047,0.21728280020546464,0.20907593430474783,0.14021080086774446,0.23691692446271428,0.11525437220440657,0.13871628140445305,0.13453868579940245,-0.03846500011448492,0.09084735630658952,-0.18539574478357967,0.0388912007364762,-0.18605231579393466,0.017724456164252254,-0.20078974664404883,0.1369526644952392,0.2524701168555111,0.11715705538024504,-0.22295975313880304,0.27485295519534003,-0.06948348298188847,0.028962855943920104,0.23009743819892672,0.1848382068448522,0.03340875883951665,0.12609378930287898,-0.19864199984019784,0.048811077082905815,0.099866954260356,0.18144341813191814,-0.294089967565158,0.07286036844489907,0.10639727996664392,0.3251822164968693,0.18373802356105562,0.0407297055183817,-0.12404714862384972,0.17901991821956603,0.28287888704482067,0.07686766134812573,-0.2404017446756295,0.08563372118638031,0.013247759055498378,0.16543042369130165,-0.16962742596221964,-0.01597160314608676,0.10185679778334238,0.08844370931390504,0.13667331047589648,0.20013069675749717,-0.29843405671756856,-0.027165452362797528,0.273280436566602,0.10475041640005549,-0.2637493421710526,0.09890341270809479,-0.07234905984620527,100.0,100.0,100.0,100.0,0.06404488550032905,0.0281850859693161,0.06241323874411958,-0.08740964306708532,0.3357101570448659,0.08468546844888483,-0.13754729035982027,-0.18762735352129942,0.17314827029034974,-0.13641194064820097,0.5895859880386708,0.188214561218432,0.12701354707935905,-0.009819445503827611,-0.12484582252152993,0.21431548922853222,0.1841942497862555,0.1841942497862555,0.1841942497862555,-0.39179202459639656,-0.08085375519082505,0.452305376802192,-0.08085375519082505,0.36221721274904467,0.08392160796075872,-0.17455120596450632,0.20259545980368185,-0.19278689985477782,100.0,100.0,100.0,100.0,0.19560665256108523,0.05843691892794048,0.009301848282237388,0.1091469471136951,0.11277674143767201,0.16677358415321886,0.21450747547703292,0.18900569831524627,0.19373768176551381,-0.0928090793182749,0.258327263107625,-0.19022645439723965,-0.0015852703006050406,-0.38587837128312497,0.297066992252517,-0.10191192548021684,100.0,100.0,100.0,100.0,0.10602175832336913,-0.012629165623411098,0.251646768940879,-0.05819261320549043,0.27520315151972236,-0.230526322349268,0.17220071855752683,-0.13259713053985256,0.029432121115414808,-0.018331302669583827,0.09957721083324235,-0.1612284708554843,0.22528549623678312,0.01911642052799889,0.0384277422951398,0.21086406542728447,0.11354380465776079,0.08346383544737501,0.05670488154120158,0.053297285572317915,0.10933249871210379,-0.037657092749522954,0.2026389561214162,0.2168471832100835,0.07976067846060092,-0.0579075950197023,0.09230826960927123,-0.01825863231359489
0.17768854594599398,0.3362750511281191,0.37756632366715837,-0.056663995630717126,100.0,100.0,100.0,100.0,100.0,100.0,100.0,100.0,100.0,100.0,100.0,100.0,0.11259976497088679,0.08667112566103621,-0.07083885451740869,0.09453098397095047,0.21728280020546464,0.20907593430474783,0.14021080086774446,0.23691692446271428,0.11525437220440657,0.13871628140445305,0.13453868579940245,-0.03846500011448492,0.09084735630658952,-0.18539574478357967,0.0388912007364762,-0.18605231579393466,0.017724456164252254,-0.20078974664404883,0.1369526644952392,0.2524701168555111,0.11715705538024504,-0.22295975313880304,0.27485295519534003,-0.06948348298188847,0.028962855943920104,0.23009743819892672,0.1848382068448522,0.03340875883951665,0.12609378930287898,-0.19864199984019784,0.048811077082905815,0.099866954260356,0.18144341813191814,-0.294089967565158,0.07286036844489907,0.10639727996664392,0.3251822164968693,0.18373802356105562,0.0407297055183817,-0.12404714862384972,0.17901991821956603,0.28287888704482067,0.07686766134812573,-0.2404017446756295,0.08563372118638031,0.013247759055498378,0.16543042369130165,-0.16962742596221964,-0.01597160314608676,0.10185679778334238,0.08844370931390504,0.13667331047589648,0.20013069675749717,-0.29843405671756856,-0.027165452362797528,0.273280436566602,0.10475041640005549,-0.2637493421710526,0.09890341270809479,-0.07234905984620527,100.0,100.0,100.0,100.0,0.06404488550032905,0.0281850859693161,0.06241323874411958,-0.08740964306708532,0.3357101570448659,0.08468546844888483,-0.13754729035982027,-0.18762735352129942,0.17314827029034974,-0.13641194064820097,0.5895859880386708,0.188214561218432,0.12701354707935905,-0.009819445503827611,-0.12484582252152993,0.21431548922853222,0.1841942497862555,0.1841942497862555,0.1841942497862555,-0.39179202459639656,-0.08085375519082505,0.452305376802192,-0.08085375519082505,0.36221721274904467,0.08392160796075872,-0.17455120596450632,0.20259545980368185,-0.19278689985477782,100.0,100.0,100.0,100.0,0.19560665256108523,0.05843691892794048,0.009301848282237388,0.1091469471136951,0.11277674143767201,0.16677358415321886,0.21450747547703292,0.18900569831524627,0.19373768176551381,-0.0928090793182749,0.258327263107625,-0.19022645439723965,-0.0015852703006050406,-0.38587837128312497,0.297066992252517,-0.10191192548021684,100.0,100.0,100.0,100.0,0.10602175832336913,-0.012629165623411098,0.251646768940879,-0.05819261320549043,0.27520315151972236,-0.230526322349268,0.17220071855752683,-0.13259713053985256,0.029432121115414808,-0.018331302669583827,0.09957721083324235,-0.1612284708554843,0.22528549623678312,0.01911642052799889,0.0384277422951398,0.21086406542728447,0.11354380465776079,0.08346383544737501,0.05670488154120158,0.053297285572317915,0.10933249871210379,-0.037657092749522954,0.2026389561214162,0.2168471832100835,0.07976067846060092,-0.0579075950197023,0.09230826960927123,-0.01825863231359489
0.11650255689150979,-0.17958045892617716,0.12236651657790597,-0.12729664929406553,0.14459687711323937,-0.40259700310766794,0.44117586032902134,0.3027095415460789,0.08140890307603907,-0.20378773962935412,0.18248248135108458,-0.39267289890054696,0.10232431936812547,0.5215565710175093,0.4613811353620203,0.05133894379842091,0.10404155551804892,-0.0827302426424708,0.09228503912213136,0.026669562232901407,0.12630659863364296,-0.031760031694004674,0.09618621649367785,-0.18866326047622017,0.037757303272817774,0.31424563076171563,0.09407330977291287,-0.19163453939927239,-0.1368401046644724,-0.1368401046644724,-0.1368401046644724,0.08120726848856605,0.10273715754493659,0.0777225769690368,-0.040873477852222936,0.24394945490988262,0.08198476641805524,0.2272206139379641,0.11378703896320082,0.33154191655628135,0.27997372296572454,0.004705200153649426,0.004705200153649426,0.004705200153649426,0.10579187223904013,-0.08960201627172419,0.22500258768934905,-0.10563507788326995,0.056417183265953394,0.0016518210846783819,0.15274496092338596,-0.21495183800844947,0.11094229780627474,-0.04025702923748702,0.1976094611619624,-0.417251540784271,0.21976484955569459,-0.2783993210755745,0.23378006995677203,-0.2374629755601912,0.07301478138139073,-0.010285382303467233,-0.02370874963290165,0.19229892001450863,100.0,100.0,100.0,100.0,0.16971196209781628,-0.1119999703282798,-0.02139037695779413,0.1874813842675553,0.1559155681597153,-0.17504801078285032,0.1360757015267843,-0.1796886611576692,0.15765867308378428,0.17286639417067154,0.0313010559733192,0.21055262400588473,100.0,100.0,100.0,100.0,0.22114390090560185,-0.37687862857341514,0.045964583765712136,-0.3624200435477774,0.0979582475044114,-0.09932369311293847,0.14050657061797048,-0.31100311408271697,0.1818491237011164,0.24252732315012743,0.1818491237011164,0.152071283184547,0.22733196244080475,0.10585044344431846,0.03013978680482146,-0.2904038697795712,0.03594493109647602,-0.1186622618209257,0.1410515971477307,-0.03597998045530493,0.05501243006016366,0.04446784363497153,0.09871763668370365,0.12160448530755708,0.08991293468996484,-0.10354249632311921,0.20184742978486575,-0.3525020180454266,0.1798100262934591,-0.002597716936519695,0.08483548471843524,0.017419824018661073,0.007049915599981256,-0.33034624825560244,0.08076409100018878,-0.3252573485430147,100.0,100.0,100.0,100.0,100.0,100.0,100.0,100.0,0.15367845070831654,0.08269379987161837,0.003786419953935735,0.18122203102957352,0.19744719468589728,0.10316970849398971,0.07539049640252281,0.16961451374011483,100.0,100.0,100.0,100.0,100.0,100.0,100.0,100.0,100.0,100.0,100.0,100.0,0.06840598398328127,-0.12375651245200951,0.14292377209639928,-0.2623431299629887,0.15455537894704952,-0.11867378526487665,0.2603948549728775,0.20965917041308246,100.0,100.0,100.0,100.0
0.11650255689150979,-0.17958045892617716,0.12236651657790597,-0.12729664929406553,0.14459687711323937,-0.40259700310766794,0.44117586032902134,0.3027095415460789,0.08140890307603907,-0.20378773962935412,0.18248248135108458,-0.39267289890054696,0.10232431936812547,0.5215565710175093,0.4613811353620203,0.05133894379842091,0.10404155551804892,-0.0827302426424708,0.09228503912213136,0.026669562232901407,0.12630659863364296,-0.031760031694004674,0.09618621649367785,-0.18866326047622017,0.037757303272817774,0.31424563076171563,0.09407330977291287,-0.19163453939927239,-0.1368401046644724,-0.1368401046644724,-0.1368401046644724,0.08120726848856605,0.10273715754493659,0.0777225769690368,-0.040873477852222936,0.24394945490988262,0.08198476641805524,0.2272206139379641,0.11378703896320082,0.33154191655628135,0.27997372296572454,0.004705200153649426,0.004705200153649426,0.004705200153649426,0.10579187223904013,-0.08960201627172419,0.22500258768934905,-0.10563507788326995,0.056417183265953394,0.0016518210846783819,0.15274496092338596,-0.21495183800844947,0.11094229780627474,-0.04025702923748702,0.1976094611619624,-0.417251540784271,0.21976484955569459,-0.2783993210755745,0.23378006995677203,-0.2374629755601912,0.07301478138139073,-0.010285382303467233,-0.02370874963290165,0.19229892001450863,100.0,100.0,100.0,100.0,0.16971196209781628,-0.1119999703282798,-0.02139037695779413,0.1874813842675553,0.1559155681597153,-0.17504801078285032,0.1360757015267843,-0.1796886611576692,0.15765867308378428,0.17286639417067154,0.0313010559733192,0.21055262400588473,100.0,100.0,100.0,100.0,0.22114390090560185,-0.37687862857341514,0.045964583765712136,-0.3624200435477774,0.0979582475044114,-0.09932369311293847,0.14050657061797048,-0.31100311408271697,0.1818491237011164,0.24252732315012743,0.1818491237011164,0.152071283184547,0.22733196244080475,0.10585044344431846,0.03013978680482146,-0.2904038697795712,0.03594493109647602,-0.1186622618209257,0.1410515971477307,-0.03597998045530493,0.05501243006016366,0.04446784363497153,0.09871763668370365,0.12160448530755708,0.08991293468996484,-0.10354249632311921,0.20184742978486575,-0.3525020180454266,0.1798100262934591,-0.002597716936519695,0.08483548471843524,0.017419824018661073,0.007049915599981256,-0.33034624825560244,0.08076409100018878,-0.3252573485430147,100.0,100.0,100.0,100.0,100.0,100.0,100.0,100.0,0.15367845070831654,0.08269379987161837,0.003786419953935735,0.18122203102957352,0.19744719468589728,0.10316970849398971,0.07539049640252281,0.16961451374011483,100.0,100.0,100.0,100.0,100.0,100.0,100.0,100.0,100.0,100.0,100.0,100.0,0.06840598398328127,-0.12375651245200951,0.14292377209639928,-0.2623431299629887,0.15455537894704952,-0.11867378526487665,0.2603948549728775,0.20965917041308246,100.0,100.0,100.0,100.0
-0.035616641579098794,-0.035616641579098794,-0.035616641579098794,0.0954731028611562,0.14323249984732925,-0.17404039464441473,0.23426753627906244,0.15555882906082547,0.20919374602611093,-0.3788497017196733,0.09179367210374542,-0.3061782954239596,0.11949130970353439,0.12979422507932112,0.14169396751045996,-0.07978927543429418,0.15801913924709143,-0.30331036091451385,0.23346687744964895,-0.16228809321763327,0.02695526351954334,-0.044254299687644466,0.10559923222713899,-0.155124225909595,0.10465110012578793,0.0873400661608158,0.16339951270911518,0.09684054869537956,0.1866155317636136,0.336233827703329,0.08364196995639395,0.0633618731291955,100.0,100.0,100.0,100.0,0.06910950394163622,-0.3076742571917525,0.14407234361210258,-0.09538616108274715,0.09411444084316159,0.03128793244150713,0.025326577142754658,-0.32578768060907604,100.0,100.0,100.0,100.0,0.2012226628439784,-0.23549778045225644,0.1563036193811188,-0.1830872987504577,0.045028017812662996,-0.1849306119914812,0.08101944322272851,-0.23286042323419023,0.1854175366637342,0.1799299285871929,0.11707883904560429,-0.041635561003102006,100.0,100.0,100.0,100.0,-0.020050277101992288,-0.18468518879177526,0.03748425530802798,-0.07461468022120146,100.0,100.0,100.0,100.0,100.0,100.0,100.0,100.0,0.09106988455611505,0.08588498057266106,0.11502571904519467,-0.3866797866809438,0.1325407025989757,-0.1724774105037587,0.04746088826968978,0.010916042254704668,0.21564397137761274,0.04973998882687748,0.1689204042476993,-0.3229253478067179,0.06248815015537988,-0.19289451746364594,0.07906359783717494,-0.39821491845217855,0.14716324255360452,0.08536572333212616,0.22663546028886875,-0.285337265389038,0.2031697896344215,0.15827322357845225,0.1506886802069082,0.05743217829477445,0.0983368566390345,-0.19639796898881912,0.1615292211415007,-0.41240441256784877,0.04139197968841455,0.1284024442679233,-0.1295253089874987,0.2556314739884183,0.09755473692105332,-0.19276048979431762,0.043784198743678726,0.2041119149426619,0.0817870098977384,-0.22387731326042887,0.10820852449734603,-0.3475977697589193,0.14371838674629844,0.04592871365358831,0.13714712864414527,-0.38817391032910203,0.03509776118520651,0.13134182436869155,-0.04172988996366991,0.3059964240315385,0.1472237863961568,0.002808725866868816,0.15530058605059788,-0.40438562676992884,0.1940354170033615,-0.3329724482453168,0.08678501428626428,0.08728131979468028,0.10077238590085229,0.022143104214434495,0.17741444223425276,-0.3952401342714189,0.2631055331328034,0.20521247944818066,0.14021313160735432,-0.32240089874312783,0.12084563032994028,-0.31197698655357814,0.07274194343251746,-0.36311878322359464,0.06470557161369576,-0.09202969396255462,0.15693009705158595,-0.29439906993038484,0.06685385156005096,-0.2740699763356505,0.06347115224631965,0.21195709011956332,0.11543931334183787,0.10610797840046977,0.12672856757795375,-0.15684698444995637,0.16937863219096277,-0.19784692778076313,0.06033695019893473,-0.21422616750859091
-0.035616641579098794,-0.035616641579098794,-0.035616641579098794,0.0954731028611562,0.14323249984732925,-0.17404039464441473,0.23426753627906244,0.15555882906082547,0.20919374602611093,-0.3788497017196733,0.09179367210374542,-0.3061782954239596,0.11949130970353439,0.12979422507932112,0.14169396751045996,-0.07978927543429418,0.15801913924709143,-0.30331036091451385,0.23346687744964895,-0.16228809321763327,0.02695526351954334,-0.044254299687644466,0.10559923222713899,-0.155124225909595,0.10465110012578793,0.0873400661608158,0.16339951270911518,0.09684054869537956,0.1866155317636136,0.336233827703329,0.08364196995639395,0.0633618731291955,100.0,100.0,100.0,100.0,0.06910950394163622,-0.3076742571917525,0.14407234361210258,-0.09538616108274715,0.09411444084316159,0.03128793244150713,0.025326577142754658,-0.32578768060907604,100.0,100.0,100.0,100.0,0.2012226628439784,-0.23549778045225644,0.1563036193811188,-0.1830872987504577,0.045028017812662996,-0.1849306119914812,0.08101944322272851,-0.23286042323419023,0.1854175366637342,0.1799299285871929,0.11707883904560429,-0.041635561003102006,100.0,100.0,100.0,100.0,-0.020050277101992288,-0.18468518879177526,0.03748425530802798,-0.07461468022120146,100.0,100.0,100.0,100.0,100.0,100.0,100.0,100.0,0.09106988455611505,0.08588498057266106,0.11502571904519467,-0.3866797866809438,0.1325407025989757,-0.1724774105037587,0.04746088826968978,0.010916042254704668,0.21564397137761274,0.04973998882687748,0.1689204042476993,-0.3229253478067179,0.06248815015537988,-0.19289451746364594,0.07906359783717494,-0.39821491845217855,0.14716324255360452,0.08536572333212616,0.22663546028886875,-0.285337265389038,0.2031697896344215,0.15827322357845225,0.1506886802069082,0.05743217829477445,0.0983368566390345,-0.19639796898881912,0.1615292211415007,-0.41240441256784877,0.04139197968841455,0.1284024442679233,-0.1295253089874987,0.2556314739884183,0.09755473692105332,-0.19276048979431762,0.043784198743678726,0.2041119149426619,0.0817870098977384,-0.22387731326042887,0.10820852449734603,-0.3475977697589193,0.14371838674629844,0.04592871365358831,0.13714712864414527,-0.38817391032910203,0.03509776118520651,0.13134182436869155,-0.04172988996366991,0.3059964240315385,0.1472237863961568,0.002808725866868816,0.15530058605059788,-0.40438562676992884,0.1940354170033615,-0.3329724482453168,0.08678501428626428,0.08728131979468028,0.10077238590085229,0.022143104214434495,0.17741444223425276,-0.3952401342714189,0.2631055331328034,0.20521247944818066,0.14021313160735432,-0.32240089874312783,0.12084563032994028,-0.31197698655357814,0.07274194343251746,-0.36311878322359464,0.06470557161369576,-0.09202969396255462,0.15693009705158595,-0.29439906993038484,0.06685385156005096,-0.2740699763356505,0.06347115224631965,0.21195709011956332,0.11543931334183787,0.10610797840046977,0.12672856757795375,-0.15684698444995637,0.16937863219096277,-0.19784692778076313,0.06033695019893473,-0.21422616750859091
0.1286021496426004,-0.19277623427731447,0.11239001909184834,-0.23219851146797693,0.08211867783198962,0.08490085431960287,0.18145905634081652,-0.3518409599170651,0.1734526721876122,-0.01644087835358915,0.14982860928652603,-0.45673073384749435,0.0855728483292349,-0.14831807345758125,0.05857772059907988,-0.33166536048880974,0.012382113612029368,0.14916249993550468,-0.14455953694325674,0.1487397568538242,0.04663890582296114,-0.350831720544759,0.09031239064806712,0.25839290484827565,0.23390088968011705,0.2112389675396728,-0.056589641254375614,-0.47101368284965706,0.060646757439065974,-0.07419834541425399,0.15168775295245973,-0.18428599175597227,0.06672694032627072,-0.06492650054091259,0.1877804582266529,-0.09408332553208164,0.052776006154693925,-0.40133529200732454,0.16305145960727568,-0.3489261357472953,0.08832746812144417,-0.23498978138829163,0.122043750067248,-0.3540505139203721,0.23059752996527455,0.23983865420784595,-0.018284019939706693,-0.4588324927710756,0.22900610759608941,0.15347794158686584,0.1919679331957472,-0.43963442585256457,0.0414713735267518,-0.044321476920775635,0.07216423589008397,0.08152273223890227,0.07416060702027072,-0.3110783847039134,0.15576853742027458,-0.40670062894388775,0.2183467079182705,0.1213635210501117,0.2189152576856076,-0.38924097550038506,0.1426747286568527,-0.16329291231539234,0.06679419143120274,0.07687756681494855,0.22380808263303534,-0.26614466045486224,0.056254696826473015,0.15347259701346613,0.11929109860998624,-0.3103385257656183,0.15019105514228787,-0.47516067265839734,0.23895037783070294,0.16101043257188066,-0.14353247348595954,-0.2996900960185608,-0.03399427437071635,-0.35704719204248603,0.0023802975457549586,-0.17924585977951524,100.0,100.0,100.0,100.0,0.09075612877209732,-0.029298270954244574,0.09401527730134954,-0.33007126479524207,0.1950992640049168,-0.09828528488356539,0.026662440425969318,-0.02189716873295468,100.0,100.0,100.0,100.0,0.24496700187041626,0.13400705608158586,-0.06648550624363844,0.005721874280485971,0.04955053299502706,-0.03284595593747352,-0.01372035335803588,0.19831984248610027,0.21146490265120402,0.09251308354856397,0.19183851882558126,-0.4118885818509298,0.22233748004994774,-0.293425217223914,-0.10896705890726707,0.22353952022731624,0.0888831438803266,0.4742546472440162,0.409616875357005,-0.18548119586926332,0.030266706101811792,-0.09896046953748033,0.018907572323180792,0.14542910970968875,0.17471933794304795,-0.30492110628922436,0.15178057276833065,0.15185158904060453,0.13033656759332476,0.3957754685106154,0.28349112735913423,-0.10789546317330959,0.091937669104707,-0.2770082494935259,0.11488087407771286,-0.12236168008289194,0.1467251264579018,-0.04697485479102875,-0.015526877384987522,0.007609744205283528,0.060127955584272356,-0.4556461717019515,0.20361226366474036,-0.39252550116796836,0.027077846832208333,-0.4832539443654969,0.08313041784482669,0.16739299007841013,0.17927202168151235,0.3922195631992,0.08611347438320689,0.1322618349951386,0.015273143131054767,0.31532789142133316,0.19815950993500236,-0.013114308142958823,0.10038431792147462,-0.0555911304984627,0.2070318226500649,-0.04803775359157278
0.1286021496426004,-0.19277623427731447,0.11239001909184834,-0.23219851146797693,0.08211867783198962,0.08490085431960287,0.18145905634081652,-0.3518409599170651,0.1734526721876122,-0.01644087835358915,0.14982860928652603,-0.45673073384749435,0.0855728483292349,-0.14831807345758125,0.05857772059907988,-0.33166536048880974,0.012382113612029368,0.14916249993550468,-0.14455953694325674,0.1487397568538242,0.04663890582296114,-0.350831720544759,0.09031239064806712,0.25839290484827565,0.23390088968011705,0.2112389675396728,-0.056589641254375614,-0.47101368284965706,0.060646757439065974,-0.07419834541425399,0.15168775295245973,-0.18428599175597227,0.06672694032627072,-0.06492650054091259,0.1877804582266529,-0.09408332553208164,0.052776006154693925,-0.40133529200732454,0.16305145960727568,-0.3489261357472953,0.08832746812144417,-0.23498978138829163,0.122043750067248,-0.3540505139203721,0.23059752996527455,0.23983865420784595,-0.018284019939706693,-0.4588324927710756,0.22900610759608941,0.15347794158686584,0.1919679331957472,-0.43963442585256457,0.0414713735267518,-0.044321476920775635,0.07216423589008397,0.08152273223890227,0.07416060702027072,-0.3110783847039134,0.15576853742027458,-0.40670062894388775,0.2183467079182705,0.1213635210501117,0.2189152576856076,-0.38924097550038506,0.1426747286568527,-0.16329291231539234,0.06679419143120274,0.07687756681494855,0.22380808263303534,-0.26614466045486224,0.056254696826473015,0.15347259701346613,0.11929109860998624,-0.3103385257656183,0.15019105514228787,-0.47516067265839734,0.23895037783070294,0.16101043257188066,-0.14353247348595954,-0.2996900960185608,-0.03399427437071635,-0.35704719204248603,0.0023802975457549586,-0.17924585977951524,100.0,100.0,100.0,100.0,0.09075612877209732,-0.029298270954244574,0.09401527730134954,-0.33007126479524207,0.1950992640049168,-0.09828528488356539,0.026662440425969318,-0.02189716873295468,100.0,100.0,100.0,100.0,0.24496700187041626,0.13400705608158586,-0.06648550624363844,0.005721874280485971,0.04955053299502706,-0.03284595593747352,-0.01372035335803588,0.19831984248610027,0.21146490265120402,0.09251308354856397,0.19183851882558126,-0.4118885818509298,0.22233748004994774,-0.293425217223914,-0.10896705890726707,0.22353952022731624,0.0888831438803266,0.4742546472440162,0.409616875357005,-0.18548119586926332,0.030266706101811792,-0.09896046953748033,0.018907572323180792,0.14542910970968875,0.17471933794304795,-0.30492110628922436,0.15178057276833065,0.15185158904060453,0.13033656759332476,0.3957754685106154,0.28349112735913423,-0.10789546317330959,0.091937669104707,-0.2770082494935259,0.11488087407771286,-0.12236168008289194,0.1467251264579018,-0.04697485479102875,-0.015526877384987522,0.007609744205283528,0.060127955584272356,-0.4556461717019515,0.20361226366474036,-0.39252550116796836,0.027077846832208333,-0.4832539443654969,0.08313041784482669,0.16739299007841013,0.17927202168151235,0.3922195631992,0.08611347438320689,0.1322618349951386,0.015273143131054767,0.31532789142133316,0.19815950993500236,-0.013114308142958823,0.10038431792147462,-0.0555911304984627,0.2070318226500649,-0.04803775359157278
0.20536288233070416,-0.3991360267969634,0.17423761888444833,-0.26936947554786134,0.18130519928058508,-0.08984250418320051,0.06500204282083293,0.09838962738304863,0.07180350962633883,0.05294027329348562,0.1678258359500102,0.08872744815176828,0.011208269989408236,-0.033055659819114694,-0.027019828854952684,0.14944541305882214,-0.06294299191960426,-0.4201163744642,0.012562165541677897,-0.24865870538396911,0.15215016603558087,-0.01110274596627147,0.2859356683412883,0.19615487494909895,0.08995533699850972,-0.23158917757078773,0.09299480295052445,-0.20540605542628526,0.003587730551848408,-0.2509862695585848,0.2516933206451446,-0.23727932989075312,100.0,100.0,100.0,100.0,0.11104125606287518,-0.2898961471360546,0.2457149575467889,0.11261691271908489,0.05693876420950715,0.4768497331165905,0.4017533340592725,-0.05336435724758089,0.20954306085962296,-0.2414828364268003,0.20720271327870887,0.01730119087003863,0.06593689481197293,0.051148953394525964,0.10488474694466149,-0.3799493608183052,0.04598010858966303,0.0033607506763558732,0.08008637279214206,0.08401127811029797,0.10337951820566242,-0.24992600587843353,0.12340257327687194,-0.045931162752650356,0.14332143445281806,-0.17357826136651577,0.1601207832183004,-0.19759305977971595,0.09162166820159436,0.03392931553934325,0.20725481886300345,-0.09387007044596152,0.06040063809570432,-0.03939041304662869,-0.017831527090413204,-0.10385915132962409,0.1639573064310757,-0.33832383310920827,0.07781299652253315,-0.2150588645564957,0.07952068418361014,-0.09419808815448448,0.1459324228834762,-0.11860306658322572,0.06593929772773065,-0.39607269614987733,0.20684792885807035,-0.3282020540552263,0.0829121074648815,0.043540729954629646,0.23706639257376477,-0.05079726210618246,0.16249137444930195,0.18047528440528887,0.29053134598540015,-0.42742676052558654,0.22916477531795898,-0.0869865874352109,0.5125847722049011,0.023569118159092156,0.08968306952520852,0.04755641316090012,-0.08693184264354853,0.11247192463955873,-0.07743946042766461,-0.3926225339571527,0.036785028655342125,-0.23438695998056275,0.16904563414559534,-0.3863219901390793,0.21638199036504524,-0.26687680246263445,0.032969255217385696,0.27177649132628307,0.2069643749601106,-0.3642377141437072,0.16929488358538652,0.19145000432295411,0.19444706884114663,0.15493957007199322,-0.029915211681991127,0.15565547736321514,0.02529491804744508,0.2943796810742266,0.09781822013746609,-0.2905570657542312,0.11838802507382648,-0.08279482696558665,0.11989229925063535,-0.190066831831702,0.23285466993926518,-0.15338083845217554,0.03702727545189906,-0.01434346792767735,0.2509392855126773,-0.40715798140228493,0.07904068803537356,-0.4982422455799741,-0.010898190832829856,0.34101197144881235,0.12540279782603475,0.07866938510564572,0.45261335259528285,0.07038678319445844,0.2186199074874181,-0.01137387937289961,0.23914138207005542,-0.4312052477388884,0.10208018606583558,-0.06726984026586988,0.12545147282036606,-0.447119598296491,0.2396169038860647,-0.25910482348578084,-0.1253672595784543,0.211710846103464,0.09530049346795585,-0.16910936762573564,0.28218010902068086,-0.14658612930238288,-0.003245150854922163,-0.13920036401705072,0.24769558785583082,-0.15279805140745162
0.20536288233070416,-0.3991360267969634,0.17423761888444833,-0.26936947554786134,0.18130519928058508,-0.08984250418320051,0.06500204282083293,0.09838962738304863,0.07180350962633883,0.05294027329348562,0.1678258359500102,0.08872744815176828,0.011208269989408236,-0.033055659819114694,-0.027019828854952684,0.14944541305882214,-0.06294299191960426,-0.4201163744642,0.012562165541677897,-0.24865870538396911,0.15215016603558087,-0.01110274596627147,0.2859356683412883,0.19615487494909895,0.08995533699850972,-0.23158917757078773,0.09299480295052445,-0.20540605542628526,0.003587730551848408,-0.2509862695585848,0.2516933206451446,-0.23727932989075312,100.0,100.0,100.0,100.0,0.11104125606287518,-0.2898961471360546,0.2457149575467889,0.11261691271908489,0.05693876420950715,0.4768497331165905,0.4017533340592725,-0.05336435724758089,0.20954306085962296,-0.2414828364268003,0.20720271327870887,0.01730119087003863,0.06593689481197293,0.051148953394525964,0.10488474694466149,-0.3799493608183052,0.04598010858966303,0.0033607506763558732,0.08008637279214206,0.08401127811029797,0.10337951820566242,-0.24992600587843353,0.12340257327687194,-0.045931162752650356,0.14332143445281806,-0.17357826136651577,0.1601207832183004,-0.19759305977971595,0.09162166820159436,0.03392931553934325,0.20725481886300345,-0.09387007044596152,0.06040063809570432,-0.03939041304662869,-0.017831527090413204,-0.10385915132962409,0.1639573064310757,-0.33832383310920827,0.07781299652253315,-0.2150588645564957,0.07952068418361014,-0.09419808815448448,0.1459324228834762,-0.11860306658322572,0.06593929772773065,-0.39607269614987733,0.20684792885807035,-0.3282020540552263,0.0829121074648815,0.043540729954629646,0.23706639257376477,-0.05079726210618246,0.16249137444930195,0.18047528440528887,0.29053134598540015,-0.42742676052558654,0.22916477531795898,-0.0869865874352109,0.5125847722049011,0.023569118159092156,0.08968306952520852,0.04755641316090012,-0.08693184264354853,0.11247192463955873,-0.07743946042766461,-0.3926225339571527,0.036785028655342125,-0.23438695998056275,0.16904563414559534,-0.3863219901390793,0.21638199036504524,-0.26687680246263445,0.032969255217385696,0.27177649132628307,0.2069643749601106,-0.3642377141437072,0.16929488358538652,0.19145000432295411,0.19444706884114663,0.15493957007199322,-0.029915211681991127,0.15565547736321514,0.02529491804744508,0.2943796810742266,0.09781822013746609,-0.2905570657542312,0.11838802507382648,-0.08279482696558665,0.11989229925063535,-0.190066831831702,0.23285466993926518,-0.15338083845217554,0.03702727545189906,-0.01434346792767735,0.2509392855126773,-0.40715798140228493,0.07904068803537356,-0.4982422455799741,-0.010898190832829856,0.34101197144881235,0.12540279782603475,0.07866938510564572,0.45261335259528285,0.07038678319445844,0.2186199074874181,-0.01137387937289961,0.23914138207005542,-0.4312052477388884,0.10208018606583558,-0.06726984026586988,0.12545147282036606,-0.447119598296491,0.2396169038860647,-0.25910482348578084,-0.1253672595784543,0.211710846103464,0.09530049346795585,-0.16910936762573564,0.28218010902068086,-0.14658612930238288,-0.003245150854922163,-0.13920036401705072,0.24769558785583082,-0.15279805140745162
-0.04440041842652366,-0.31500417974487427,0.19133737412614826,-0.22657578116297372,0.1904739429793592,-0.08728744417050438,0.22678364353971397,-0.19111886772253728,0.05289453646426069,0.3321210093457659,0.32301596707327374,0.02845547022561444,0.14452557281794814,0.22536472566264068,0.14452557281794814,0.17625489693286767,0.16101055791984376,0.014772111020833211,0.22849892720210868,0.16703819568498302,0.15902079363194374,-0.3432515175680635,0.036298668713403315,0.1549252482584565,0.05377422645009258,0.03840585882163778,-0.054618777554710396,0.1897312063679768,0.1793834527675887,0.131572374266509,-0.09563753861783081,-0.4198650396404049,0.10529746314694413,0.010571077732223932,0.008293745018237991,0.005353628719977688,0.16241427146725923,-0.20302772933923754,-0.01767800315569089,0.10716195093181802,0.08919043673556253,-0.00969482334351643,0.24631310528883954,-0.348739505837394,0.0526735008812792,-0.40550829449674347,0.2182836254590161,-0.3276623762180412,0.08321574743502842,-0.2715150474615353,0.1916385179866373,-0.2941351129959416,0.14122756158757327,-0.08370097404307161,0.02395731659801778,-0.20704865415946233,-0.003683897377531893,0.05727980023127137,0.1959375926611519,0.15187465427576044,0.23208693855995266,-0.20629386995469073,0.0006255227078896808,0.14299067022674006,0.15525367188342531,-0.057262699709938525,-0.08722470870295211,-0.0017455608132324746,0.1262241804793606,-0.3581946733860235,0.13909384877406736,-0.43410257029611804,0.04071948766004995,0.10890497761373848,-0.09058820337712531,0.01344922130028929,0.09640784686496559,-0.35430374611093873,0.17354822289611452,-0.23466457409996394,0.05113411150063634,-0.06963150136240476,0.11870972788468279,-0.24866750147338423,0.05437061589043575,0.017443189112614763,0.11508022310154989,-0.43488665630918955,0.17296986263977615,-0.2947661227194517,0.12041482399130862,-0.4554511962890386,-0.023311099415460335,-0.36270930492619335,0.023434847186553018,-0.2153967860935798,0.221697251009531,0.010272141046195307,-0.03866576683509558,0.22629472442044102,0.04734376142676585,-0.3330530273118631,0.23129254432513927,-0.2746465706777732,0.0761507666904635,-0.29950702694353853,0.11253493887834373,-0.19364937641775146,0.13789054811266632,0.13021253141230613,-0.07433432641433936,0.139312599949274,0.06032299891608632,0.16154821248514095,0.07948970084247436,-0.2568796729621654,0.04598076340326346,-0.24422365088584944,0.18685596188987227,-0.3070806638352335,0.06965314395127108,-0.3412785582095592,0.1971826679685998,-0.28331828169001444,0.03109965650819512,0.09694728937120504,-0.11013863495420982,0.17021065913700262,0.13721738464411093,-0.2125285681732833,0.11316826790385023,-0.17399816633839194,0.0517612909479607,0.34538873033151707,0.11969217800835943,0.2139850813373837,0.14990575995318614,-0.3718934146265184,-0.025973177721623678,-0.23115546634168416,0.19439476585531362,-0.2503069859861433,-0.10063507661345956,0.193521643704596,0.11292116116174376,-0.280157042739487,0.0753684517734041,-0.1637042709144788,0.2180736338600456,0.20293700594219205,-0.1672654075856762,0.15189893845249164,0.002032170470068047,-0.4505347296344274,0.14540998698257795,-0.3205170183787597,0.09030953866849707,-0.3037946270700378,0.08661688050348373,-0.4272015685612115
-0.04440041842652366,-0.31500417974487427,0.19133737412614826,-0.22657578116297372,0.1904739429793592,-0.08728744417050438,0.22678364353971397,-0.19111886772253728,0.05289453646426069,0.3321210093457659,0.32301596707327374,0.02845547022561444,0.14452557281794814,0.22536472566264068,0.14452557281794814,0.17625489693286767,0.16101055791984376,0.014772111020833211,0.22849892720210868,0.16703819568498302,0.15902079363194374,-0.3432515175680635,0.036298668713403315,0.1549252482584565,0.05377422645009258,0.03840585882163778,-0.054618777554710396,0.1897312063679768,0.1793834527675887,0.131572374266509,-0.09563753861783081,-0.4198650396404049,0.10529746314694413,0.010571077732223932,0.008293745018237991,0.005353628719977688,0.16241427146725923,-0.20302772933923754,-0.01767800315569089,0.10716195093181802,0.08919043673556253,-0.00969482334351643,0.24631310528883954,-0.348739505837394,0.0526735008812792,-0.40550829449674347,0.2182836254590161,-0.3276623762180412,0.08321574743502842,-0.2715150474615353,0.1916385179866373,-0.2941351129959416,0.14122756158757327,-0.08370097404307161,0.02395731659801778,-0.20704865415946233,-0.003683897377531893,0.05727980023127137,0.1959375926611519,0.15187465427576044,0.23208693855995266,-0.20629386995469073,0.0006255227078896808,0.14299067022674006,0.15525367188342531,-0.057262699709938525,-0.08722470870295211,-0.0017455608132324746,0.1262241804793606,-0.3581946733860235,0.13909384877406736,-0.43410257029611804,0.04071948766004995,0.10890497761373848,-0.09058820337712531,0.01344922130028929,0.09640784686496559,-0.35430374611093873,0.17354822289611452,-0.23466457409996394,0.05113411150063634,-0.06963150136240476,0.11870972788468279,-0.24866750147338423,0.05437061589043575,0.017443189112614763,0.11508022310154989,-0.43488665630918955,0.17296986263977615,-0.2947661227194517,0.12041482399130862,-0.4554511962890386,-0.023311099415460335,-0.36270930492619335,0.023434847186553018,-0.2153967860935798,0.221697251009531,0.010272141046195307,-0.03866576683509558,0.22629472442044102,0.04734376142676585,-0.3330530273118631,0.23129254432513927,-0.2746465706777732,0.0761507666904635,-0.29950702694353853,0.11253493887834373,-0.19364937641775146,0.13789054811266632,0.13021253141230613,-0.07433432641433936,0.139312599949274,0.06032299891608632,0.16154821248514095,0.07948970084247436,-0.2568796729621654,0.04598076340326346,-0.24422365088584944,0.18685596188987227,-0.3070806638352335,0.06965314395127108,-0.3412785582095592,0.1971826679685998,-0.28331828169001444,0.03109965650819512,0.09694728937120504,-0.11013863495420982,0.17021065913700262,0.13721738464411093,-0.2125285681732833,0.11316826790385023,-0.17399816633839194,0.0517612909479607,0.34538873033151707,0.11969217800835943,0.2139850813373837,0.14990575995318614,-0.3718934146265184,-0.025973177721623678,-0.23115546634168416,0.19439476585531362,-0.2503069859861433,-0.10063507661345956,0.193521643704596,0.11292116116174376,-0.280157042739487,0.0753684517734041,-0.1637042709144788,0.2180736338600456,0.20293700594219205,-0.1672654075856762,0.15189893845249164,0.002032170470068047,-0.4505347296344274,0.14540998698257795,-0.3205170183787597,0.09030953866849707,-0.3037946270700378,0.08661688050348373,-0.4272015685612115
0.09848382068241596,-0.18445994741275784,0.2276720273198385,-0.13423253298991542,0.0810203640445567,0.08043104289548958,0.11900997344420922,-0.29203809053619467,-0.013902734770488482,-0.3942783644737287,0.020428695768323568,-0.23124330287142925,0.167049771524039,-0.1823309951935232,0.13681423744832616,-0.19253417365038167,0.1646374945524655,-0.24887046069359248,-0.053533895018785554,-0.2749405082580114,0.0797508103517317,0.15109206095087957,0.0954879497679711,-0.24930246621086924,0.02636760411512344,-0.3815855911616024,0.1184183943167233,-0.22609804200603062,0.12764202663406488,-0.6890895923316204,-0.03095469212975893,0.2605387400448927,0.08854746957775411,0.14718758780284064,0.24950158585167773,-0.36672053520364106,0.14618164806701062,-0.24895852511165717,0.09563806444586435,-0.05715189245372294,0.06435144069302505,-0.33108865567913687,0.2860070843880413,-0.28658333402748604,0.12617212279603976,0.050382481266504055,0.394883055698602,0.15871593025756658,0.09253593274006397,-0.25357928738120583,0.11696887882955709,-0.1966695597118883,0.14620843906901904,-0.35837423892944453,0.17069777220257476,-0.521602074089277,0.07370217238894668,0.05718288583846758,0.10158960322914026,-0.27808731107355467,0.057112359238628466,-0.08408360057804562,0.12573287534245936,-0.25665798402031215,0.13838559812775683,-0.48396272896829384,0.09983089314237586,0.14701490765850642,0.07382244728860046,0.3674433393379999,-0.04115161625923225,0.16215947072230438,0.12340359209202012,0.1696043726119032,0.06315784928467488,-0.22715498028309422,0.15996221918777015,0.19405982005295674,0.19118498331395242,0.14719997672838941,0.10520133652079919,-0.16169112590951468,0.2271732482835411,-0.40111788347169786,0.11132722911796764,0.33535402555885935,0.5087711868146777,0.10526636026525996,0.07517447251218469,-0.2769237794670141,0.13465223803856688,-0.4291943756268658,0.09624829533633822,-0.13949985633118386,0.14121349933804064,-0.259333134000172,0.12526833524905176,0.26121714188085543,0.012849535173619572,0.24570398362614615,0.06859178800328435,-0.34261325404749005,0.18221151689307763,-0.17594750255139982,0.15869697562045196,-0.2841403258900679,0.14120611177372921,-0.057951917458206825,0.11601634167145607,-0.2554231788871515,0.25052054793118395,0.03827070888367634,0.04372575541229542,-0.34437710211279243,0.1784837574569536,-0.22698383201801892,0.1553781647731306,-0.23218442499371433,0.13382344627788356,0.037823934148348684,0.15937605234937646,-0.3273724447104239,0.16409037949558775,-0.09821107740746293,0.13831850041953628,-0.23027843043197635,0.11914797570286467,-0.1077331381771716,0.12839304872405716,-0.2561726434697838,0.12007254111584022,-0.17995623831576232,0.1918176110362122,0.007847834836875851,0.23576473422235866,-0.14319878656034618,0.10929477414739029,-0.20947742628142557,0.2506107152179557,-0.18299045279055645,0.10564836116818677,-0.058848258440546926,0.19500429160445254,-0.16054997769433138,0.07002783831702847,-0.0993934176299659,0.1688977951887713,-0.3674166166639838,0.0813460800600648,-0.2896581375480915,0.10910745843664632,-0.2750465581971561,0.10768017460572463,-0.19453157402308735,0.17832033357184474,-0.13569740685658288,0.08829755433755264,-0.3111686261889836,0.1206048129797608,0.14113591407329673
0.09848382068241596,-0.18445994741275784,0.2276720273198385,-0.13423253298991542,0.0810203640445567,0.08043104289548958,0.11900997344420922,-0.29203809053619467,-0.013902734770488482,-0.3942783644737287,0.020428695768323568,-0.23124330287142925,0.167049771524039,-0.1823309951935232,0.13681423744832616,-0.19253417365038167,0.1646374945524655,-0.24887046069359248,-0.053533895018785554,-0.2749405082580114,0.0797508103517317,0.15109206095087957,0.0954879497679711,-0.24930246621086924,0.02636760411512344,-0.3815855911616024,0.1184183943167233,-0.22609804200603062,0.12764202663406488,-0.6890895923316204,-0.03095469212975893,0.2605387400448927,0.08854746957775411,0.14718758780284064,0.24950158585167773,-0.36672053520364106,0.14618164806701062,-0.24895852511165717,0.09563806444586435,-0.05715189245372294,0.06435144069302505,-0.33108865567913687,0.2860070843880413,-0.28658333402748604,0.12617212279603976,0.050382481266504055,0.394883055698602,0.15871593025756658,0.09253593274006397,-0.25357928738120583,0.11696887882955709,-0.1966695597118883,0.14620843906901904,-0.35837423892944453,0.17069777220257476,-0.521602074089277,0.07370217238894668,0.05718288583846758,0.10158960322914026,-0.27808731107355467,0.057112359238628466,-0.08408360057804562,0.12573287534245936,-0.25665798402031215,0.13838559812775683,-0.48396272896829384,0.09983089314237586,0.14701490765850642,0.07382244728860046,0.3674433393379999,-0.04115161625923225,0.16215947072230438,0.12340359209202012,0.1696043726119032,0.06315784928467488,-0.22715498028309422,0.15996221918777015,0.19405982005295674,0.19118498331395242,0.14719997672838941,0.10520133652079919,-0.16169112590951468,0.2271732482835411,-0.40111788347169786,0.11132722911796764,0.33535402555885935,0.5087711868146777,0.10526636026525996,0.07517447251218469,-0.2769237794670141,0.13465223803856688,-0.4291943756268658,0.09624829533633822,-0.13949985633118386,0.14121349933804064,-0.259333134000172,0.12526833524905176,0.26121714188085543,0.012849535173619572,0.24570398362614615,0.06859178800328435,-0.34261325404749005,0.18221151689307763,-0.17594750255139982,0.15869697562045196,-0.2841403258900679,0.14120611177372921,-0.057951917458206825,0.11601634167145607,-0.2554231788871515,0.25052054793118395,0.03827070888367634,0.04372575541229542,-0.34437710211279243,0.1784837574569536,-0.22698383201801892,0.1553781647731306,-0.23218442499371433,0.13382344627788356,0.037823934148348684,0.15937605234937646,-0.3273724447104239,0.16409037949558775,-0.09821107740746293,0.13831850041953628,-0.23027843043197635,0.11914797570286467,-0.1077331381771716,0.12839304872405716,-0.2561726434697838,0.12007254111584022,-0.17995623831576232,0.1918176110362122,0.007847834836875851,0.23576473422235866,-0.14319878656034618,0.10929477414739029,-0.20947742628142557,0.2506107152179557,-0.18299045279055645,0.10564836116818677,-0.058848258440546926,0.19500429160445254,-0.16054997769433138,0.07002783831702847,-0.0993934176299659,0.1688977951887713,-0.3674166166639838,0.0813460800600648,-0.2896581375480915,0.10910745843664632,-0.2750465581971561,0.10768017460572463,-0.19453157402308735,0.17832033357184474,-0.13569740685658288,0.08829755433755264,-0.3111686261889836,0.1206048129797608,0.14113591407329673
0.06334216991653567,-0.3351186506009186,0.12467328467621386,0.17155677310823653,0.07472955284880897,-0.10675921254298557,0.17115429409514865,-0.41161241125521325,0.0684698806776203,-0.27797097183282177,0.26407123509268376,-0.14292883347030602,0.05867945278851737,-0.2238835663221868,0.2204248739334349,-0.10312270772580692,0.05554084454845188,0.05247746461791532,0.15157819212237836,-0.3349554254709989,0.04313770254950759,-0.15226104852527872,0.16246293172408285,-0.23590409631517292,0.0990805516326896,-0.12852531155541594,0.17393308352407244,-0.34319843135749295,0.08712342318269628,-0.32916387989168483,0.12487625878926048,-0.3005559817740711,0.003741673728510201,-0.42393923377057435,0.10354817331674351,-0.3003715812818573,0.15924990023376573,-0.33656390883552134,0.13860285421134622,-0.33443150235763813,0.11918208160144322,-0.02831782782662154,0.15146183817515096,-0.24442025958066177,0.14693253079946733,-0.13945011550612135,0.262960058464917,-0.07252045722280287,0.18081337431907885,-0.32136873771116636,0.13419488859256798,-0.1111375724004493,0.037661969866670995,-0.08482294612045542,0.14878639021065393,-0.22020358427682873,0.15645668085639688,-0.09207619438799958,0.2568712262453336,-0.3662387403289232,0.022447419451672522,-0.401993378258273,0.1800581890676328,-0.29706286688234457,0.028081960120823236,-0.05856751616033063,0.08755893624229481,0.012704275825508413,0.1254981887061776,0.0403832490440412,0.12227587900654216,-0.07993288537751506,0.0013596539637955917,-0.05089273015509821,0.29237449491965095,0.08260923027355123,0.08055410773167607,-0.37358732983706855,0.16087510428532117,-0.35488823940925157,0.11438174502467281,-0.22195753163228912,0.2807165290422241,-0.058428081836187085,0.051000398773101696,0.1407015033685039,0.19057959510124442,-0.32743192055875997,0.18626638015781302,-0.2850876081308284,0.021049530908985703,-0.11708459784179487,0.06485003347124021,-0.38506120885442496,0.16577564548826962,-0.34339472941607513,0.09209160308132236,-0.25324549459135803,0.13374666326973741,-0.20668758666481507,0.08051106037299217,-0.23486766522183022,0.08621991612086265,-0.19974870687479554,0.14918773448476275,0.0026314249626487804,0.28648089998789406,-0.1819221647894805,-0.02997328459706274,-0.35832058328311384,-0.11877307069821844,-0.17004048265126429,0.08444308842854534,-0.03819611788001881,0.15887030872972457,-0.011139045075613745,0.09466522632218743,-0.2541313291159791,0.30815429601322664,-0.14244026624247497,-0.05634718051332545,-0.4286572479204842,0.09961978526436593,-0.2564644125517246,0.20400298016250676,0.1682217079323507,-0.13074848208168968,0.10469848625619345,0.033314490404802825,-0.24993198935886038,0.20732339227179625,0.12461208002742902,0.11855890437949426,-0.2572979707515339,0.22428790748497537,-0.21860025865206759,-0.0220429997203013,0.2374099879172045,-0.140631249888463,0.15955217655776024,0.19461583922921474,-0.44190432378698624,0.09626608424338949,-0.2952873310175922,0.03317119324278409,-0.38282200019896,0.10866878695796735,0.057542186873053076,0.008949976468464021,-0.3475117628923719,0.08571929963108876,-0.21942976803137756,0.07778678356231214,-0.3030390669678405,0.15807689550297502,-0.3223110744960971,0.0837373050205625,-0.32554114333751627,0.15067425358573994,-0.31820708057416663
0.06334216991653567,-0.3351186506009186,0.12467328467621386,0.17155677310823653,0.07472955284880897,-0.10675921254298557,0.17115429409514865,-0.41161241125521325,0.0684698806776203,-0.27797097183282177,0.26407123509268376,-0.14292883347030602,0.05867945278851737,-0.2238835663221868,0.2204248739334349,-0.10312270772580692,0.05554084454845188,0.05247746461791532,0.15157819212237836,-0.3349554254709989,0.04313770254950759,-0.15226104852527872,0.16246293172408285,-0.23590409631517292,0.0990805516326896,-0.12852531155541594,0.17393308352407244,-0.34319843135749295,0.08712342318269628,-0.32916387989168483,0.12487625878926048,-0.3005559817740711,0.003741673728510201,-0.42393923377057435,0.10354817331674351,-0.3003715812818573,0.15924990023376573,-0.33656390883552134,0.13860285421134622,-0.33443150235763813,0.11918208160144322,-0.02831782782662154,0.15146183817515096,-0.24442025958066177,0.14693253079946733,-0.13945011550612135,0.262960058464917,-0.07252045722280287,0.18081337431907885,-0.32136873771116636,0.13419488859256798,-0.1111375724004493,0.037661969866670995,-0.08482294612045542,0.14878639021065393,-0.22020358427682873,0.15645668085639688,-0.09207619438799958,0.2568712262453336,-0.3662387403289232,0.022447419451672522,-0.401993378258273,0.1800581890676328,-0.29706286688234457,0.028081960120823236,-0.05856751616033063,0.08755893624229481,0.012704275825508413,0.1254981887061776,0.0403832490440412,0.12227587900654216,-0.07993288537751506,0.0013596539637955917,-0.05089273015509821,0.29237449491965095,0.08260923027355123,0.08055410773167607,-0.37358732983706855,0.16087510428532117,-0.35488823940925157,0.11438174502467281,-0.22195753163228912,0.2807165290422241,-0.058428081836187085,0.051000398773101696,0.1407015033685039,0.19057959510124442,-0.32743192055875997,0.18626638015781302,-0.2850876081308284,0.021049530908985703,-0.11708459784179487,0.06485003347124021,-0.38506120885442496,0.16577564548826962,-0.34339472941607513,0.09209160308132236,-0.25324549459135803,0.13374666326973741,-0.20668758666481507,0.08051106037299217,-0.23486766522183022,0.08621991612086265,-0.19974870687479554,0.14918773448476275,0.0026314249626487804,0.28648089998789406,-0.1819221647894805,-0.02997328459706274,-0.35832058328311384,-0.11877307069821844,-0.17004048265126429,0.08444308842854534,-0.03819611788001881,0.15887030872972457,-0.011139045075613745,0.09466522632218743,-0.2541313291159791,0.30815429601322664,-0.14244026624247497,-0.05634718051332545,-0.4286572479204842,0.09961978526436593,-0.2564644125517246,0.20400298016250676,0.1682217079323507,-0.13074848208168968,0.10469848625619345,0.033314490404802825,-0.24993198935886038,0.20732339227179625,0.12461208002742902,0.11855890437949426,-0.2572979707515339,0.22428790748497537,-0.21860025865206759,-0.0220429997203013,0.2374099879172045,-0.140631249888463,0.15955217655776024,0.19461583922921474,-0.44190432378698624,0.09626608424338949,-0.2952873310175922,0.03317119324278409,-0.38282200019896,0.10866878695796735,0.057542186873053076,0.008949976468464021,-0.3475117628923719,0.08571929963108876,-0.21942976803137756,0.07778678356231214,-0.3030390669678405,0.15807689550297502,-0.3223110744960971,0.0837373050205625,-0.32554114333751627,0.15067425358573994,-0.31820708057416663
0.06419401026685737,-0.2918244796912204,0.13382854974989122,-0.2704117576387225,0.07786490051585321,-0.2508161085148593,0.1677754605474761,-0.41397065300274427,0.03808544393087935,-0.3743241748662309,0.12628685752482674,-0.30406133842676347,0.06936290139323502,-0.11453449415895195,0.18854894197522581,0.11493559523837081,0.017013462880238084,-0.3562901974462813,0.09539649381818627,-0.21923265180696705,0.09919938670472665,-0.161959477623592,0.2006396572119381,-0.07627013924795892,0.08245646383500413,-0.29146692858578266,0.10088680575665508,-0.3300567404345044,0.015150676135921422,-0.2559073414409589,0.09124090124548698,0.08681862987631683,0.1442060662125593,-0.3585303311911279,0.22046023600209996,-0.12026416522269605,0.05339960516003325,-0.2843292480565015,0.17631046195565941,-0.27662091785183607,-0.037923735196719315,-0.287357436974608,-0.20200282463480787,-0.20762996400858108,0.062327023511201236,-0.18310310160702126,0.153798710793715,-0.004657425573109525,-0.011320920725760658,-0.3470058194831684,-0.016054171604130307,-0.22939386959375324,0.0582208247028541,-0.38064702079667456,0.02060542474437657,-0.26963263816069993,0.010246949329442754,-0.39213386576140485,0.04906672214560104,-0.23457423926500387,0.08964894430018638,-0.037458167229209756,0.11979618778989219,0.00463222655271264,0.06394514357674802,-0.3001085412304635,0.04115430321514936,-0.17149004054419495,0.13077450376138527,-0.004416084458240176,0.08687313810026204,-0.39515421587643806,0.0641989670407534,-0.14581519176337931,0.1931934717809952,0.0012098214667416937,0.041057934577750005,-0.2689213047408791,0.09891061945688237,-0.07032275848855978,-0.022273708655579774,-0.21039877375369676,-0.07255322041803347,-0.1551309994513903,-0.026033242123403598,-0.4068971659158837,-0.05403661747001712,-0.13365019535739334,0.04527931259643593,0.03867062150148524,0.10101937331576509,-0.17823744536585406,0.20188873410847877,-0.43535220475826786,0.1948798917665191,-0.25309495150328926,0.03354668044183466,-0.14778350673472826,0.19365281348084495,-0.20843094587811697,0.14532362055960102,-0.08104712163720615,0.09085661433537545,0.05096234348721935,0.10236215968014115,-0.03400025293732825,0.10842552990853775,-0.016118902535566637,0.06830427391211331,-0.27953339392518745,0.19127665012228776,-0.2630816621569345,0.021653811907432617,-0.24103319368056766,0.036386467915710416,-0.2558125131277193,0.00300598307951222,-0.4208644797752838,0.20542322342786004,-0.3191901925665802,0.1144686926423554,-0.1347702481764257,0.09334511659612654,-0.20424977464933167,0.06398185011154461,-0.18586589143976265,0.13150569534947573,-0.44822301919338814,0.07370750576190513,-0.2721218884954011,0.09533388471685753,-0.3812088221334323,0.10908095036820899,-0.010228138851971132,0.05842164492383865,0.14325026236897642,0.051787576783209936,-0.20544481281169583,0.1838644983229367,-0.14152239413276418,0.085597904981973,-0.20305307244816778,0.13736005689985853,-0.19752506451581728,-0.034580083462055086,-0.42383580755653927,-0.18106072288187372,0.014537763323042421,0.08205404022575122,-0.02708067883239748,0.08002172281745785,0.18575816783292806,0.14520785464768646,0.22498445725528476,0.14236323433038933,-0.3265669176282916,0.10204927808669223,-0.2160392743755549,0.09441038415014014,-0.16042360522601676
0.06419401026685737,-0.2918244796912204,0.13382854974989122,-0.2704117576387225,0.07786490051585321,-0.2508161085148593,0.1677754605474761,-0.41397065300274427,0.03808544393087935,-0.3743241748662309,0.12628685752482674,-0.30406133842676347,0.06936290139323502,-0.11453449415895195,0.18854894197522581,0.11493559523837081,0.017013462880238084,-0.3562901974462813,0.09539649381818627,-0.21923265180696705,0.09919938670472665,-0.161959477623592,0.2006396572119381,-0.07627013924795892,0.08245646383500413,-0.29146692858578266,0.10088680575665508,-0.3300567404345044,0.015150676135921422,-0.2559073414409589,0.09124090124548698,0.08681862987631683,0.1442060662125593,-0.3585303311911279,0.22046023600209996,-0.12026416522269605,0.05339960516003325,-0.2843292480565015,0.17631046195565941,-0.27662091785183607,-0.037923735196719315,-0.287357436974608,-0.20200282463480787,-0.20762996400858108,0.062327023511201236,-0.18310310160702126,0.153798710793715,-0.004657425573109525,-0.011320920725760658,-0.3470058194831684,-0.016054171604130307,-0.22939386959375324,0.0582208247028541,-0.38064702079667456,0.02060542474437657,-0.26963263816069993,0.010246949329442754,-0.39213386576140485,0.04906672214560104,-0.23457423926500387,0.08964894430018638,-0.037458167229209756,0.11979618778989219,0.00463222655271264,0.06394514357674802,-0.3001085412304635,0.04115430321514936,-0.17149004054419495,0.13077450376138527,-0.004416084458240176,0.08687313810026204,-0.39515421587643806,0.0641989670407534,-0.14581519176337931,0.1931934717809952,0.0012098214667416937,0.041057934577750005,-0.2689213047408791,0.09891061945688237,-0.07032275848855978,-0.022273708655579774,-0.21039877375369676,-0.07255322041803347,-0.1551309994513903,-0.026033242123403598,-0.4068971659158837,-0.05403661747001712,-0.13365019535739334,0.04527931259643593,0.03867062150148524,0.10101937331576509,-0.17823744536585406,0.20188873410847877,-0.43535220475826786,0.1948798917665191,-0.25309495150328926,0.03354668044183466,-0.14778350673472826,0.19365281348084495,-0.20843094587811697,0.14532362055960102,-0.08104712163720615,0.09085661433537545,0.05096234348721935,0.10236215968014115,-0.03400025293732825,0.10842552990853775,-0.016118902535566637,0.06830427391211331,-0.27953339392518745,0.19127665012228776,-0.2630816621569345,0.021653811907432617,-0.24103319368056766,0.036386467915710416,-0.2558125131277193,0.00300598307951222,-0.4208644797752838,0.20542322342786004,-0.3191901925665802,0.1144686926423554,-0.1347702481764257,0.09334511659612654,-0.20424977464933167,0.06398185011154461,-0.18586589143976265,0.13150569534947573,-0.44822301919338814,0.07370750576190513,-0.2721218884954011,0.09533388471685753,-0.3812088221334323,0.10908095036820899,-0.010228138851971132,0.05842164492383865,0.14325026236897642,0.051787576783209936,-0.20544481281169583,0.1838644983229367,-0.14152239413276418,0.085597904981973,-0.20305307244816778,0.13736005689985853,-0.19752506451581728,-0.034580083462055086,-0.42383580755653927,-0.18106072288187372,0.014537763323042421,0.08205404022575122,-0.02708067883239748,0.08002172281745785,0.18575816783292806,0.14520785464768646,0.22498445725528476,0.14236323433038933,-0.3265669176282916,0.10204927808669223,-0.2160392743755549,0.09441038415014014,-0.16042360522601676
0.09997062734656288,-0.06898447707487251,0.19181009137047142,-0.09247011044709974,0.1456784290069611,0.08255956303259493,0.20121963102642162,-0.22555127099355465,0.1278124787417601,-0.2781152933118087,0.2259558337246171,-0.3087110063229507,0.1135565716517691,-0.11149926771454334,0.21856735056920296,-0.413431713650952,0.09432006929336635,-0.17414445384177402,0.15953797844169165,-0.32224094046033624,-0.02052798802138213,-0.3804911687489178,0.00020917317815723202,-0.16041641679212065,0.12256194820291846,0.00011666908743114546,0.09564504976983094,0.08451905588356891,0.06453320968053548,-0.02147920200242481,0.06756995312851033,0.1334417546557849,-0.029727589578146946,-0.19359357533756877,-0.12417501240522036,-0.23178634022688227,-0.03241425305395579,-0.15663402270232177,-0.08199508687685989,-0.25018397278770155,0.09577095469574588,-0.008739511491384761,0.057126411787032615,0.2310431241941013,-0.010288579279806295,-0.40845706290593436,-0.10372468932761394,-0.17294653723002895,-0.034216870005838534,-0.15701322986866748,-0.18202643703622395,-0.24333955159293535,0.039495967253967215,-0.31842680379737137,0.06608610289883374,-0.22815744268050475,0.1687962926039347,0.18165800922907877,-0.19538046179741597,0.04259021333295799,-0.011644825537242567,-0.3350354584165076,-0.009653901929491768,-0.15264467049111494,0.1191931119792089,-0.16650059829488367,0.18892062868306544,-0.22146606747150932,0.09600538826086014,-0.1107565306220728,0.1343257124606568,-0.2379486022390959,0.021621803917006948,-0.3739390305693437,-0.01673120337494484,-0.2281387651324912,0.09899805934900202,-0.26972673031236016,0.0990196865925117,-0.20461543796700762,0.07793014289648201,-0.27326015971790246,0.12551545061557937,-0.005441834499031308,0.07574798112341183,-0.16111598281652836,0.1190552317882484,-0.18312236893705952,0.1796687190713728,-0.07522940521204662,0.2019308540119597,-0.08246384076990883,0.11347721961562429,-0.11515699442415027,0.1201154713869873,-0.3259646181205805,0.11280115322151002,-0.24403872345482353,0.08906680676066775,-0.0660242884149961,0.20321714599927515,0.01270136530200993,0.16931666891663755,-0.26830330677742853,0.09757977384234921,-0.1672561320935896,0.2229879658406474,-0.12255393130936501,0.09513475340192727,0.035163660544223596,0.11049504963257231,0.13712566014810182,0.07008137575065501,-0.14565849945364065,0.11112433685306553,-0.39150450145862475,0.17712094595635947,0.03260461412311624,0.25906519427136765,-0.1763092858383819,0.07343474011844778,-0.27542433509309827,0.04159628699401682,-0.20366719284354642,0.06423392888498067,-0.21522769615363532,0.1270831898453068,-0.1972599005000767,0.11733728323513594,-0.17601905196390955,0.30229634735309624,-0.16052822271830666,0.1808232585132777,0.2546583413065621,0.1497832824239208,-0.34307271828968655,0.06404140426164999,-0.3758205932696005,0.15150098647277305,-0.46690238744207235,0.09262015290409567,0.11623478716254643,0.08420393313650175,-0.27047386425638426,0.14695719730687506,-0.16844113632130797,0.28832698425400527,-0.14493284344482982,0.19598285713029037,-0.11832010230790158,0.17802842855928835,-0.13215108466470354,0.09432092119762252,-0.10028823209184425,0.11443267377532226,-0.4261028806712787,0.17015531201348116,-0.0362649734799768,0.1452702656200825,-0.1879970863439754
0.09997062734656288,-0.06898447707487251,0.19181009137047142,-0.09247011044709974,0.1456784290069611,0.08255956303259493,0.20121963102642162,-0.22555127099355465,0.1278124787417601,-0.2781152933118087,0.2259558337246171,-0.3087110063229507,0.1135565716517691,-0.11149926771454334,0.21856735056920296,-0.413431713650952,0.09432006929336635,-0.17414445384177402,0.15953797844169165,-0.32224094046033624,-0.02052798802138213,-0.3804911687489178,0.00020917317815723202,-0.16041641679212065,0.12256194820291846,0.00011666908743114546,0.09564504976983094,0.08451905588356891,0.06453320968053548,-0.02147920200242481,0.06756995312851033,0.1334417546557849,-0.029727589578146946,-0.19359357533756877,-0.12417501240522036,-0.23178634022688227,-0.03241425305395579,-0.15663402270232177,-0.08199508687685989,-0.25018397278770155,0.09577095469574588,-0.008739511491384761,0.057126411787032615,0.2310431241941013,-0.010288579279806295,-0.40845706290593436,-0.10372468932761394,-0.17294653723002895,-0.034216870005838534,-0.15701322986866748,-0.18202643703622395,-0.24333955159293535,0.039495967253967215,-0.31842680379737137,0.06608610289883374,-0.22815744268050475,0.1687962926039347,0.18165800922907877,-0.19538046179741597,0.04259021333295799,-0.011644825537242567,-0.3350354584165076,-0.009653901929491768,-0.15264467049111494,0.1191931119792089,-0.16650059829488367,0.18892062868306544,-0.22146606747150932,0.09600538826086014,-0.1107565306220728,0.1343257124606568,-0.2379486022390959,0.021621803917006948,-0.3739390305693437,-0.01673120337494484,-0.2281387651324912,0.09899805934900202,-0.26972673031236016,0.0990196865925117,-0.20461543796700762,0.07793014289648201,-0.27326015971790246,0.12551545061557937,-0.005441834499031308,0.07574798112341183,-0.16111598281652836,0.1190552317882484,-0.18312236893705952,0.1796687190713728,-0.07522940521204662,0.2019308540119597,-0.08246384076990883,0.11347721961562429,-0.11515699442415027,0.1201154713869873,-0.3259646181205805,0.11280115322151002,-0.24403872345482353,0.08906680676066775,-0.0660242884149961,0.20321714599927515,0.01270136530200993,0.16931666891663755,-0.26830330677742853,0.09757977384234921,-0.1672561320935896,0.2229879658406474,-0.12255393130936501,0.09513475340192727,0.035163660544223596,0.11049504963257231,0.13712566014810182,0.07008137575065501,-0.14565849945364065,0.11112433685306553,-0.39150450145862475,0.17712094595635947,0.03260461412311624,0.25906519427136765,-0.1763092858383819,0.07343474011844778,-0.27542433509309827,0.04159628699401682,-0.20366719284354642,0.06423392888498067,-0.21522769615363532,0.1270831898453068,-0.1972599005000767,0.11733728323513594,-0.17601905196390955,0.30229634735309624,-0.16052822271830666,0.1808232585132777,0.2546583413065621,0.1497832824239208,-0.34307271828968655,0.06404140426164999,-0.3758205932696005,0.15150098647277305,-0.46690238744207235,0.09262015290409567,0.11623478716254643,0.08420393313650175,-0.27047386425638426,0.14695719730687506,-0.16844113632130797,0.28832698425400527,-0.14493284344482982,0.19598285713029037,-0.11832010230790158,0.17802842855928835,-0.13215108466470354,0.09432092119762252,-0.10028823209184425,0.11443267377532226,-0.4261028806712787,0.17015531201348116,-0.0362649734799768,0.1452702656200825,-0.1879970863439754
0.06798874699508003,-0.27982638512479074,0.10250821810262037,-0.18963261780507712,0.05134839251316058,-0.10352597444070652,0.13997717933538095,-0.35440421313051473,0.06420062555682088,-0.28464599981921523,0.1467151285427326,-0.4749439816112776,0.06033775058367249,-0.3109208608104052,0.07658232563409863,-0.2726440591122604,0.09612549428809197,-0.06876792580473116,0.09521921725855745,-0.14906811093411806,0.09149128254639706,-0.2987634611503397,0.08605443220136891,0.20752097557152988,0.21616450609029136,-0.08859443807712641,0.23373768643982384,-0.061362118670544974,0.11985107294068426,-0.08256024583902688,0.067636771271463,0.03214301786111697,0.07857614883970021,-0.3242982176943145,0.10515262938196941,-0.2966632435347581,0.17219756114964546,-0.05837578615582726,-0.007508075058028056,-0.14234777439879906,0.19271556847194332,0.2574651639054202,0.17331126374581204,-0.29942486690556086,0.01971491188760452,-0.24360148584782415,0.2117430428783407,-0.16620905237583852,0.11404575707809084,-0.24129479486441155,0.11499964213714166,0.15989268878074633,0.12793362428166324,-0.06460773768181532,0.1003804118067509,-0.09713229951221335,0.049444820632586484,-0.019542028180275076,0.1477005169102728,-0.10967073710958128,0.14979271252137372,-0.12407366707266197,0.309152655865122,-0.11211178986911344,0.06320346112663233,-0.3628506679502673,0.09300992615442563,-0.3152592545623504,0.09610985231153907,-0.29528028865467704,0.10075363239772481,-0.2771057197407053,0.09037921029293858,0.21801709030115718,0.08253300126913132,-0.19976495273252512,0.11621063043817662,0.12223005498333858,0.15939423496896754,-0.13650493256965152,0.13937745579295252,0.1060914907521821,0.10387038502715057,-0.306699054944385,0.06555903101539907,-0.03967505667852943,0.12357814680463822,-0.25983602504225284,0.06665075579653078,-0.15435803315722615,0.15694486842468006,-0.385033201669498,0.048588778550966064,-0.09467274785683655,0.15164956089854642,-0.41988184641113446,0.07464286532548603,-0.06555406451269463,0.16047483086725162,-0.2120981803970753,0.10242916722585058,-0.008856540252677146,0.09475193510518012,-0.19875554677040938,0.05649076681825027,-0.061668019983046,0.16356659520049338,-0.459178334684028,0.12193877870226409,0.2025362665232845,0.1672200246768529,-0.2705546061155141,0.06546843832207105,-0.07792170883720029,0.1468407360589353,-0.367540826875983,0.07032366243254315,-0.2556446964744898,0.12637515948815206,-0.44702466334549007,0.06929494575850109,-0.35406663330516497,0.09707803115282322,-0.5401234324646434,0.14511177301384906,0.24671771622509167,0.17395419405407314,-0.2671413742048907,0.07575754467506449,-0.3424474890256971,0.10166295975580707,-0.3956588248199838,0.14580329630594896,-0.1166137169858741,0.13925260381823384,-0.26299002914761344,0.08406103946850554,-0.23959310557918867,0.11910812142031976,-0.3827257365163023,0.06134304520153175,-0.10956487036801833,0.0906828850428728,-0.3110735608841331,0.07834247078828017,-0.10141690079439342,0.1482724686465266,-0.46797602656783344,0.06597976920614607,-0.05602757438719163,0.14417594536586498,-0.32629358395673796,0.05881624396840602,-0.14529157004988327,0.10634668992675,-0.2967756371418422,0.10019976061117579,0.2421956139903478,0.10632659034095922,-0.18604258069586377
0.06798874699508003,-0.27982638512479074,0.10250821810262037,-0.18963261780507712,0.05134839251316058,-0.10352597444070652,0.13997717933538095,-0.35440421313051473,0.06420062555682088,-0.28464599981921523,0.1467151285427326,-0.4749439816112776,0.06033775058367249,-0.3109208608104052,0.07658232563409863,-0.2726440591122604,0.09612549428809197,-0.06876792580473116,0.09521921725855745,-0.14906811093411806,0.09149128254639706,-0.2987634611503397,0.08605443220136891,0.20752097557152988,0.21616450609029136,-0.08859443807712641,0.23373768643982384,-0.061362118670544974,0.11985107294068426,-0.08256024583902688,0.067636771271463,0.03214301786111697,0.07857614883970021,-0.3242982176943145,0.10515262938196941,-0.2966632435347581,0.17219756114964546,-0.05837578615582726,-0.007508075058028056,-0.14234777439879906,0.19271556847194332,0.2574651639054202,0.17331126374581204,-0.29942486690556086,0.01971491188760452,-0.24360148584782415,0.2117430428783407,-0.16620905237583852,0.11404575707809084,-0.24129479486441155,0.11499964213714166,0.15989268878074633,0.12793362428166324,-0.06460773768181532,0.1003804118067509,-0.09713229951221335,0.049444820632586484,-0.019542028180275076,0.1477005169102728,-0.10967073710958128,0.14979271252137372,-0.12407366707266197,0.309152655865122,-0.11211178986911344,0.06320346112663233,-0.3628506679502673,0.09300992615442563,-0.3152592545623504,0.09610985231153907,-0.29528028865467704,0.10075363239772481,-0.2771057197407053,0.09037921029293858,0.21801709030115718,0.08253300126913132,-0.19976495273252512,0.11621063043817662,0.12223005498333858,0.15939423496896754,-0.13650493256965152,0.13937745579295252,0.1060914907521821,0.10387038502715057,-0.306699054944385,0.06555903101539907,-0.03967505667852943,0.12357814680463822,-0.25983602504225284,0.06665075579653078,-0.15435803315722615,0.15694486842468006,-0.385033201669498,0.048588778550966064,-0.09467274785683655,0.15164956089854642,-0.41988184641113446,0.07464286532548603,-0.06555406451269463,0.16047483086725162,-0.2120981803970753,0.10242916722585058,-0.008856540252677146,0.09475193510518012,-0.19875554677040938,0.05649076681825027,-0.061668019983046,0.16356659520049338,-0.459178334684028,0.12193877870226409,0.2025362665232845,0.1672200246768529,-0.2705546061155141,0.06546843832207105,-0.07792170883720029,0.1468407360589353,-0.367540826875983,0.07032366243254315,-0.2556446964744898,0.12637515948815206,-0.44702466334549007,0.06929494575850109,-0.35406663330516497,0.09707803115282322,-0.5401234324646434,0.14511177301384906,0.24671771622509167,0.17395419405407314,-0.2671413742048907,0.07575754467506449,-0.3424474890256971,0.10166295975580707,-0.3956588248199838,0.14580329630594896,-0.1166137169858741,0.13925260381823384,-0.26299002914761344,0.08406103946850554,-0.23959310557918867,0.11910812142031976,-0.3827257365163023,0.06134304520153175,-0.10956487036801833,0.0906828850428728,-0.3110735608841331,0.07834247078828017,-0.10141690079439342,0.1482724686465266,-0.46797602656783344,0.06597976920614607,-0.05602757438719163,0.14417594536586498,-0.32629358395673796,0.05881624396840602,-0.14529157004988327,0.10634668992675,-0.2967756371418422,0.10019976061117579,0.2421956139903478,0.10632659034095922,-0.18604258069586377
0.08520228601945844,0.31484179116416977,0.09944701532062679,-0.16428370924334235,0.10184698779715971,-0.08795759576174472,0.18629943202575955,-0.41217732864053275,0.07865327527684927,-0.28604005518251063,0.07633741909019637,-0.2537569759015771,0.09773587581710447,-0.13822335468989136,0.11650834871371821,-0.25271732028092053,0.11975820608017514,-0.1106566024665152,0.2312559475059773,-0.4244762087839564,-0.03845663206103584,-0.40196780662508413,-0.09770633643698956,-0.18449995494955773,0.06718353562971548,-0.1432481415486196,0.11480520474752384,-0.2519356245351446,0.05637474397229469,-0.06248635286924842,0.1260121378147407,-0.2409593906243907,0.09419918374447658,-0.08272330965440707,0.19563140737633916,-0.40025693556684266,0.0776018139581108,-0.13845340153938032,0.11846055230379979,-0.37970875889549005,0.049308384663885665,-0.10998400479428495,0.1814855132697542,-0.3717027460993378,0.19603698747007064,0.0013121971294311266,0.21257592377802323,-0.2841122514988017,0.10501869666737802,-0.06895468386685123,0.10132486539973101,-0.35491130454728825,0.07214735563938963,-0.029700800067160568,0.11170949462252044,-0.5009755035510906,0.09676021237419218,0.3173884732291725,0.12430510536763059,-0.1906718025064689,0.06236168809304766,-0.11651464828333832,0.09296726441335301,-0.4371433611464258,0.06283961267861968,-0.3554187475525542,0.07752764314618497,-0.5548693912806554,0.09878676681182848,-0.16985397966169224,0.11721750705466595,-0.16446194954230992,0.06667144573985637,-0.1560973693679406,0.1382216625219565,-0.2803937700578898,0.06558798392924046,-0.36341419471982633,0.07915056956935121,-0.43608267060764627,0.08239011519386205,-0.28778054928414437,0.12977812635325836,-0.12847619245158878,0.05850332670989079,-0.07141243121954778,0.13418705899511923,-0.3237166229123687,0.14645749224122026,-0.2512511150324736,0.10637643177164158,-0.0015899254870324064,0.06832385902133825,-0.21102906068622115,0.1253824005661278,-0.3109119913516256,0.07008618816672489,-0.13534330291633356,0.12571677848515833,-0.44447246062361256,0.14612557543476254,-0.2853900016666928,0.09840873880128662,0.1213122882563428,0.07464225412702225,-0.047662364217951524,0.0928084696122401,-0.21394299001331973,0.05987788179412412,-0.3294891287037073,0.12573289435660817,-0.29306062099278407,-0.03009588565419012,-0.3585884608757529,-0.015220008090244569,-0.14681633239391134,0.078760429685202,-0.2922788898670913,0.1252227298942997,-0.20872821218727386,-0.032040417104417664,-0.21903757673883575,-0.06576466641423698,-0.13905899507628383,0.1385345628608269,-0.2399222315304484,0.1274188425765662,0.005718880134412421,0.07388194767347903,-0.02738647694234423,0.09584220612432749,-0.31213749168911464,0.07310825964576954,-0.32620439382710187,0.05214155236726468,0.032432816321330285,0.0780293559432192,-0.3104324669777182,0.06493217186230102,-0.3099131715055198,-0.023675313692732618,-0.13130084185488805,-0.16394303314039355,-0.13217598316135212,0.05859293081073989,-0.17653168621609744,0.11052433968306047,-0.27177965156508005,0.07196991033198492,-0.30404705481895494,0.05011900297807971,-0.03493758093235469,0.16435111412834918,-0.2828009893432519,0.10557522039396311,-0.18107954449912667,0.14732386962079505,-0.30039721994547813,0.14370213448494157,0.014842253349538162
0.08520228601945844,0.31484179116416977,0.09944701532062679,-0.16428370924334235,0.10184698779715971,-0.08795759576174472,0.18629943202575955,-0.41217732864053275,0.07865327527684927,-0.28604005518251063,0.07633741909019637,-0.2537569759015771,0.09773587581710447,-0.13822335468989136,0.11650834871371821,-0.25271732028092053,0.11975820608017514,-0.1106566024665152,0.2312559475059773,-0.4244762087839564,-0.03845663206103584,-0.40196780662508413,-0.09770633643698956,-0.18449995494955773,0.06718353562971548,-0.1432481415486196,0.11480520474752384,-0.2519356245351446,0.05637474397229469,-0.06248635286924842,0.1260121378147407,-0.2409593906243907,0.09419918374447658,-0.08272330965440707,0.19563140737633916,-0.40025693556684266,0.0776018139581108,-0.13845340153938032,0.11846055230379979,-0.37970875889549005,0.049308384663885665,-0.10998400479428495,0.1814855132697542,-0.3717027460993378,0.19603698747007064,0.0013121971294311266,0.21257592377802323,-0.2841122514988017,0.10501869666737802,-0.06895468386685123,0.10132486539973101,-0.35491130454728825,0.07214735563938963,-0.029700800067160568,0.11170949462252044,-0.5009755035510906,0.09676021237419218,0.3173884732291725,0.12430510536763059,-0.1906718025064689,0.06236168809304766,-0.11651464828333832,0.09296726441335301,-0.4371433611464258,0.06283961267861968,-0.3554187475525542,0.07752764314618497,-0.5548693912806554,0.09878676681182848,-0.16985397966169224,0.11721750705466595,-0.16446194954230992,0.06667144573985637,-0.1560973693679406,0.1382216625219565,-0.2803937700578898,0.06558798392924046,-0.36341419471982633,0.07915056956935121,-0.43608267060764627,0.08239011519386205,-0.28778054928414437,0.12977812635325836,-0.12847619245158878,0.05850332670989079,-0.07141243121954778,0.13418705899511923,-0.3237166229123687,0.14645749224122026,-0.2512511150324736,0.10637643177164158,-0.0015899254870324064,0.06832385902133825,-0.21102906068622115,0.1253824005661278,-0.3109119913516256,0.07008618816672489,-0.13534330291633356,0.12571677848515833,-0.44447246062361256,0.14612557543476254,-0.2853900016666928,0.09840873880128662,0.1213122882563428,0.07464225412702225,-0.047662364217951524,0.0928084696122401,-0.21394299001331973,0.05987788179412412,-0.3294891287037073,0.12573289435660817,-0.29306062099278407,-0.03009588565419012,-0.3585884608757529,-0.015220008090244569,-0.14681633239391134,0.078760429685202,-0.2922788898670913,0.1252227298942997,-0.20872821218727386,-0.032040417104417664,-0.21903757673883575,-0.06576466641423698,-0.13905899507628383,0.1385345628608269,-0.2399222315304484,0.1274188425765662,0.005718880134412421,0.07388194767347903,-0.02738647694234423,0.09584220612432749,-0.31213749168911464,0.07310825964576954,-0.32620439382710187,0.05214155236726468,0.032432816321330285,0.0780293559432192,-0.3104324669777182,0.06493217186230102,-0.3099131715055198,-0.023675313692732618,-0.13130084185488805,-0.16394303314039355,-0.13217598316135212,0.05859293081073989,-0.17653168621609744,0.11052433968306047,-0.27177965156508005,0.07196991033198492,-0.30404705481895494,0.05011900297807971,-0.03493758093235469,0.16435111412834918,-0.2828009893432519,0.10557522039396311,-0.18107954449912667,0.14732386962079505,-0.30039721994547813,0.14370213448494157,0.014842253349538162
0.07352136322277873,-0.3062366436123586,0.07144334575395563,-0.2884699247031431,0.14729844456651658,-0.243205808822325,0.08127660279546664,-0.029081996493231385,0.06163217710584714,-0.08848283696193865,0.11027456094847701,-0.3768602866154218,0.16553714235928474,-0.2842843202978891,0.12300224115959169,-0.14928259131830413,0.0765415837477134,-0.2212029055041717,0.08191713355969535,-0.26605941958859863,-0.020619137363937737,0.04081667986326855,-0.05178395938003448,0.1339368101602557,0.07020337750641481,0.00398740645384002,0.09264726985763701,-0.17875278188906962,0.14383370914523846,-0.23387416716198456,0.12852147858114604,-0.0790223713431692,0.013002616382556908,-0.2824219054714274,0.04300857738962039,0.10820895495781926,0.13933753860150663,-0.3179933763795558,0.11503624005616801,-0.06026461011802623,0.07275986214065372,-0.15618557668276015,0.09960796150165746,-0.2261754793136996,-0.016627404089086383,-0.3577993055172833,-0.007108876390784863,-0.1388905674074912,0.14859397815355713,-0.30635079613405036,0.1088750016767721,-0.06453546794383123,0.17001239387455164,0.14869372826964936,-0.009538335980336848,0.16772502063256717,0.07759287368527551,-0.26924489322904005,0.07971801455086003,-0.32288752407753835,0.07559054676859044,-0.33482884419031994,0.07862457233416016,-0.2651994277631635,0.11294597172749285,-0.16577514060097157,0.07280232500563678,-0.14437253968687908,0.051482258090360944,-0.05455672569890389,0.10212316360879675,-0.26009645607141574,0.07515088758473434,-0.3282713631020964,0.12658258034702652,-0.026747140098361502,0.15936533693126165,-0.3068435009216779,0.1348469622163078,-0.17069399069466282,0.07333508050717852,-0.2951448588645618,0.10848874524433706,-0.2556216281404167,0.1458737274189112,-0.18792398994042186,0.17331562824985708,-0.11219779286015208,0.0861308591518623,-0.24473058485503627,0.07453384383948745,-0.21039472053467606,0.1379780119205981,-0.226596246463122,0.14869371713310653,-0.052233686489585804,0.06680040338049359,-0.19694369013236546,0.12427424969427164,-0.147785368599886,0.10372279819572952,-0.2035885531294139,0.15079869098349938,-0.14337944715732795,0.08360867540515218,-0.25661317570106784,0.14393215305088836,-0.14397833762403825,0.1190956116663817,-0.07523357509524983,0.1334398598314267,-0.1814857230317641,0.09142052380123969,0.014304033040443101,0.16276677565429867,0.021113026548592616,0.06993441645974924,-0.24700168610159157,0.05123339584359027,-0.254441217973047,0.04710450179387024,-0.34693405985669024,0.12716561793378595,-0.35121439164855,0.06882606695583524,-0.33302478548638315,0.13356994752446794,-0.22698219720368606,0.06173211923886525,-0.33285613750769527,0.15053122847450243,-0.3194917982731192,0.13385266414727692,-0.12759821373309302,0.1759048880360167,-0.07304647482351745,0.12058944455808662,-0.11800693602313361,0.11008645518885221,-0.17364799984178114,0.17262819393854015,-0.13363711647333146,0.14405931045616455,-0.06567065436618263,0.05350304013689258,-0.357121871259668,0.15973461979341716,-0.3392911381994389,0.09967172733744749,-0.20325353192322282,0.1240667708977723,-0.1830525610309965,0.05091880624780952,-0.2559823251479565,0.1568085098349566,-0.113047624396727,0.0499977816370895,-0.30283235178724377,0.1463774108337486,-0.1593120371281566
