ChristianCella/workcell_optimization/results/data/screwing/turbo_ikflow/complete_beta_trend_wide.csv
piece1_joint1,piece1_joint2,piece1_joint3,piece1_joint4,piece2_joint1,piece2_joint2,piece2_joint3,piece2_joint4,piece3_joint1,piece3_joint2,piece3_joint3,piece3_joint4,piece4_joint1,piece4_joint2,piece4_joint3,piece4_joint4,piece5_joint1,piece5_joint2,piece5_joint3,piece5_joint4,piece6_joint1,piece6_joint2,piece6_joint3,piece6_joint4,piece7_joint1,piece7_joint2,piece7_joint3,piece7_joint4,piece8_joint1,piece8_joint2,piece8_joint3,piece8_joint4,piece9_joint1,piece9_joint2,piece9_joint3,piece9_joint4,piece10_joint1,piece10_joint2,piece10_joint3,piece10_joint4,piece11_joint1,piece11_joint2,piece11_joint3,piece11_joint4,piece12_joint1,piece12_joint2,piece12_joint3,piece12_joint4,piece13_joint1,piece13_joint2,piece13_joint3,piece13_joint4,piece14_joint1,piece14_joint2,piece14_joint3,piece14_joint4,piece15_joint1,piece15_joint2,piece15_joint3,piece15_joint4,piece16_joint1,piece16_joint2,piece16_joint3,piece16_joint4,piece17_joint1,piece17_joint2,piece17_joint3,piece17_joint4,piece18_joint1,piece18_joint2,piece18_joint3,piece18_joint4,piece19_joint1,piece19_joint2,piece19_joint3,piece19_joint4,piece20_joint1,piece20_joint2,piece20_joint3,piece20_joint4,piece21_joint1,piece21_joint2,piece21_joint3,piece21_joint4,piece22_joint1,piece22_joint2,piece22_joint3,piece22_joint4,piece23_joint1,piece23_joint2,piece23_joint3,piece23_joint4,piece24_joint1,piece24_joint2,piece24_joint3,piece24_joint4,piece25_joint1,piece25_joint2,piece25_joint3,piece25_joint4,piece26_joint1,piece26_joint2,piece26_joint3,piece26_joint4,piece27_joint1,piece27_joint2,piece27_joint3,piece27_joint4,piece28_joint1,piece28_joint2,piece28_joint3,piece28_joint4,piece29_joint1,piece29_joint2,piece29_joint3,piece29_joint4,piece30_joint1,piece30_joint2,piece30_joint3,piece30_joint4,piece31_joint1,piece31_joint2,piece31_joint3,piece31_joint4,piece32_joint1,piece32_joint2,piece32_joint3,piece32_joint4,piece33_joint1,piece33_joint2,piece33_joint3,piece33_joint4,piece34_joint1,piece34_joint2,piece34_joint3,piece34_joint4,piece35_joint1,piece35_joint2,piece35_joint3,piece35_joint4,piece36_joint1,piece36_joint2,piece36_joint3,piece36_joint4,piece37_joint1,piece37_joint2,piece37_joint3,piece37_joint4,piece38_joint1,piece38_joint2,piece38_joint3,piece38_joint4,piece39_joint1,piece39_joint2,piece39_joint3,piece39_joint4,piece40_joint1,piece40_joint2,piece40_joint3,piece40_joint4
100.0,100.0,100.0,100.0,0.06727894926577517,0.019083674760437746,-0.014712079793857885,0.19865050509450383,100.0,100.0,100.0,100.0,0.20793009452767686,0.3915760502446557,0.3740213027188659,-0.16243483835085606,0.07005094998290999,-0.22519323165105248,0.16038317794163007,-0.16620514555546262,0.0421982893839407,-0.10278471254417873,-0.03052312891343939,0.06754179921283829,0.10510011256197348,0.08158652814911137,0.006884073978112321,0.21084641961445325,100.0,100.0,100.0,100.0,0.02136941016152529,0.007951364245599623,0.048384098047490165,0.1477705593019882,0.10731869481564858,-0.3310493117396018,0.1288402216699342,-0.4656107733496429,0.07199168862583435,0.07199168862583435,0.07199168862583435,-0.24774502700148937,0.0036404544359127725,-0.2056890400576889,0.09640652237785338,-0.031926745232789135,100.0,100.0,100.0,100.0,100.0,100.0,100.0,100.0,-0.07996606618978766,-0.010554301384794552,0.03518420423840651,0.25019438812918016,0.06699300773361083,-0.031274817544501114,0.06094790117389515,0.06699300773361083,0.07872043739958133,0.4482068867927642,0.32660130886451993,0.02766023487553746,0.14182487844208005,0.13810514473243565,0.11615258355331132,-0.08149898324932373,0.10180249297843356,0.2343124525895836,-0.011855767610671183,0.3453319697339548,0.1430103049829421,-0.10255456757267112,-0.02363028183560119,0.06101826400725987,0.23116409693093054,0.21517935275352407,0.22142305600717582,0.23169721969289697,0.11129453781553164,0.18056572064934767,-0.0514202595022143,-0.034547503730194634,0.013402916520118865,0.4214322250737778,0.4550133882999622,-0.13953219335681485,0.13181721328373577,0.05225695383565058,0.18982766634070838,-0.1767634392174254,0.07070750810924646,-0.1101578877962758,-0.07415071230269815,0.0064957949883446,0.037430573715287935,-0.03612940161357703,0.2905924518215353,-0.06684334083099261,0.11034442172956524,0.021979176160637902,0.03125285991628578,0.25354797563016057,0.1398462086256147,-0.2601659204898444,0.2234517027939285,-0.1486557752184035,0.025765432398753216,0.33819557087900887,0.15368791205279403,-0.10936118835558563,100.0,100.0,100.0,100.0,0.05863541114696034,0.03697342500355715,-0.17977425852593715,0.2081483986442414,-0.02529118936932283,-0.004665310993025043,-0.10865310146267292,-0.1779701684059141,0.04157527431632524,0.28035898508115087,-0.1277347808325503,-0.004087276467150139,0.1362880937787983,-0.01479239746863182,0.2106416066391536,-0.06399176967764147,100.0,100.0,100.0,100.0,0.008516331791132575,-0.029972276534414123,0.06069713541110082,0.23382080294017674,0.12242658854275851,0.40931702413842175,0.19560894727887126,-0.12898435849742915,0.27120417407719416,0.007268257551089785,0.007268257551089785,0.18583726797594982,0.1124338395981243,0.06829668493409967,-0.10087234424551514,-0.10087234424551514,0.03527248220141946,0.17442986762418328,0.4174394648501252,0.190533826518492
0.0916785498338587,-0.008496891710677208,-0.10553690095014341,0.00731851647799886,100.0,100.0,100.0,100.0,0.31897219864186965,-0.28826854496669474,0.16135486458001186,0.12752688574679472,0.03909469176216694,-0.17645911695264777,-0.06654460985184395,0.13201750868491724,100.0,100.0,100.0,100.0,0.3011332633266204,0.03128563832231477,-0.008409643651745952,-0.1931526904362969,0.10501159685785164,-0.04398090938268472,-0.012044515007929912,0.022839579884989376,0.09441078285029825,0.11155810676977343,0.05716323689117143,0.018771170415472153,100.0,100.0,100.0,100.0,0.14119133294272357,-0.17852841800209296,0.026182939015303643,0.21665511135657423,0.10955295979210844,0.3310674945826988,0.39428024666422345,-0.13178377022004825,0.00425855708610107,0.08031845403430549,0.06186700386242558,0.13973448713570963,100.0,100.0,100.0,100.0,0.2276880737031376,-0.07246029978509597,0.06559364334649287,-0.4592717536098954,0.08308917608944744,-0.3615072879988989,0.20124724708485886,-0.21054906091425357,0.09199596433563449,-0.15711217964950389,0.06433206774466393,-0.2131874657418685,-0.037392722656122396,0.3594389988084383,0.4636208228553011,-0.07962345613664819,0.0784836834081796,0.17741148284345112,0.09026129133987802,0.15583769256622937,0.09458658383382615,-0.22177753917920914,0.03987071362302235,-0.10015257792216736,0.1305170399920701,0.003775847987395558,0.0898711429544689,0.006022196039518989,0.12456034391053375,0.06868807877992425,0.20506844712675892,-0.1862194597391935,-0.031156514393086726,-0.40072817351544726,-0.1096478294433854,-0.10247810978562388,0.22986100017271083,0.1599103006938673,0.20137358995702243,-0.07040522789369602,0.1877372129547548,0.1102929632571223,0.09527809438309662,0.005562632237570489,0.09630765564347213,-0.12236072231290342,0.16065293987615953,-0.32392141228053944,100.0,100.0,100.0,100.0,0.05944826949305014,0.1850076743714642,0.06456082282824062,0.07818291039156283,0.17362046602902428,0.26326840344818764,0.21478041124026362,-0.15820316547429203,0.09442236860787986,0.0814103345266238,0.25619500865212497,0.09222285188786353,0.20811184678665362,-0.006455147257488384,0.05516308828220409,0.13406038994975203,0.14567214271209505,0.006059116439228358,-0.11820264496375169,0.006059116439228358,0.03294400524520611,0.38735871671327204,0.36783823002108296,-0.06346874562991064,0.17973575854177698,0.08855427038314731,0.18872069579165535,-0.3866383322532599,0.2460329635125785,-0.012644121117715248,-0.012644121117715248,-0.07672413138319292,100.0,100.0,100.0,100.0,0.13266406587199409,0.01629912908446864,0.053484718990699974,0.02570399794712014,0.0498945793259382,-0.0883587206584013,0.07468045103720038,-0.15598486742871445,0.23875414800289294,0.24302727150144002,0.06920137563766487,-0.3762385145162436,100.0,100.0,100.0,100.0,-0.024107894771713975,-0.2598545685185535,0.031766067816221794,-0.13826355343805896
0.02504475406103739,-0.42502292816655207,0.33651675688088717,0.2710263557824682,0.11738001249735158,-0.3305330870817632,0.1636773481781347,0.059231386697097585,0.17240896026783362,-0.02904936916965245,-0.02043153419280174,0.1754042784320623,0.07859629101816272,-0.17148156283348154,-0.025271361385368486,-0.025271361385368486,0.08916659895897246,-0.009645364128969686,0.22208520794106215,-0.27439403443334487,0.041196126181422106,-0.07087426440623926,0.08168195806086972,-0.17849084653198388,0.1470072916410441,0.19367822898635162,0.09270251418008307,-0.11782640303824891,0.14036609706085953,0.42190468025635997,0.5275237984339014,-0.15582800876895686,0.18339226246482382,0.12543699902599226,0.17479825640157381,-0.046584739671451526,0.08280373930062283,-0.0023153874769202797,-0.05143723014750519,-0.009391244122784359,0.2967195553454669,0.1451863701728633,0.1451863701728633,-0.1907912402227511,100.0,100.0,100.0,100.0,0.06405937350584046,0.23568562747759653,0.39012993764829657,0.008538137735650472,0.1928224647470007,-0.42849406088008013,0.09315053985630806,-0.17248925166990725,0.1494969742806931,-0.0683465006037641,-0.038571278099335936,0.10479245467948411,100.0,100.0,100.0,100.0,0.028367141070650158,-0.023834792315973036,0.14371792544999346,-0.021026356206606922,100.0,100.0,100.0,100.0,100.0,100.0,100.0,100.0,0.1737057161437683,0.1720377075361006,-0.026528978095246666,-0.1781822383365084,0.12375057552264454,0.04346494838897628,0.08370572607944649,0.05320130502912568,0.13298661460477434,-0.19242421746460014,-0.06544122476974756,-0.09283871081113489,0.11529894605593038,-0.03312779017326896,0.12530356036889548,-0.17965071171473115,0.1905071705950575,0.09006630281660796,0.1994155742695055,-0.06932925785801797,0.16720836367114605,-0.21338409358853708,-0.03193016503844858,0.02359548664656999,0.11151785881040947,-0.13299227321542087,0.10175612336975846,0.1586771569081863,0.09647793514100952,-0.13923133155232295,0.017856989294137163,0.059475036329950826,0.012535924970816573,-0.4053573315733073,0.11056585504534668,-0.19358077878683005,0.0371416850259316,0.42822409373769604,0.4691285097648379,-0.08065450498492314,0.09350403653510087,0.15065892055475466,0.1461517635881374,0.08199185962495512,0.09837794319482086,0.270731110073559,0.08584315440819659,0.13566107858565438,0.1446286318300543,-0.2067970209709068,0.014546898156613603,0.1576482144862283,0.07666728029763062,-0.08548692311917368,0.06802767577458578,0.11233608870074262,0.028836487703270096,-0.11661333084221764,0.11875194019189415,-0.06840735145305663,0.11295045682168017,0.09575582832780546,0.11847994282290242,0.09428913731056492,0.24175174413620848,-0.39699743055380987,0.2132931611742566,-0.3190077731181483,100.0,100.0,100.0,100.0,0.1379544534113738,-0.234094606689478,0.19346849622329687,-0.181808006267004,0.1299780960848283,-0.06773146335874129,0.2715103599340115,-0.22132082017780053,0.10667710645118914,-0.06848593017663965,0.14559764828899333,-0.021743682928635186
0.17935720689509427,0.3366347286704826,0.3494202684858758,-0.0566639956307171,100.0,100.0,100.0,100.0,100.0,100.0,100.0,100.0,100.0,100.0,100.0,100.0,0.11213654861057121,0.08865829750495925,-0.07146152958935471,0.09417980263021339,0.21878806265187134,0.20910356811526148,0.19047857883680136,0.2368355802667984,0.1179571227352952,0.13871628140445305,0.09819354203650313,-0.0342729486017956,0.07707352167965359,-0.4246369154357173,0.03989453944068828,-0.1857357316616928,0.017034181046234834,-0.19863449266884067,0.14618309051870437,0.27594259430482115,0.12023887009813312,-0.23476936893458528,0.2693269096877662,-0.0694834829818885,0.029035149870208905,0.2300091937355204,0.13307043713884392,0.03340875883951665,0.13850576748923313,-0.1970283180830377,0.0397895840380951,0.12416622527632365,0.1797359969879528,-0.2886284537749243,0.0694075546642191,0.15047276198034398,0.33001619279014865,0.0392742966771904,0.0407297055183817,-0.12402801420631873,0.18212805924901346,0.2832408762650379,0.07686766134812573,-0.17583149252221128,0.069258226477637,0.09574293881765004,0.16543042369130165,-0.09532880309979416,-0.012748613800994745,0.10209748239198602,0.08199358667546387,0.13667331047589648,0.20399320076781371,-0.053220826170514685,-0.036354002989717554,0.27613747702103836,0.11044913730228378,-0.29417644785851016,0.13353230823895723,-0.07234905984620527,100.0,100.0,100.0,100.0,0.012818688158784411,-0.41568210221835833,0.2016899343469825,-0.3381568207819039,0.2575708729606982,0.26627451308657496,-0.1517118637584909,-0.5264382024828899,0.038819307818222834,0.421030036657474,0.42691285058654405,-0.03708453071303941,0.03634186606894558,0.07887852551484786,0.3141996061714199,0.11538869714549034,0.22798598452183377,0.09670366131843293,0.3109548608369332,-0.4118468725118927,0.20289041713093142,0.1824341632072413,0.12872156343443109,0.15713378158323854,0.05779758232679741,-0.2849934349663597,0.15507037665155868,-0.40484933670151013,0.07756695374673568,-0.018152557907915774,0.029928276424591463,0.051343984978368666,0.07421310740560286,-0.14595626732257874,0.1321580686876746,-0.2963407447603785,0.1570835095712182,-0.1985996959502485,0.057470632086824604,0.1826434337304108,0.2776944019747235,0.14849067998655158,0.172239616069139,-0.12927960208162503,0.09362442738205409,-0.08771685773278722,0.20112176040548987,-0.30050112250377725,0.12847129011926672,-0.03781621219376388,0.06817795010931893,-0.03603021896559158,0.06370020407040812,0.02651988232100338,-0.09200226263648312,0.06410586839402276,0.09315679311129134,-0.046618074133303676,0.14240368943314774,-0.06518602378370834,0.24218826953594152,-0.050822419054627914,0.16851277787127342,-0.35619079994233516,0.04535148632548172,0.3768600418423612,0.14530968883256204,-0.0531055265549179,0.010395799393864515,0.11535523535181921,-0.124057122908771,0.08278393430215808,0.0638909215763187,-0.08119403588693386,-0.06421580303361696,0.038499127678479704,0.15232142841291016,-0.033719642648837964,-0.06290544003991846,0.03141201700410293
0.1925519626607487,0.12234130893877246,0.30804803288395904,0.178390110381543,0.23812867413720287,-0.2864366146522197,0.040080298259615954,0.22399050045147498,0.09284440245193118,-0.12973745207665893,-0.11682093551855827,0.05670851513818055,0.10098926056520341,-0.008892057718898077,0.04874475408916319,0.05057974574313187,0.12568255821658256,-0.1529175794926581,0.15560540969232578,-0.13161794735865717,0.054063913200058,-0.020083165363153223,0.031073732952519535,-0.09170391332400649,0.1367146389267045,-0.14557440218918422,0.10704142180788986,-0.14156187425315742,0.011067641314612506,-0.15636918213564682,0.1050006326320691,0.09619096039309652,0.2228606184419822,-0.29918194160511147,-0.16749523360164964,0.20156900759580854,0.07425001467150504,-0.172985133032474,0.43739152975056494,-0.12982846697956604,0.12384348082077087,-0.1507275900898381,0.0712025168111966,0.13072016783261772,0.07201834889935771,-0.3559617959743961,0.07310938418532192,-0.13960038810245762,0.04460660852721889,-0.3883733450961653,0.1883153266605901,-0.35431221068852525,0.05873886228525099,0.2155346017042109,-0.08834118205015766,0.2537242490081051,0.026930232539420455,0.1845634281195528,-0.05101010677460494,-0.029092696066987223,0.11430988927039698,0.1343488850466592,0.16804135079293422,0.09851532569647384,0.29872795753880466,0.08724572131819044,-0.039154143162647786,-0.22638903046527142,0.0983331447266914,0.14394993379278662,0.12886353799697972,-0.06032558084905331,0.13257251764649552,-0.11858306973563151,0.1839920586563397,-0.10264207792697634,0.1511344057342875,-0.22863269192499672,0.09780377072961448,0.030843999816209305,0.014845799305362464,0.12415259831936107,0.4179969897165785,-0.12668003132583397,0.34683480997048305,0.24108589531838143,0.06510366847966097,-0.37115842122310305,0.17295030838165945,-0.2222884826123008,-0.017610082119436807,0.14481876615943295,0.02000536619911717,-0.07519563696946936,0.09184517803330701,-0.2909486905878326,0.2175741704258179,-0.17834404860812775,0.05259870669496163,-0.19562557226373156,-0.017712223732501392,-0.3137918577386313,-0.002827492502686671,0.19373017317732028,0.04467311420866706,-0.2754182171095506,0.056441899552498356,-0.08114938791764205,0.012818671769753705,-0.10671832294551545,0.09757803465403078,0.13711279134752224,0.13278452676965705,-0.06289779397895423,-0.046597232767463685,0.10797876626221062,0.03573206483586808,0.07629055761689049,0.0810939536134253,-0.22605073683157847,0.46002879192353097,-0.05905872600990911,-0.10601899013529732,0.136789629836295,0.19330355810475106,-0.0967920896463618,0.025365223548992413,0.29377166069076904,0.25129097214083107,0.212126441273999,0.012046466089648059,-0.37801085243860477,-0.12029293532946184,-0.12029293532946184,-0.12029293532946184,-0.09776439214904081,0.19298190833326292,-0.12149634939825676,0.0920096463358524,-0.34163340866429864,0.1931496004283429,-0.28751029907952824,0.19915463913321158,-0.18849536493448588,0.03875848914710643,0.19532498915489888,0.056513008079092375,0.24950990837117443,0.343851803202167,0.3390446945830537,0.17414308578180748,0.07395918830900447,0.08165921856703554,-0.15181489269615261,0.06198789551569334,0.035573371956428866,0.39707939258191716,-0.1610459472026311,0.10891401685982259,0.030992082752318642
0.0723203691862457,-0.3567621082063229,0.09124239100676326,-0.38257298300420706,0.14147731115859877,-0.21693843504693322,0.2141438172725585,-0.3805629873825189,0.20316144938219893,-0.032223057065218254,0.2298538380899409,-0.1505660017154452,-0.05836948933986,-0.38965042637521097,-0.019788862071766646,0.12919276538639315,0.25199044329345377,-0.13707206172237654,-0.0347045788565363,-0.03139424228757158,0.08869958659256896,-0.2963524429789021,0.10263302718069522,-0.25960289425229427,0.2345046425343013,-0.3189237760357744,-0.12762132395345793,-0.3722542369813601,-0.012490109554492042,-0.2741539138506427,0.006080171819042534,0.0692197143514025,-0.08594391793542253,-0.34164434681498096,0.08888807227714535,-0.23755033468767986,0.20031659571195512,-0.1326367748798618,0.09727565873995582,-0.16169205337233272,0.15411917650335172,-0.1602996494259085,0.11336751368577677,-0.31010720200161607,0.08664700100350575,-0.15586177283191632,0.11060686597627228,-0.13353807762940467,0.3204805079866961,-0.03799088791590894,-0.08672780778113501,-0.06926054435220551,0.14143979883488736,-0.032627020923791966,-0.03481830730144157,0.2168240372677279,0.35810978459578147,0.411606726739863,-0.19480387674406158,0.04746635985871342,0.10814131339526696,-0.14144988611559406,0.06472036305703904,0.027604813161109888,0.11142771160425231,0.0069514122009294715,-0.04364215958445525,0.07885209305925968,0.3596627658569888,0.16371482063387083,0.031878430242128636,-0.09274140761325053,0.15165625438542307,0.39304447530301945,0.49306045373387075,-0.05818942879005433,0.16308821103141513,-0.01581763674688362,0.19122596737771771,-0.18063190194613604,0.02140235930145411,0.43714618280716616,0.422593792311158,-0.11401026063775749,0.0820300580955146,0.3834913845594157,0.4034417377391116,-0.1749327212316178,0.15003439012353842,0.02912397863396752,0.3078850129558643,-0.15380941180706462,0.10411450188891586,0.07987997226150767,0.2035969731811509,-0.10007759550343118,0.09340088490450038,0.29374919299148494,0.2951884440070781,-0.12704301595666598,0.09804549403690982,-0.1189552386298769,0.15605166968995665,-0.2192866763153987,0.12080337898145471,-0.20907728203255063,0.2774655163795131,-0.33455517660111345,0.10185052426117194,-0.1585474807769885,0.21219801325343504,-0.23053780753320594,0.10953085661052304,-0.22343613786538996,0.18154286051951862,-0.38408447279347063,0.07514284566386517,-0.35617807243782373,0.12985384778682152,-0.29265930916953714,0.07896770352947803,-0.21830931404246243,0.165334182385953,-0.44164845995517943,0.07841259130129484,-0.07624413494904705,0.1461809905737354,-0.07507282845791836,0.04224388873622594,0.05323429292777427,0.06739160508865542,-0.18209952834039084,0.03891308914431797,0.12300254894970593,0.09209923493715459,-0.10173301283002033,0.1724500514482835,-0.19586637576196841,-0.14444714503064604,0.06254180490948094,0.040202803544485015,0.4169283518792709,0.45727792989688576,-0.05769092725848313,0.10953590458103814,0.40053380875376965,0.41004186628818395,-0.06078282037371105,0.13428752042553152,-0.17456863819089607,0.07952484843068085,-0.10084566834310466,0.1860865662920145,0.17420262874397482,-0.10398677664526271,0.06101316349492558,0.011765252474997847,0.344832964479209,0.33859272889798236,0.2453809279541015
0.09048309513126733,-0.007040216151153179,0.14358380757030814,-0.21327329413255158,0.010404207369177833,0.03971378163778475,0.16713207266458086,-0.2022421265212413,0.1256232352246813,-0.25925517280059773,0.2086308986833486,-0.3398106491237677,0.13224227796718252,-0.18362534354003535,0.1349114335396924,-0.29262986947093533,0.09021184363749875,0.2686211585211852,0.08694991020036548,-0.008253801186875454,0.09187863184178882,0.07592759204401421,0.12982226879099568,0.012539702882448142,0.149772593175933,0.3935489024734948,0.3592125983466147,-0.11131128717490132,0.21345043543735193,-0.015784135800767776,-0.05776050055805899,-0.265379040300769,0.10741061301439311,-0.05746363680383153,0.0429347408416486,-0.16943830392872106,0.0669047420744767,-0.023664064822327316,0.10652922604653843,-0.13509252224086538,0.0619480033428586,0.30536930491795544,0.05628113325685624,-0.20161805893315315,-0.04941009913473908,-0.2511693102927821,0.044689838280690036,-0.15812280880328414,0.1003789367242288,-0.17000874749702072,-0.009639470508203962,0.07500407716741313,0.10737866051390432,0.024491825742505392,0.12124141864717661,-0.09987843871616263,0.14211267808917427,-0.1382922214713972,0.04370088887716835,0.056564984576332536,0.09766720617628286,0.13284528632873221,0.11833779603518015,-0.08626488591491703,0.05843811784958186,0.30465931013904324,0.10528402355169827,-0.23039454678363497,0.012075339444051689,-0.10230378284846545,0.1115618433541068,0.014241469201914408,0.0494813342020104,-0.3564403559719107,0.3886632259632544,-0.2126071640621565,0.07971498844603542,-0.38133863458635175,0.14469877695737743,-0.26798688416991323,0.03678900618863071,-0.15358731801760586,0.018527477649849033,0.07310556333976803,0.19430575104516667,-0.4071388853050824,0.3160371699500165,-0.3397229839731396,0.2256329457550508,-0.34430081327247036,0.047645279955458836,-0.24239327414910386,0.13078122467217235,0.08035263567745694,-0.05924544676372777,-0.17188372928898477,0.0881533804325969,0.09288241242997136,0.0016711132809795332,-0.11959694015464012,-0.04854287955973598,-0.4098382173535456,0.20925748876462194,-0.22642783853567794,0.0411761894010506,0.0514694736331628,-0.017236420245883816,0.0514694736331628,0.05208306071994762,-0.38820163400788144,0.14404942501373463,-0.13585451707641014,0.04243728375641626,-0.295760468206969,0.3146962680559318,-0.19315089255744938,0.034866427383788354,0.07653746177303228,-0.08364198792542865,0.0606371834002791,0.056609220267312674,0.32673620116481356,0.16479637559504096,0.1634521284496965,0.22530909023200257,0.13670107892339092,0.044268682526643205,-0.09168818522575564,0.07730533159864439,-0.21654662648122885,0.11585920389222977,-0.19719769510359217,0.09105664750734462,0.1754759937683832,0.05731572233621143,0.16861079990720362,0.004648502525157552,0.42385659831016054,0.34450131262985384,0.03482774420683353,0.07378705432111493,-0.25064221571540635,0.09689373216808687,-0.291011496125781,0.2781271390398756,0.000716299572096353,0.19403614285820364,-0.1026628922133876,0.10330959932021637,-0.37029178239709176,0.17908763889282042,-0.3846245012072208,0.14524842810166178,-0.24612603555865054,0.38346959767842176,-0.14860479241515423,0.06428192799264565,0.029720904493300893,0.07035458972059784,-0.22005394397448028
0.2071237391714624,0.13249240427497325,0.15133608033348322,-0.10315332784896658,0.0306450358280421,-0.17122171683557486,0.006266993084866904,0.19239783009916514,0.011091029270926214,0.18783100156670363,-0.1382571876718348,0.05904083824466321,-0.002850639293882089,-0.009956760995571565,0.049174009786441264,-0.2599284214367432,0.18670952940812657,0.003505022264726083,0.0641871985335221,0.09534439920473478,0.28693481818863853,0.16009359430619485,-0.02981356700556647,-0.14781379381744914,0.3400141618046297,0.3875370758314144,0.0731813171305595,0.03208511281654012,0.2467537979205217,-0.11821213826184378,0.3040689819537103,-0.14308002480049453,0.07286426128560163,-0.1763396075999239,0.1481777257964415,-0.3718808555994896,0.15478347476520435,-0.33143188836383086,0.1052268311906075,-0.012974028017871142,0.1621016382740564,0.00714576533515289,0.2970819819424704,-0.15662615330484198,0.04847832317520474,-0.3592194282919441,0.08299682334016542,-0.11481273330044509,0.0581563629950083,-0.003211959894022554,0.07010204062837441,-0.3586844152104373,0.20506688535590892,-0.29461869189726364,-0.13174605960124688,0.36779961501474834,0.05622116533450121,-0.4033563322412333,0.31324529675500673,-0.3600236665510208,0.11952834455828579,-0.3009898805935162,0.12812584499921129,-0.30447575275595723,0.35449466639997185,-0.04872692633450807,-0.17545977613892771,-0.2660388318617822,0.10456247610542949,-0.365981306237075,0.3830667251876788,-0.16449856479384978,0.1670589161134025,-0.3134172626874781,0.2849795385323388,-0.36485130906936125,100.0,100.0,100.0,100.0,0.12103058313405876,0.24891587792413022,0.09230189186920774,0.28728301815433194,0.08439768636803142,-0.35174690791755425,0.13438840137195437,-0.1829029645412351,100.0,100.0,100.0,100.0,100.0,100.0,100.0,100.0,0.02133945623240838,-0.4073564820641979,0.22296631181118892,-0.2845979330240243,100.0,100.0,100.0,100.0,0.023660484450704785,-0.3269143691524464,0.17430622732420484,-0.21921800425025084,100.0,100.0,100.0,100.0,0.040082219924429466,-0.207211898934117,0.21960016702815655,-0.2245514801237495,0.06114145144348422,-0.0679643810348533,0.4103333175359028,-0.2703673735075788,0.07667774192019941,-0.22978798831919253,0.2875234233008226,-0.18645435227059898,0.11178564419510775,0.18085355057734842,0.1480073582545182,-0.15222372792519753,0.08133615551879529,-0.19707808095871907,0.1473302790441346,-0.1246236087627298,0.05576870152758311,-0.37677493668074674,0.14145772821002414,-0.161929204707987,0.05906143030551802,0.01319779760274108,0.19723093991003268,0.10495934019650127,100.0,100.0,100.0,100.0,0.04429545808029385,-0.12090929079639699,0.150050923818949,-0.14593837250973904,0.11493935564748504,0.3087112399317207,0.03400783341178401,0.09516532988289125,0.0942358681930194,-0.0712975400479911,0.1771434591332789,-0.2606788584046081,0.0506583064621807,-0.05117590309891837,0.17314053710989283,-0.17720143726711987
-0.05217937867218354,-0.299965348548104,0.12385511900889552,-0.1992348360413158,0.1779839255377223,-0.04494457885416395,0.26201219385082464,-0.3590121064346381,0.046481262323489425,-0.10563091814441565,0.15791837361975045,-0.2547089501875526,0.06632104517135207,-0.20172822452420752,0.10274294709735286,-0.39082422407869377,-0.015889638309337307,-0.35091540461054366,0.29457786247697176,0.05780535749536711,0.2568082334381145,-0.38877890486617944,-0.06094115280075026,0.08779426218930032,0.21069455467681902,0.03602045733375435,0.18453049766495105,-0.34022569782600415,0.1864483283550715,-0.42921393263205176,0.20623824678586142,-0.19786524369039082,0.1984340145731579,0.03350364071261439,0.2385950108066418,-0.3602185097025631,0.07312412276637364,0.3186476129783034,0.16354146534597996,0.23447092352283783,0.06447825423597803,0.4059259146628419,0.22567437127633977,0.26192482983007187,-0.00038522107174826514,-0.3793605978629142,0.29269576402004993,-0.244702344200647,0.12055537998628961,-0.13021069221350462,0.2092179671827361,0.13394661015266252,0.11390185296786484,-0.19266002069492968,0.18292400997200667,-0.3775446622756523,0.20288279197927078,-0.0017548847438956794,-0.17056341004350334,-0.06903142142985708,0.10166546915439997,0.17650640672603313,0.04572418347197055,0.04572418347197055,-0.033443594659099844,-0.38671624766707585,-0.12013357101346536,0.14828794778472232,0.05144576633028933,-0.14769956585051197,0.13608082107107056,-0.16425973435449484,0.16434388214164675,0.018000705603965404,0.1849824123023603,-0.19536413473853576,0.06455378384446055,-0.28346477743163995,0.06619322374840746,-0.26891929981196694,0.08616806852586889,-0.009648366588672845,0.2447542520308699,0.11712729033342724,0.05387530442822978,-0.39814586405654506,0.10646117182297217,-0.3489634151306837,0.13692958375338232,-0.023118471792238943,0.03189929265741191,0.27788134088277416,0.020823293044778906,-0.3989178697121765,0.06958709137037625,-0.23006590468757923,0.08788638951165068,-0.37856039034333716,0.2455662790634503,-0.10693585314297466,0.11119866461345267,-0.07441031698654432,0.09707197069286184,0.029795592767422767,0.058958492457892586,-0.2320832477885001,-0.0021657285839673246,-0.20150063939154744,0.058972249138997464,0.16174789514343052,-0.165085978064541,0.17254064556111606,0.022344909090876844,-0.4433303630838458,0.053917968004685624,-0.295761653334323,-0.023040685023182142,-0.32929725255984255,0.2823981655950585,-0.19560272729731315,0.04823778245672592,-0.46014639076645586,0.18532648544986713,-0.28528836741698516,-0.010780456600209733,-0.33246342358990216,-0.016563077094000483,-0.1874252824093794,0.06439698173885908,-0.2970196209081343,0.4058450429832358,-0.04892973274982916,0.09319617921956863,-0.17569375624696718,0.14450466671870343,-0.18963888668427473,-0.04642043703984811,-0.41188992685370773,0.1549457482558652,-0.23126236907850703,0.10219447646141122,-0.2628862120766239,0.29287443937834234,-0.048855766411503514,0.05985878502528118,-0.3113800486939494,0.43745617201051235,-0.14258843433270443,0.03875086467677069,-0.40533714604749754,0.16259149360421232,-0.2031416115540261,0.13025653435492263,0.13795646408715745,0.027076512736679582,0.3489792925088218,0.16446805424715344,-0.05797468254389669,0.14596255383478907,-0.3141644200053652
0.06522354109743744,0.06477830668364129,0.057715703759030144,0.1446755967274547,0.10743872795706405,-0.05012226445899094,-0.049125577546723226,0.13367507348110538,0.03471721641016353,-0.28795574291488263,0.04407140282678066,0.07950452656088472,-0.021217128407382328,-0.32789749755287895,-0.04454479088837802,-0.2333521695268346,0.0790268011545375,0.0375014319745586,-0.09913108550780646,0.2644253473050353,0.0669314080623116,-0.22935475370403866,0.12674299575589548,0.005495858274651731,0.06812494071406155,-0.15620142288836572,0.2668537376110495,0.021271900719976533,0.06259092990555085,0.04951872525587805,-0.10894279526824167,0.21491822814840292,0.1326937417982398,-0.12723197270187442,0.18876971120239874,-0.2858397961617528,0.04948949755546875,-0.1283731541841382,0.32310396268436753,-0.042949913840686194,0.12685046042621045,0.020161938111230234,0.1511743160717559,0.2103772614467011,0.05647108532387996,-0.31032364507971233,0.1046142818928221,-0.15585974663082972,0.06996033226245206,-0.3256165370057769,0.1668557635326352,0.20736751053352892,0.0317021034208942,-0.430379263547278,0.16877837696410286,-0.3562695275056881,0.008212623270625843,-0.27646548793010145,0.32557062655299274,-0.13455404204974497,0.033097864323199944,-0.3153032887345928,0.23492306957226705,-0.1895266550630703,0.061773014429635356,0.03136484504367562,-0.10721782213342686,0.15917901298290105,0.024370644803614217,-0.22626164492805437,-0.018037106597710663,0.051021457690139646,-0.0019014309189271123,-0.2681648513637652,0.25457240990364916,-0.1362396527870115,0.014831585256080235,-0.3374928264290928,0.025937582415954872,-0.16849742273585605,0.0776462577240926,-0.015483425007204479,0.09300047363879366,-0.22843463941205508,0.09585954813662495,-0.3041283607564512,0.11769596034952788,-0.32377337480913193,0.13384719843817916,-0.08572274192675372,0.06747456249410554,-0.2794190508178946,-0.017583575509925176,-0.3433539958401298,0.3611668239413128,-0.16379635283225888,0.11692818512379752,-0.302542341306577,0.10286849510416458,-0.42243820917122143,-0.04228042780233704,0.05253962143249615,-0.11013256920720366,-0.07297030863259632,-0.02390548543342731,0.16616761416851392,-0.10887960007882899,0.20520226258655577,0.16464830080508974,-0.3573700799032216,0.08025436422378841,0.1979658612922831,0.08793770297809343,-0.36510315121969295,0.13777312752705725,-0.3651685990400656,0.09543793893912594,-0.3595984745108737,0.11784413178377627,0.18272204842069711,0.11058694083235393,-0.18596625140587109,0.07957063360749872,-0.23617471619072344,0.05090310276509939,-0.059308319089576164,0.03295903791388634,-0.07623771836388386,0.0563016039124446,-0.31119830657562964,0.28989062156804063,-0.33033175435568696,0.12332559403832205,-0.40096001811112114,0.1818957424017197,-0.17948687990018364,0.20812697744111952,-0.043190087370376634,0.10587907438582425,-0.28558533960668925,-0.02142746835025445,0.438451683717096,-0.19474460209090513,0.2601514359199826,0.03662970037138008,0.05526250291897117,-0.05789539049549971,0.11208482691156234,0.007893248710276267,-0.37491647202859185,0.3102120020323733,-0.19770891348084957,0.2188192085970274,0.14285316816808452,0.15546977684018487,-0.19459140869238045,0.12124834407271337,-0.24573095807010387,0.11355011497473824,-0.10244999360284385
0.12093440800830609,0.20525133034916562,0.010399378961617335,-0.17589926062414518,0.055922283028706415,-0.1511931955868453,0.09807093702749928,-0.4070184396439155,0.03612124540555052,-0.0058121634517265125,-0.12544623484862763,0.18495780902846584,0.13433817990325422,0.4041509131141292,0.17094063750313912,0.34783426278999896,0.09097169089302888,-0.06161179995002759,0.07782144436233104,-0.30252374919598357,0.07331008561646844,0.3247789480303138,0.059827182194108285,0.1311150981750714,0.01792357670901521,-0.31296454343825014,0.006068894498688707,-0.07910008589412719,0.06471140833168526,-0.23008596338180914,0.15429340653002674,-0.2731139929034771,0.11354532471197594,-0.3091643011755069,0.21393676537703665,-0.19021150736231351,0.06928492623445448,0.06115982416199956,-0.16733891717858168,0.2798171306899748,0.17025817905477353,0.11562412126003094,0.15640644449818125,-0.03907609974947004,0.200104814373048,-0.27450138127961754,0.0318440925832983,-0.22818605268476777,0.10239634644082432,0.1422502657136391,0.09394635782958292,-0.04616056947864927,0.07533282866670336,-0.13548154555221048,0.11855380447101917,-0.3089138648003621,0.1112431850205038,-0.24675628555627172,0.17492623769952026,-0.3771316897028388,0.13237768444293097,-0.3694699854778877,0.21048079273539075,-0.18578202256222265,0.11090970096062883,0.195946765419919,0.10332986867185331,-0.1983637754701562,0.042004606948584,-0.27844565053788234,0.3194941897290702,-0.20330828659718278,0.1357576266780033,-0.27549957021729626,0.12002495640550631,0.08325516679874295,0.11381069417422157,-0.3263243719450811,0.07741968122152046,-0.43359802041077367,-0.027147048551333108,-0.2792605469773801,0.2078995263346959,-0.18221780786913364,0.07122350126384197,-0.038172230712308075,0.061422242809469195,-0.12872581990771048,0.09675684176152322,0.0485603761460551,0.07516859839817316,-0.25613574805301453,0.06526629069537923,-0.30199497624610017,0.07241361235310387,0.0446946560716566,0.19302391237713382,-0.41802203313846054,0.13360419926799288,-0.23808623631049583,0.033803362508656246,-0.3768386708833667,0.04723877432032428,-0.20602564471525847,0.039505938759026596,-0.386823603532058,0.15473353307873822,-0.21210840030633296,0.12909928049252553,0.10051513299585471,0.10806506446341155,-0.1914678125130556,-0.017662382212032847,0.11576039333846404,-0.16650005198272055,0.2293652091930245,0.09609109406901876,0.18708354615429168,0.07038643594881477,-0.3300125253763258,0.10519880466719793,-0.21843947172707934,0.09928264346480625,0.13261975921055774,0.007354114392059248,-0.2745528434639602,0.13152155801056992,-0.17629173812146107,-0.019629941728725033,-0.21919400916714585,-0.0028319666714279462,-0.09955873967902013,-0.02023936387488927,0.19779536598432385,-0.05225803615217172,0.2883232530182529,0.07837985143419685,-0.20852039984955756,0.09779078873990185,-0.1682242681710555,0.10725096877367041,-0.2555222563388862,0.08078338270732525,-0.21880584590829244,-0.011953035722182162,-0.023444488506135574,-0.008728186523017295,0.19928765364603035,0.13216405144080626,-0.3007751115141428,0.0775427844367674,-0.3325345415399445,0.06508271962396422,-0.23293669263926028,0.15329176200872877,-0.31593180504299256,0.0563353407600263,-0.3464569231068055,0.15206467711416594,-0.3190286007386521
0.05221818662754307,-0.14315785129323305,0.12449007641182783,0.0042147913344028065,0.0902316719530719,-0.06424693085722016,0.05529870471087859,-0.33028749332212326,0.020034300715812678,0.06314558403549417,-0.042699156708809374,0.19656438265884307,0.04527153681292816,0.1293010471196666,0.04146684941505001,0.20456410698959765,0.19821422181104942,-0.4245703829450992,0.2975861684311216,-0.2573324278150091,0.024055194969376345,-0.40941160933210297,0.17501821188140693,-0.20764010995768922,0.023258830701512044,0.11644843512570531,-0.11408024338048194,0.16411472803315616,0.11416383199039956,-0.37498926699590707,0.21124914161651043,-0.3704369118823294,0.23007545529908985,-0.08395322082351162,0.0057786576599468675,-0.36712859811432585,-0.03344777020312624,-0.43896485720593975,0.0162328456326606,-0.21348709638075436,0.05615707660223085,-0.3094299120437214,0.4232588960589505,-0.18122498883217888,0.15121439933339592,-0.4289100949542764,0.24245606297013883,-0.17467182251662372,0.04932820070757503,0.39057732121622724,0.13466110464546854,0.27094220085161386,-0.038934109293436506,0.10471376387639321,-0.08102187631429705,0.3420801942832101,0.08548808578556195,-0.12216594283934995,0.09043788624602217,-0.30549599547003364,-0.05655481169994743,0.3357180551354822,0.16149149885414954,0.29318128339381566,0.08636553628986604,-0.3384621670817926,0.16149788712032734,-0.3330128218968715,0.12626501548792127,0.19213626851771812,0.09921704571953002,0.27681026574403944,0.06854073082634855,-0.17189306064520699,0.11619468593288887,-0.23716444845317078,-0.018528905239233825,0.1063729252444391,-0.05254148548388246,0.3509449088544977,0.09736139544861538,-0.05876379921451967,0.07447019945542166,-0.35425566065676956,100.0,100.0,100.0,100.0,0.10387305992092263,0.015533627480306136,0.08534746699103443,-0.4217327788122758,0.10373823318846438,0.26062022752155967,0.057878906346601665,-0.37501924176872414,0.07790780888120943,-0.14947030795044985,0.03752463170618336,0.19635741415827165,0.1178742315207394,-0.009422473510638893,0.07459071433857378,-0.34124666311354607,0.19807058637632524,0.13248888999901967,0.013026174357919328,-0.36917933609820797,0.09988409137593371,-0.10164664609449854,0.08691689574720537,-0.3197546158405687,0.09002155521045874,-0.04140676088322953,0.07430827515150179,-0.26631915900954917,0.1329157268016053,-0.14656200203273467,0.08539429269534227,-0.3647870383349543,0.11577095284706504,-0.0713931298457234,0.08088716074422211,-0.29257003949152505,100.0,100.0,100.0,100.0,0.06633549827139006,-0.343558106481035,0.049675839815465514,0.21680630516746152,0.1789307364821505,-0.27184307591002765,0.08181128503196783,0.23127494937454196,0.08426797219073708,0.19867433259717066,0.07220554832322103,-0.38670495315426867,0.1184874412972308,-0.30552979061120494,0.07722054436555648,-0.045212823632365395,0.2388644027689401,0.1965384908552632,0.15680118516355285,-0.3784147918830181,0.18755464235138686,-0.2725668786633704,0.10409732457384184,-0.05902842083361247,0.11131644683208085,0.10790981812804581,0.030737469017338988,0.054920993381142286,0.15045379160064448,-0.0799068157661037,-0.004101601706280322,-0.3676707091067054
0.07832290853713264,-0.12343546403535383,0.09522704694469808,-0.31711144801590707,0.08308822898884252,0.10586235953889947,0.035314975681145,0.3102130989935644,0.045216364068048326,0.21554183960998236,0.07703575166415055,-0.30387179845038126,0.09023587688619382,-0.09189816918052017,0.04649523173326636,0.041775980131175006,-0.0073234504178177305,-0.38842058031126964,0.0714422639702033,0.22309236883833894,0.13862674927882973,-0.22244441280016053,0.004709908162701851,0.4202896990996486,0.06330258886681536,-0.19176658530548613,0.07566855294129993,-0.2923031359662691,0.12620494427828405,0.02060953216191122,0.09983249208756503,-0.32653056466710756,0.09106750005671017,-0.32282806594411495,0.07191419087587822,0.07949367863819448,0.12104971316590322,0.2634944258200113,0.10734533227528062,0.013896272444794813,0.12395752683009305,0.0002056839065226468,0.06675553171430254,-0.32880777751363544,0.10965362098462778,-0.25710667421762057,0.0759375506833404,0.03352935936135802,0.09372394660382431,-0.03826883842472447,0.08809116093388937,-0.3146950738414284,0.003509257485269415,-0.33711294931054286,0.3019001319596487,0.1855305376553868,0.07296435454661579,-0.1467576651455717,0.12331622685053205,-0.2540269539636073,0.12536267655658992,0.038054822236419844,0.06984385670917817,-0.36501925036695854,0.11590519429273728,-0.09354670348469854,0.08559756035147756,-0.38689872829510336,-0.019471793085859612,0.055245322278154554,0.036452541011363374,-0.10188869474544485,0.0823379070090026,-0.09575757568991844,0.0747451641848807,0.3018525917199068,0.14983629152265118,0.10961656549152411,0.1263158161290071,-0.3869835048342507,0.1521458078320239,-0.20104790131665756,0.07733851482945331,0.25607318790825906,0.1395056065804284,-0.11881254599324616,-0.03537439646333078,-0.235732886520012,0.11792849266900833,-0.060858175041262494,0.0892863201995435,-0.3592968740558511,0.09383579265804742,-0.2547358354773651,0.07308750072968186,-0.3131516372162009,0.1373395786633753,-0.2157027552915851,0.07812002854771909,0.08380675410126423,100.0,100.0,100.0,100.0,100.0,100.0,100.0,100.0,0.14315943734440356,-0.22724577519266573,-0.008456330706869145,-0.3040650265067026,0.07474933416875544,-0.31068708531450395,0.09672350569696586,0.18628929879350653,0.24783111033416647,0.1568055916031325,0.1621792840687304,-0.39583472785881235,0.10687358190217527,0.1842129293289175,0.09219599067698106,-0.42672151893006843,0.08398075973217031,-0.06891530675650152,0.047704525942323876,-0.07239760361389132,0.11967081704736503,0.10865400650287865,0.0715435193386415,-0.31073896069599305,0.07730850695300245,-0.0250421270813068,0.07277369499078926,-0.20148340763639785,0.09413078956654908,-0.26382882995323104,0.049412759586725835,0.312761636846241,0.05324591478983245,-0.14583520806243638,0.05503814043200053,-0.33260277816459605,0.08357892674626861,0.16189430082314585,0.09436200110474402,-0.29108236574764684,0.1096470912639938,0.24101090333374248,0.06193677125043488,-0.42165154559584905,0.08485301863285857,-0.3822919180195357,0.13654362922594443,-0.07376461614034494,0.07859998374884647,0.15892304776213687,0.041122752215689895,-0.2008918671391562
0.21369519570086198,0.19403726988668088,0.09989655747492387,-0.38059046072996733,0.06565401803512398,0.2529346305082554,0.057898284620962644,0.28283466125214624,0.20979759472476955,-0.21991490412916231,-0.05819548780870136,-0.40433312449381964,0.13764092791699148,-0.21517558298210293,-0.0011815187808506405,-0.2991570204105434,0.17808650022269193,-0.10664820223234214,-0.04601619784064585,-0.0701579983355034,0.15804618259673367,-0.26565612315216725,-0.05044102162545314,-0.3775292020143745,0.05206880401003522,-0.21270954535869477,0.03968743030010168,0.2428119337471931,0.06238625318670326,-0.18123560586514903,0.0782821573883309,-0.1294933040247121,0.004437859094867499,-0.36200931112820184,0.10670412793640495,0.261470722488869,0.10422611366907034,0.00367993742896517,0.07452310079170024,-0.32610096862156746,0.06781972799489107,-0.2753197457927003,0.05127870272223175,0.22130938372568343,0.17768178667881712,-0.27882875632557225,0.08061589234794238,-0.23529288399208953,0.06895544317620816,0.026376961557183227,0.06864152443112628,-0.13217108464691094,0.12706528426307104,-0.2467364249932038,0.10504133159113693,-0.08466031694597155,0.10923813215410269,-0.10896348852606835,0.099562231022686,-0.4845178199693072,0.09019059317044746,-0.27910690796387594,0.09690518721569415,-0.26146684054114977,0.1800569443773381,-0.2466969829714817,0.07412614890526917,0.33318240146417344,0.11594157259351001,-0.2743709065991633,0.08232847302099382,-0.37053052579872603,0.12105995766069816,0.0453902990062809,0.06603000653274682,-0.32563347019266886,0.14868217383264268,-0.2942587391793646,0.08864309326707559,0.17361257757968887,0.08201035848741485,-0.06759865532648443,0.04285218834292964,-0.2787032502862309,0.1308255654209795,-0.092779501098675,0.06715064708233766,-0.34771310739846073,0.13324330081894992,-0.29152034292581797,0.18713348435083876,-0.14872347565882307,0.08821994261244959,-0.043510448750934384,0.05543345214325051,-0.31742053519429914,0.08737333058675385,-0.07311461228152397,0.0486986362758851,-0.010941814155326336,0.0979241032827958,-0.05786462170336362,0.05804010254776338,-0.3085408415624402,0.10276516146218911,-0.05560568131348024,0.06206374161349393,-0.28294505978169154,0.07799353904494677,-0.12262329968079376,0.11169935072732053,-0.3858139673009617,0.08445277513511514,0.18186587464279655,0.042330775446533866,-0.008851883472729959,0.0719698257220622,-0.2867465691728894,0.04777191511746886,0.07779938257071992,0.07333989840207422,-0.011157109385049019,0.046445964021584706,-0.19879860949054623,0.0744082592561282,-0.15117573967111453,0.08386895105105464,-0.10874631335972335,0.08866263110912442,-0.07737978521316138,0.10706022928779656,0.026071663512564763,0.08096878937566974,-0.07620438147278832,0.07430910822221265,-0.03561855785226487,0.12210386283211305,0.14876886767939307,0.061056369447926306,-0.38482037437614147,0.07882723168168429,-0.12013311908921939,0.05835715424348015,-0.02064743820187935,0.11827979168428125,0.08949541743568268,0.07130676695128821,-0.3826622371441014,0.08342183715764949,-0.21603293126267728,0.07797018704207326,0.04824843833552275,0.07363877714512644,-0.1577081874926232,0.08520242762118817,-0.041197316508894105,0.1190645015641993,0.0484837900684124,0.06154108588407559,-0.3556845628627375
0.0777263295591254,0.00971848741339107,0.08714245281322919,0.020703682201083824,0.07757490834663164,-0.09508483936371741,0.05463626131297987,-0.28598833618277475,0.08408439174696754,-0.2588731329421983,0.049003936193934866,-0.19079413261022737,0.09306912002650007,0.043221493956019985,0.04873486374306428,0.03801512073302579,0.09963326551859078,-0.1556562749075071,0.054145261371794054,-0.27218595548478913,0.10335696051329495,-0.01792043283547795,0.05927174310242818,-0.33658021783431996,0.08111916238539099,-0.019593945086844325,0.05106142512333206,-0.26623612920453327,0.08237098838675218,-0.01731156899288476,0.05919243319439864,-0.34841869576903817,0.11837886286462598,-0.13696621347901816,0.06954744884678446,-0.3055326178766026,0.07261097482655192,-0.06832526034002963,0.06472520434894738,-0.20764059685881664,0.10083682575382016,0.11011961781373222,0.041630035099211364,0.015234556616814464,0.10913484467382732,0.04337079278153971,0.056789822650395984,-0.3238588966249218,0.07433273148732673,0.13449948253412336,0.054337535664721895,-0.02039790297979576,0.06297040312535428,-0.023894724289596325,0.04682287033037467,-0.29430098982742586,0.10372012768470859,-0.17303088535559735,0.06045974307361349,-0.33121125683472546,0.10140993839158506,-0.010043392679067675,0.05572978348034816,-0.28919590611782153,0.09496582452604983,-0.28693669991171356,0.08092192256524813,-0.059627847241452356,0.08810091064319461,0.12367346245651724,0.05612152712333921,-0.30284245686208033,0.057167719598655596,-0.06901531393377248,0.15796285382887026,-0.44121424602659604,0.09692342535040832,-0.026154625694879835,0.060630524643421654,-0.3198277430346324,-0.02725659640538476,-0.2836835167758856,-0.007944556842784223,-0.08185149842337044,0.025486018627548207,-0.28870526636893734,0.031933696298262836,-0.013627319367160148,-0.018059416916171918,-0.2972773757057969,0.028177621534809114,-0.10697858107458358,0.10976247360939329,-0.31413924972090457,0.14481674912178,0.15438504418437846,0.07910824114553741,-0.2147217905021551,0.11296910283499312,-0.3815448536959649,0.07587032821413885,-0.17841394438441216,0.13603571898752537,-0.3507199843295814,-0.025199407674730036,0.11902607375043009,-0.042785904769507624,-0.020856061203872678,-0.027005061805187067,-0.3660948566867714,-0.032975636038049164,-0.11089616000765445,0.017837968178421433,-0.29984406617446885,0.18013503736316985,0.04066262643032893,-0.04498869265092602,0.16414231793781262,-0.02858114987186435,0.21488751186876864,-0.02067184554490583,-0.18418078892835216,-0.12870050767625893,-0.14473820741790558,-0.019356943448344807,0.13761895350706538,-0.0675865357473989,0.18571084635979504,-0.01868995502213521,-0.15644763077990448,-0.014493425380343053,-0.06589369970219262,0.07098106039859034,-0.25714686399985076,0.10073383917580186,-0.38027049189359713,0.03145124744114532,0.2500171620681476,-0.10897662672945789,0.2175064812715813,-0.014821465981398281,-0.404909856596115,-0.021276112106697484,-0.11082948033566974,-0.03409488869653883,-0.18657426271155797,0.029798160045650585,-0.17682099974715354,0.01911038607461233,-0.36341169586895655,0.014421489723664777,-0.15872474602850692,0.05715982020425371,-0.2796938106324873,0.04392456924165798,-0.3593810886136106,0.05979461858305388,-0.19952444341462325,0.10428624100867534,-0.15515333979092094
0.062252009149963705,-0.37343139967321215,0.16945348860957535,-0.42762388933443324,0.02434376948506834,-0.38152847133035805,0.028219844305201053,-0.3450946094527448,-0.015858268570539263,-0.2958610941857146,-0.028690979997466712,-0.16435179046031623,0.01859999912914484,-0.40753323353479026,0.14189677627671712,-0.3046683292433666,0.0037553527092231906,-0.3819620744542489,-0.01157860106992438,-0.022325275497319233,0.028408777865849562,-0.375065176205766,0.19987364325358145,-0.20343345099422946,-0.026877005377679796,-0.2310797559935393,0.002590863812960545,-0.13675630339472478,0.052572686328752616,0.031808974896634916,-0.1217336152339329,0.20279099417270063,-0.03482461952986367,-0.2950516921585057,-0.03142789140042583,-0.23726537609672466,0.07914780976499121,-0.29253255247863386,0.0864479177996069,-0.3553391849734246,0.09139829588761991,-0.20350123706293594,0.13462650215011562,-0.22143945772124157,-0.04001675287598005,-0.26057018085033545,0.031889612504483245,-0.20543298195229842,-0.020610985381804673,-0.3971333147258467,0.037588398536691464,-0.1890145469955798,0.023694295525667642,-0.3949666553044165,-0.056659446483491395,-0.12028565821868564,0.02456949606127934,-0.05562094210978078,-0.09017832054037792,-0.019175788838834196,0.12426871686049118,-0.09534059267600756,0.1469016248462466,-0.3454635055988096,0.02277124221341143,0.07452553286004579,-0.09530472089187744,0.04343740046109381,-0.021096387352294653,-0.19136478009167568,0.04202056388605793,-0.11234559720043139,0.08918373556767656,0.11109927031952038,0.0449350926506986,-0.2035543916480924,-0.03279425261694206,-0.22009940837325986,0.044731445232187125,-0.13982059551550713,-0.03141653173712795,-0.1944225025789319,0.03244962682719055,-0.1782402804021444,-0.02179779959513426,-0.43878230275790836,0.2744793263766447,-0.19143188276539116,-0.01784760769046729,-0.19376546589590662,-0.1332573184243943,-0.11547620912427024,0.0842850215337693,-0.051099412869571995,0.16761051126576992,-0.08514018617949472,-0.03433602952850659,-0.19579954009643102,0.043883799393286335,-0.17408880318059322,-0.025785568263477127,-0.2322702144681535,0.048171234247299966,-0.20514276716253743,-0.03557594979120343,-0.2200109120119809,0.024304068330073147,-0.16380238362288246,-0.012453423518337801,-0.29632932045541904,-0.01887511241107996,-0.13555046630118517,-0.014363521301412954,-0.18336592101845578,-0.08445658858160764,-0.12941502040086378,-0.02030803261259896,-0.15972455700965582,-0.09040333920888174,-0.12389886813830786,-0.024878830423731214,-0.4389831620955439,-0.12625248425696048,-0.1922614017223349,-0.028239703100370276,-0.3888792555508592,-0.08390326989931403,-0.19118190236455707,-0.011751968383299147,-0.4130999552905397,-0.10226824522639016,-0.12513768377309067,-0.005632969758698859,-0.3709483578058432,-0.052840467523777766,-0.12061460878053361,-0.007955876989477792,-0.40257868828915505,-0.0555320028747403,-0.20778687630236847,0.16360225524372396,-0.2198210682005467,0.2241833008048457,-0.10788932354679046,-0.02338833243084712,-0.4246865693971611,0.24990786363234824,-0.21485191273937565,-0.01914323138693745,-0.3976199734677244,-0.0663886450842992,-0.17941394444720846,-0.014179367659340199,-0.3937951239642405,-0.07739246623905852,-0.14180214841732858,0.03190780669050305,-0.3901285505366587,-0.040904865653309294,-0.1548876087700155
-0.0113513969351806,-0.41286529283860546,-0.07386181425416603,-0.14072004160497703,-0.010070145253439279,-0.10460352931975576,-0.0687018266483119,-0.09914318524813598,-0.023740124476494387,-0.44708260889983875,-0.017388037683499794,-0.19896141794024347,-0.03105712143122473,-0.4385171934265712,0.004125268522161524,-0.20635913734449618,-0.011806630905843309,-0.3833609504160793,-0.06616521892616413,-0.1512438956470666,-0.016644422110529175,-0.17100397489524613,-0.12920475302118378,-0.1632158059713967,-0.01472151162688264,-0.3982005160622088,-0.08803382283085708,-0.1547229425846803,-0.026576923439076392,-0.4176822357983068,-0.10297027370618492,-0.17771650330447547,-0.026352336327804184,-0.441998563557035,-0.12493226937803256,-0.22412635958145288,-0.02293980197123987,-0.4195047059760971,-0.10945043743642718,-0.15637455677944023,0.0017628947094246034,-0.4427248796220001,0.21308956723670236,-0.24318609369010846,0.01026104100575894,-0.387222667564042,-0.07954206742569792,-0.14215238421278628,-0.016124729320056038,-0.39614989087582314,-0.07035720674846907,-0.18303049207823868,0.05890079885603125,-0.1663167861215233,0.05810479129659356,-0.08678958585345088,-0.02764965438519992,-0.41374932014568794,-0.08105656989331973,-0.19944642368113405,-0.01966305836573806,-0.4037601322721953,-0.08758100602674475,-0.20139780716908318,-0.018685232611513728,-0.42663243594257505,-0.09845029392680597,-0.20187631687048385,-0.016916570705197583,-0.4207402657019324,-0.1085658715030901,-0.14821691083119298,0.06150099769224274,-0.3281586355894169,0.08587236228510149,-0.3718385712712471,-0.02597366925316209,-0.39288966571818884,-0.06545760041560876,-0.17087698462931988,0.02804107215803011,0.09524619687320575,-0.00014835314155721424,-0.12104765979730307,0.09284677147026132,-0.2947737349510533,0.13275987487600063,0.1296600499501798,0.05337159987641696,-0.21663681847486696,0.1596783692192822,-0.4473251997270264,0.04993567728436349,-0.2772609530953036,0.1414529371324617,-0.2921363143250451,0.07587955024611634,-0.20635539635240926,0.1066757296402683,-0.3666736456428815,0.0773699514979852,-0.33909309809567056,0.15981361394605315,-0.45337028105345867,0.020105891579074366,-0.23450106159810807,-0.05229177801455376,0.11684281504973179,0.0181510191794236,-0.355227948816492,0.21257397631504465,-0.21335078803934215,0.12836493776723915,-0.20515489483458355,0.08087240509050275,-0.2182740465874915,0.0532749383953293,-0.28370218431252436,0.162916215620445,-0.407586854963453,0.15510444170440282,-0.045481896405124324,0.20380550461363778,-0.32902213106621814,0.15980197024175258,-0.24436903460711687,0.2402804476244572,-0.13148275108709326,0.04107966386338807,0.04449045166438693,0.13903606448600353,-0.32666679345063165,0.019353190604190728,-0.4037958643534356,0.07063646150604314,-0.2897209134880279,0.13011888556066004,-0.19699801205998882,0.14805900638290145,-0.2675890571509816,0.12417263237528209,-0.33184557168891426,0.15532674557905124,0.06186018064313556,0.0910279261815701,-0.1795857693040138,0.09334538670964246,-0.3948745242978134,0.03548136131455723,0.08367182397698364,0.017390617805984922,-0.08879652337804844,0.0486319921236236,-0.26245127006214103,0.13613432324229088,-0.4124815432120089,0.02162070650440452,-0.3863928036839336,-0.03885210946992225,-0.3266675727769979
0.06941785938852676,-0.2530063021533707,0.128039474346423,-0.4266040057694569,0.034510740261926943,-0.2851195191685927,0.12124825194247309,-0.3472781580083576,0.016818321021017404,-0.3455435940833801,0.022257217010978894,-0.3041286354761953,-0.021329067308258124,0.10574316514939146,0.032613499288397185,-0.043168858985173156,0.14671752816350314,0.02779882834658518,-0.01783286114438782,0.20868661796234964,0.15877123739957566,-0.24364288657085578,0.24414136140988707,-0.17805337969000692,0.07561940339935791,-0.18372178803378358,0.1288799742011911,-0.2898810969376053,0.12468183513142539,-0.3158653566496946,0.1646784766838052,-0.20308611637097035,0.16535140139126064,-0.20927731909272512,0.22825430122684306,-0.10118042375000962,0.09956639118523718,0.1666119293449402,0.056612305606683976,-0.20268324086959374,0.06143038639687317,-0.2263448617610485,0.07825775395651394,-0.16911998402437156,-0.02499039819315283,0.11792470345774035,-0.17049148962727445,0.29185264322011684,0.09096080001654894,-0.0776505709223648,0.04957890300691942,-0.21318558170105872,0.019267861194000896,-0.4089686840310163,0.13578432973817084,-0.20507036392411676,0.07992377765273422,-0.19699594119013292,0.1279813790502144,-0.30449828757388625,0.06570884898989543,-0.2915140592641465,0.11724019183256568,-0.49088372574663636,0.06507205508821996,-0.026222111554313168,0.12603856940423525,-0.4578367615335915,-0.011949182431023705,0.11208796512626071,0.06362772206985352,-0.08324189068888402,0.1739963313023765,0.1611257687904962,0.2236639360896795,-0.25339503858302137,0.06470812273637161,-0.19648398890203783,0.2825847320299083,-0.10430759127540044,100.0,100.0,100.0,100.0,0.0426058868649145,-0.40539732134956435,0.07703028107896158,-0.17637668640341142,0.06725754718639707,-0.1743718366717235,0.13121503636851783,-0.46599293829270205,-0.01975011694372621,-0.281678237902675,-0.011368861045449194,-0.21638399669497146,0.09996546205952983,0.08394026967072817,0.05703158875804605,-0.3162677347041344,-0.021159261811651488,-0.410517202270302,0.17031884196766922,-0.17067836718668128,0.052275186812137525,-0.2089029918826563,0.14795023280696518,-0.3043511637512095,0.12575572094946524,-0.12377196164953383,0.157042380987116,-0.40114716789154153,0.07513687971370533,0.242204729279256,0.05645779278910357,0.02992677337229678,0.06481262382900412,-0.14231577533328188,0.06577106515660426,-0.3358390141979203,0.10491584547198451,-0.05848893383838834,0.0578281018722063,-0.38238394996114344,0.009372939711988874,-0.4125627841579881,0.0464897834133151,-0.20344469148731958,0.03601784605995781,-0.19208166505901952,0.1677063343687223,-0.28799641873520965,0.1037451643318123,0.07873639831463249,0.06202178516488687,-0.3357631215710769,0.08902936451247487,0.14125045139566483,0.05698858554807134,-0.10487727981977615,0.0670127095502961,-0.08365015826005992,0.0400402457611191,-0.14971028014594084,0.0965913421610333,-0.14647516257745274,0.15188773942422648,-0.3927722061503085,0.0557742614139323,0.07868515672162463,0.153680750174163,-0.4344452611317353,0.037877716873987055,-0.409428108377784,0.056113863940912445,-0.1979665737376299,0.003679770605025494,-0.4060777865362995,0.06600734736510305,-0.18332296782270108
0.05976626176123016,-0.13296852600332051,0.14541693550749923,-0.3674574328314789,0.05487638879086278,-0.08919850349544209,0.06725897686314779,-0.2378515569943117,0.10446241112290842,-0.028998918833739187,0.1473134699905973,-0.43625361250647876,0.0740274320891183,-0.2338973861205269,0.14796673824580683,-0.48953300444246034,0.03216711590255933,-0.42005934835697833,0.20397058714996158,-0.15383642916893311,0.06045773730556192,-0.21672027242951927,0.16848695737643238,-0.38654695951974344,0.08463489758019255,0.1620716740641589,0.06190489020769986,-0.3568503150724685,-0.001741347959931295,-0.4237436533422406,0.03114652471107586,-0.169975434714312,0.09304918854445415,0.09316225239056021,0.04082909449928335,-0.1696079414097778,0.04738826460208099,-0.3733726448558137,0.0863178096590013,-0.13915115476764575,0.06389102732074269,-0.24559401902187242,0.12302658354559302,-0.4206020560180534,0.04926515966557103,-0.15995823010522758,0.1223457662056551,-0.33499341713185626,0.05123156689174112,-0.3960043753347792,-0.028354019725026616,-0.1636872401444009,0.04988483314324994,-0.0966313465681293,0.14151719607692984,-0.3535495434123299,100.0,100.0,100.0,100.0,0.14346589836087262,-0.09549245395219241,0.0035732263152670612,-0.3356873112197339,0.04993432127792483,-0.39181692045834654,0.009330488136219534,-0.15445117401690897,0.1495930083110769,-0.12817739371762074,0.17161170239261492,-0.43611658520223257,0.05646046598162081,-0.1733864186003557,0.09640288251780606,-0.3851616940859899,0.01861876946208969,-0.411654767952479,0.03878906861182541,-0.10051749801719789,0.08019697068123824,-0.06238938617135414,0.04882318295884416,-0.2931857030354957,0.08646377291308655,-0.034167308634587036,0.05623771209410847,-0.2928706221264253,0.08759738326362995,0.17514132407165295,0.059640654926548776,-0.3191707250534481,0.09017766119297099,-0.061279181439337735,0.04724874831787298,-0.31119165688744327,0.09450502133525243,0.1014315141453004,0.053789345589206033,-0.21280195538515645,0.08112768815502903,-0.06299693544667041,0.0505043073853032,-0.296303982196918,0.08637665078851633,0.10391533554675,0.049833153555044876,-0.17961837447557727,0.08209938387488934,-0.06365366223017827,0.052243250589839446,-0.3410802229499055,0.07975179122620747,0.0885234495298963,0.053558461539984885,-0.241206437036026,0.09425222060705696,0.03975524913472833,0.04982519196493673,-0.20236192814710588,0.08844278376157941,0.10562107446423682,0.04997921099263075,-0.18317989790644545,0.08834233738812672,0.0979850638450312,0.049740210480933855,-0.20251337100786462,0.08067509583013398,-0.021118505428053224,0.051001560733636125,-0.2961336726600432,0.08487793997580598,0.10521431058787058,0.05318641549234266,-0.2660640409029688,0.08319666899672129,-0.03399320242798943,0.05172864585224486,-0.3198614841180818,0.08931421026863139,-0.0009689067722830277,0.06171850797980957,-0.23798046862381206,0.08661527565383137,0.11054273445021282,0.047146904389184105,-0.23157832541929127,0.09617016148783109,0.18129093164274218,0.0526115439577705,-0.09174132531800752,0.08700691504411596,0.06485169361904462,0.048848494304986376,-0.2328118286002382,0.08455680724685402,0.12219682050760934,0.05573162638713852,-0.25838465790967713
0.09141379098117375,0.16809098423687005,0.0478680959434168,-0.22036097108064406,0.08226024106501961,-0.04230050195667297,0.05794407250179882,-0.24968076700399022,0.09197038876110027,0.14815956427283844,0.05037656147600855,-0.2556357743858116,0.08540813690680751,-0.14126071300734466,0.05957168814078187,-0.33695594375228116,0.09017742095085142,-0.04954844137235777,0.05070503636797474,-0.3097643868233727,0.08240829323923198,-0.082768056894546,0.05788794135195409,-0.36272939406124843,0.07536235608180587,0.00022528788877856226,0.055967181318810635,-0.31347347507601975,0.08782148541123233,0.033909877805903973,0.05083649573672822,-0.3451878231727266,0.08440533693870955,0.047120258650314634,0.047888067685215446,-0.2577135377116381,0.08720834683260814,0.0877624378006106,0.05933927468743744,-0.32701117033545235,0.0802854384405338,0.08431264168244948,0.04720875135180455,-0.33332241105636273,0.07731889395162667,-0.010495523854415857,0.050720326836913326,-0.23603540961316857,0.07578798513925385,0.020533620632312233,0.05494779488414279,-0.2331657161978354,0.08301520193440974,0.022460978731188443,0.04789254685662216,-0.35853678869201067,0.08328037537685867,-0.026943917919501566,0.04946582263604271,-0.2526223602979689,0.08652061619336744,-0.08435937388110058,0.049024335692891365,-0.27435089862851475,0.08572879439805546,0.001124677836384709,0.05377927579560991,-0.3502136745859036,0.08879356721567136,0.1589081433330451,0.05053716241533959,-0.1646847380911143,0.09273121893444118,-0.03694359051669854,0.053893162653714646,-0.2504402626506397,0.09405079426163948,-0.047424420535118805,0.054074976212033554,-0.23188798090008517,0.08928279008143418,0.030366568029356347,0.05181332614082132,-0.07343098843533347,0.06539431991275121,0.041078506654286674,0.05494402845420834,-0.26055548620847635,0.08724828390220796,0.08075731799341228,0.05255930283325945,-0.24548909854247802,0.09131007824513666,-0.15445644720696144,0.05360811281255338,-0.1747670778302461,0.08558978627364841,0.04968824109221749,0.047538206616041606,-0.10317202185568228,0.08454458291613237,-0.008334891490145602,0.05425177937104776,-0.2778035875528079,0.08312460728765343,0.004046417600307439,0.05718853388927436,-0.1301771390610004,0.09291222031138556,0.010359383423907867,0.05016885226627568,-0.12079666473926487,0.08165131600536742,0.09139733365976788,0.055892323254536455,-0.1939910662739074,0.07551694828399165,-0.04865613706347943,0.06184949711800494,-0.31263363986765347,0.08012067317304944,0.01756576941564958,0.0563629698040812,-0.3846332365705871,0.08898807542206111,-0.0023849419230520044,0.054723142018223994,-0.33761117420708375,0.07427515908372492,0.08239195080069867,0.04919375166499504,-0.21953669038938486,0.07606692445505023,0.07685371488019363,0.056224483531846184,-0.27378624226130704,0.09563556759836207,-0.01722304306912252,0.05328808471827749,-0.11485908363223427,0.08083961482648612,-0.020530790024925152,0.060094656333659194,-0.06944527967304764,0.07693389904693329,0.06078497498661018,0.052406343750692266,-0.19671411877472023,0.08341104582100806,0.13356882248810562,0.05423988223414776,-0.3505071775486197,0.07530701114907738,-0.01619731631851528,0.05987562741208166,-0.3146301274903506,0.030772190601440954,0.017795262466495054,-0.08502263217673353,0.1943249482238371
0.07387342914994872,-0.0933757222896257,0.05994107847983687,-0.308671493854903,0.0871873717459667,0.012698037246125782,0.06471018632542765,-0.33858894500247416,0.07860181192852198,0.029770382041778905,0.050442476095049975,-0.23837659075356826,0.07418150706097547,-0.05996657930320453,0.05015414981261289,-0.1560704320489859,0.0825841742467937,-0.05928847949029258,0.04960169486088287,-0.30697234090012565,0.08824949392703252,0.03554629251718438,0.05847099538652423,-0.31139340752905004,0.07672490597361685,0.05342330825089811,0.055548878819937225,-0.30133336856241877,0.09673497868584546,0.01501716229166103,0.05052818560765241,-0.2190084359233548,0.09217798798705674,-0.016996253365202184,0.06403549492173743,-0.31642199583780173,0.0843327245278754,-0.14644802057729123,0.05128274406354592,-0.16348227193483605,0.08981681112366528,-0.0982368235796976,0.04985807477413069,-0.20836140889097854,0.07562865644062804,0.13781462003088568,0.05915317897451744,-0.3060800729079796,0.08207206576588352,-0.07685110250951976,0.05452537756829733,-0.3435146998234285,0.08382374251836207,-0.012673495808350234,0.054338940298161935,-0.24382764935601153,0.09086995619654331,-0.011958556823484276,0.05346258831853805,-0.09026987332524822,0.08846341755032831,-0.0733782644394903,0.055130732730512916,-0.0897611916718318,0.10005112367875257,0.1156523346151486,0.05706182073275998,-0.21618124979332565,0.08580114430778032,0.0321490978157099,0.057613318443828644,-0.25992219409085116,0.08638819754297042,0.010957970499653948,0.05601933229015205,-0.29540335854311334,0.09249976871340515,0.07579979017503738,0.05473998773071892,-0.1907433279534203,0.028683940062323606,-0.36039096799431203,0.09443018306201834,-0.2228576748186329,-0.017560906520918806,-0.16051481603908402,0.012519094256967706,-0.15241847007247397,-0.007520895148619217,-0.4079246296892995,0.04957852309652229,-0.14090448765873664,0.062272255587579414,0.2822965690228895,0.16796921448027669,-0.08611754714917821,0.06398385153323699,-0.17321865533469488,0.13671645034859808,-0.34129642874471977,0.14401660045227993,-0.2126093065977787,0.1474306897230658,-0.147089528232905,0.0445825074216902,-0.33730995622514576,0.13846929257419935,-0.3222840316318442,-0.013210754707251828,-0.4143613942762129,0.06372728798774435,-0.13510745293871818,0.01704380413070119,-0.3769799249742196,-0.031727149177248434,-0.27685684161182833,0.1388596784809082,0.3118554661989298,0.15384772209996692,-0.1375513919891507,0.022600723706693835,0.0028591415925508026,0.03772668113600864,0.1896505295166292,0.027797956720078853,0.018289953144014187,-0.07129471630466067,0.20309307753005482,0.14987279772125608,0.014924498296187607,0.005752901974914078,0.24526257927468653,0.017656127080631665,-0.2962151647096797,-0.051812812103762936,0.09951046258837874,0.015316776592217193,-0.38669186150428375,0.09471324340735353,-0.29259107636962695,0.025198243034575296,-0.385070987155705,0.07384065644954148,-0.23633004259912677,-0.0010662809724170975,-0.39319396004870444,-0.0712127534941788,-0.0820908602630769,0.005624813993595105,-0.37378503196686075,-0.049978849289673416,-0.08361128019487349,-0.029053686326163633,-0.22815653745336179,0.06459717917319098,-0.18340951920986628,0.041162009202185455,-0.3698750812069229,0.13602032509107165,-0.28121974818835055
0.13348108699801314,0.29426644882111413,0.1594476464382004,-0.1105072318780494,0.07862150643994892,0.12248677526036417,0.05391238607276538,-0.3155392842242636,0.02733609355375899,0.06035836715221144,-0.036562874042936844,0.23349243417831722,0.00985042942080902,-0.041013341307284526,-0.040158541912159805,0.18083120707443007,0.05627489469174708,-0.13209682633527928,0.13923274903547395,-0.4164768494611414,0.03208651337805345,-0.2879097208725618,0.01073641346245367,0.07937751197979248,-0.006536786345431804,-0.4050820412141248,0.045751985252443596,-0.14621704458663812,0.04363760201566449,-0.2073596792633199,0.06325065472845082,-0.1636612940598402,-0.015464366458923767,-0.21141213600542003,0.08960853440159204,-0.17014234565276926,0.02415150316391205,-0.002643525267769894,-0.07305517177266044,0.14859099414228807,0.009009712969731111,0.022542637432746322,-0.08322029833767552,0.24266229666412384,0.024208646989185206,-0.20091650587651966,0.023618711905909407,0.093721271256319,0.02629484569597791,-0.3691019175299141,0.07197997590857742,-0.3160616682593049,0.034269670838141406,0.08368669411174345,-0.09514467423581038,0.21867456269578078,0.03101091871159549,-0.4078943304122264,-0.052417124693790444,-0.110233823162661,-0.013194370516167203,-0.1585793001969043,-0.11555577477130183,-0.1226340614140633,0.025405877982596997,-0.07095123183590732,-0.049637546570430985,0.14459207340019767,0.024968270773014004,-0.16488059809315478,0.05536066046796568,0.03168966623812139,0.07800767736915572,0.05506079001816647,0.05016734285480365,-0.20052882227757302,0.05786066221039589,-0.130563377937441,0.16900161608758574,-0.11264763652979037,0.09335549415951497,0.051960728290624945,0.04851960875395241,-0.1683197780581701,-0.01574590058028682,-0.25240350848778537,0.02479597009654308,-0.15792633530124656,-0.01865736916903858,-0.16984117771686616,0.04526921992839453,-0.11735179760467564,0.05246140261447152,-0.09738075526290155,0.10615321379333251,-0.2578255507944279,0.05178874141022301,-0.21201218464687552,0.08900013238168572,-0.21956821537586152,0.06706842401418084,-0.10010343675269241,0.09211091420867891,-0.12114321329607357,0.06187490578379258,-0.16434393992670293,0.08234023437784582,-0.13419764088829247,0.07232319192061051,-0.18143869625839704,0.10168494856926424,-0.3679947613597992,-0.023677592983612668,-0.2209487351096967,0.0072304511647492825,-0.15483454435496358,-0.011046691694085849,-0.1806634415909879,-0.026168734859521224,-0.10867363325156337,0.1292754719688396,0.27125107982008356,0.24150017503993237,-0.1346621106524736,-0.012906794481438388,-0.18870584591855555,-0.10460776582897469,-0.13000839534570263,0.055795624543810735,-0.2702218029494316,0.07592749551277217,-0.25562966299411133,0.045404845974264446,-0.27536764459695123,0.11860786318925928,-0.37541296343309355,0.06035913936205614,-0.19467269749800628,0.11280957498293046,-0.12273446306049357,0.05772954022837192,-0.29051019932083644,0.11380439907627367,-0.1547308606370999,-0.006321462431817158,-0.1121408388340397,-0.1155677024725334,-0.0874510704730223,0.08932510461428302,-0.05153383665832728,0.05805740948614836,-0.23007156250716115,0.05641158330795494,-0.21628029782107738,0.1154718669363224,-0.3423264957917598,-0.013583428183884305,-0.142740909448675,-0.11774717465780521,-0.11773481945528008
0.08495995371223393,-0.009585395265751064,0.05240434978352277,-0.2647584052904221,0.06711651619682463,-0.13664917862711506,0.11473007235759722,-0.19180108800105133,0.0667415701281646,-0.20821207661205818,0.0940176452134401,-0.1581086853904752,0.058011792454149294,-0.15693031220026474,0.0690176371449791,-0.2256976533839066,-0.017374467699634792,-0.23297572727946098,-0.129755670556717,-0.1252188016497277,0.06264283382700178,-0.2737857971723005,0.09634925294081789,-0.14533882233486078,0.0692121736231661,-0.11303262949083863,0.12497864479783914,-0.3519818615740589,-0.013657471527894208,-0.4401348774658145,-0.09495557131077544,-0.1643519738400982,0.07879202812329716,0.11911033027293429,0.05719775572764922,-0.22370977883824167,0.07926877136018912,-0.1972214128408183,0.07744226818907651,-0.38287772149037,0.0498272097368883,-0.2092828080228205,0.08475104416154428,-0.16535644703711608,0.09104116353670631,-0.07510718159860459,0.051966679125532635,-0.3309033338714167,-0.024043917547289288,-0.2546656248510697,-0.002826401508981849,-0.15952193535778092,-0.00817315052001722,-0.2838304735554087,-0.12997454463991523,-0.09283973546835415,-0.00925018388067303,-0.40065948495348175,-0.07877388080922473,-0.10457490387835905,0.05256776984957441,-0.287956531094326,0.10591335166028984,-0.1840934105745246,-0.024101514507700626,-0.19341187035927437,0.011222880926709353,-0.14114782511978657,0.13268988027229328,-0.2723536470789493,0.17209441105980952,-0.1675672178059439,-0.01102484061225465,-0.17322543259047374,-0.11670958709716903,-0.12278650347357926,-0.017921689780691773,-0.15768143308715615,-0.015258095518684386,-0.14237675828925905,0.07873114209079683,-0.009323097892659678,0.06149385598723258,-0.2073810436434579,0.0755147220122019,-0.11999785480369066,0.09698947427389495,-0.39599651865211205,0.07731203223009446,-0.006901808196386472,0.05186887523068366,-0.2896546755348982,0.05638412269812771,-0.20262855682235872,0.11376655804398456,-0.23620367277961823,0.055719441864087074,-0.11397394971566839,0.09252182605971175,-0.39808192032505463,0.07607651519123351,-0.09915810531812512,0.12138413683730417,-0.4019655968924615,0.056287164059313013,-0.16426269367052931,0.10559773881711329,-0.42422437696449783,0.06255709068229215,-0.2212245118310323,0.13504784919474067,-0.43226060813264966,0.029398055821464732,-0.22993381821381043,-0.015040705719620875,0.0019498955440756735,0.05837871358901807,-0.10926198373999164,0.1381095618141547,-0.4329082496854434,0.09369472513659248,-0.0538286281085632,0.049021759123045336,-0.149942739142159,0.06749145721584313,-0.10039994896021887,0.11997309962606058,-0.3230376023615009,0.08195849354674176,-0.03753356028737201,0.10415764796473023,-0.21326118889921547,0.07580916129695829,-0.23907322451008495,0.08017473866041638,-0.1237518354320524,0.07998787953288869,-0.07437510180769989,0.05149182228523591,-0.23121665407387634,0.0715580394811138,0.09757963073528776,0.04799416583309322,-0.2230325159214897,0.07279557717842382,0.03414184613586166,0.06058615876152003,-0.187044315851222,0.0775028954471679,-0.16098589034834554,0.09237406980861552,-0.21254891772098883,0.05773544499435372,-0.15308839983872885,0.13309137147496145,-0.2351013201498571,0.037192417597314446,-0.22314707616408969,0.11963173899429594,0.08950366838509242
0.051241513173702014,-0.21666207273078972,0.09239773884622215,-0.3856275611853736,0.05684696795779793,-0.26310731829693684,0.1140335314318899,-0.41093690230922814,0.05838792619159568,-0.18287172250716666,0.07901086983610595,-0.11368698978274969,0.056747117802881025,-0.25727182155911416,0.11901533860745615,-0.46619299489777577,0.03251381085211391,-0.1129829617817141,0.08690841407175463,-0.20036915523525464,0.08238606577394286,-0.08345770694652631,0.15954918053486816,-0.427152784832126,0.05122159738313847,-0.15952591272897687,0.08181981388103622,-0.39318192739957253,0.04249804385156743,-0.1956950924825335,0.09779420166127792,-0.4180713401914395,0.023414321852890066,-0.37585669712868736,0.07400195683362412,-0.18344924169524762,0.09359152155732953,-0.12343139875369591,0.12044985337138508,-0.3997124356801928,0.05506164022365184,-0.2423632529809156,0.12635326046486842,-0.25776970880448613,0.062442503857144234,-0.2815379946282601,0.1236470152012255,-0.4314210406706434,0.0811490091011326,0.08028770162682142,0.055415230188486084,-0.27067496294946536,0.07537075814043137,-0.16359103952689857,0.07896256080277535,-0.21255836301790113,0.050801590973054055,-0.08022260338396528,0.10551749798744811,-0.238833737425779,0.025703176148731317,-0.3034439882240414,0.04221460953756749,0.04522686967152918,0.06433531143330995,-0.08284517378557289,0.10249781224851195,-0.18989452362084427,0.07546535618839967,0.015730951610500525,0.05681580331933839,-0.24568679199411764,0.05765244682693347,-0.2963674988983773,0.12495174771252958,-0.22675604431702664,0.058205712419059,-0.20631731968254963,0.16724097471084765,-0.3829221816920266,0.08989200464404906,-0.09397566272887431,0.052770395953002217,-0.18899138943115396,0.09192654085747984,0.09575475283274529,0.05774313840167271,-0.254533475388529,0.025661614758405085,-0.026404349652561873,-0.058418453436408224,0.09256911760451171,0.030857996251286525,-0.3762336021184122,0.09633826015483848,-0.05256522093564438,0.047884015604345076,-0.21176234306238234,0.08376988622507832,-0.11043489681877598,0.08321553040386788,0.005832066805156112,0.052440082433064895,-0.2136804005100827,0.04878535221859438,-0.2432385050304191,0.07760990500849363,-0.3947540248896629,0.060126806268393465,-0.10756981093945195,0.13456059710126053,-0.3873265533184333,0.07848602344736752,-0.07641624404756102,0.052261156573369286,-0.28760926271112985,0.08148908250381093,0.013437442109425109,0.05995318146571778,-0.28418443227808443,0.025406041715696465,0.02313361965371596,-0.0332806803675835,0.10547332447918457,0.08661607768627501,-0.012810343597094938,0.050764467411375316,-0.2112673402908483,0.031227496123180955,-0.3499733881734639,0.05911336913743105,-0.0784301128300593,0.02395931499618118,-0.34121738906421395,0.10271574920059993,-0.13458769829043507,0.026237314798217462,-0.37830284617749166,0.057283207032971184,-0.1362790284029832,0.06193212165129611,-0.1920488659674653,0.07192968059572272,-0.1130317493005765,0.022741688179536357,-0.03083629696396316,-0.05589330441934365,0.11713663307386668,0.0199421388991037,-0.07456371456864933,-0.05152349623344986,0.16850927175724056,0.07600891961192845,0.05321824412384721,0.05203309672608188,-0.17698256718394167,0.08014887058096799,0.01339720233683131,0.05252870601324534,-0.2977741502545548
0.0849223524491656,0.026263882556298343,0.05732150408814116,-0.19776357255699775,0.08108300110520006,0.01197190799973228,0.05428435353100401,-0.30407087910358455,0.06427214696303404,-0.22738029420186656,0.1417782915900293,-0.37768112138068305,0.09323574645781522,0.012421473102970655,0.055897632507867376,-0.29686819335225717,0.06036370526376965,-0.14174131095091863,0.07466719760063184,-0.1608563040031337,0.023408122566917825,-0.34537404446868014,0.01855518675416161,-0.3109456498923968,0.07799065303721947,-0.18410454928751604,0.16500607687441948,-0.38280723421303786,0.060784510927916674,-0.25387620268853983,0.12688374477327613,-0.28923117738778875,0.05068156099558033,-0.15630405478561224,0.13306412725925437,-0.377838201713243,0.07358161341595085,-0.21644159965167087,0.09260626406438936,-0.11234990388926272,-0.015002888368279038,-0.07285703868465405,-0.11046086052119182,-0.100251902641853,0.023336065326193887,-0.3296208793523952,-0.016493444723199115,0.0492263516221349,0.08664252023070966,-0.1350331686598502,0.15122322541945382,-0.3775143869215018,0.05909858877097372,-0.10207589258683024,0.1521102526734524,-0.12867892595359867,0.07644191897659633,0.09492372055667576,0.04948603514819497,-0.2183730183801601,0.040152999565019734,-0.19735534393214788,0.11699847753025644,-0.15603311047367818,0.06294624146791795,-0.23719861903834127,0.08322307545760037,-0.12398735349127066,0.06078535227900764,-0.19149078680776094,0.13304848496579746,-0.37658668780485083,0.051464450057986805,-0.14093627823020105,0.15121651523955537,-0.39863471033809567,0.08982709847069843,0.049553314319421546,0.052876223040908395,-0.23421419422301765,0.06283753926900153,-0.1879866402892863,0.08368825940597106,-0.35414528753980284,0.07111113747634987,-0.10001916868592903,0.15068895371422622,-0.3886390224938817,0.06144383308918389,-0.27495509097199555,0.1317461756555232,-0.2756392167397336,0.05502101650809915,-0.1916695507138466,0.13351275183246838,-0.3822812404497696,0.05247249382387492,-0.29623391298125423,0.22236014618972416,-0.3202406677589055,0.06880330813970775,-0.19019819134348287,0.11454189605998288,-0.3017820832255853,0.04880848589714534,-0.30788241484449835,0.22024260391687883,-0.17349424060519752,0.07612806031521627,-0.1291194390629625,0.17863846127114674,-0.34028555659543036,0.06258945967168192,-0.12396126195528598,0.12839872140881142,-0.3119882321331237,0.08302729606546752,-0.015732019234397238,0.09073804276420656,-0.2573604111629323,0.06447082308320883,-0.16521471264963017,0.18407398779376227,-0.3578734522673804,0.04276824965022914,-0.1940891391187806,0.11803124786610839,-0.35754332503020847,0.1074016310898418,0.02034848763160753,0.11930311721928574,-0.3742466044751577,0.09493285552096412,-0.1344901750940838,0.15382132927167047,-0.2804285348810429,0.1077695228732133,-0.1305445215055877,0.19031834278130372,-0.38032052959056506,0.07066626333078144,-0.06936261105329178,0.1484633280977371,-0.407579800161038,0.1823211925371937,-0.07298905068688004,0.18297519500437204,-0.3843486449868933,0.0667737643032622,-0.11594155424792868,0.135434997401948,-0.06804354715288664,0.05598422570567316,-0.2500671804628548,0.11189235459479446,-0.36142013526395084,0.07148174941961892,-0.18556900016053765,0.1256361424750697,-0.3391954414891736
0.14065018088927017,-0.23706056709257675,0.20559929894460838,-0.19460917263706554,0.051616437148787775,-0.19186916189121395,0.12252617094293279,-0.20060873354987332,0.06552311943075788,-0.23911807194888074,0.11288914662792529,-0.2991435856756868,0.07703594105501985,-0.1868398735892402,0.11741687470383198,-0.15721861731480785,0.07382520117471975,-0.1795387681332686,0.13343822520744256,-0.2733683320319593,0.06552074166959818,-0.19371480890464307,0.12900930320549636,-0.3824828711410493,0.0992338438739325,-0.09457910927614248,0.22623696792929568,-0.344113389981934,0.1354932310213407,-0.08303703018441301,0.15323719687636195,-0.4195468323902783,0.11361753547635485,-0.025394304783771564,0.23092295794503082,-0.4147397546730678,0.056513788102099546,-0.18246226321065437,0.13035125168115713,-0.2880865870199074,0.044645496036395574,-0.2602153263978737,0.23888269902843487,-0.20473394754353866,0.06330928534889282,-0.2382615152170439,0.11672001339963423,-0.3801250427591074,0.08941827173546746,-0.1986253141026931,0.17582660832802627,-0.31931758404588,0.048340053779539566,-0.13430313150125345,0.11573364710495371,-0.375220830601177,0.06891574299228716,-0.18038820485641355,0.14142953936773503,-0.3087804801603296,0.06454805269925512,-0.2633106792177349,0.10629447316770614,-0.3904328599318509,0.07809745906320219,-0.19700855708011716,0.09562703332182121,-0.3785704888112224,0.08592639408595545,-0.10224847591005402,0.111062325296442,-0.41367698046211415,0.061375749816761846,-0.242475137951927,0.12170214499613985,-0.39156804643723786,0.09129369695607054,-0.1625321483671855,0.17405744362579756,-0.2852325831993114,0.08863809568542484,0.007778592833666255,0.048172625241397246,-0.29534129047160673,0.025877933248334192,-0.2458923081614818,0.02685230482703812,0.02159221959655372,0.0864786158652173,-0.0060023880900668125,0.06504912992373231,-0.3646601398771394,-0.013876611533325638,-0.26944159138213564,-0.1145545671492388,-0.13481208584710974,0.05510078104857655,-0.24491778933998357,0.08121938184734442,-0.12208970104344019,0.02074592138404681,-0.2998525623875895,0.017066604285839143,-0.07384223802985074,0.08989253992325905,-0.016752486696791434,0.052088405803645904,-0.20947029023251656,0.057180128827153016,-0.14932160966919125,0.06997332300618361,-0.12715633729191494,0.07183280676332768,0.03159069717837738,0.051513451170668356,-0.2911678534859821,0.020181301786177896,-0.09511438705916325,0.02691303742018271,0.059022530880842326,0.09468280460048444,0.07530579642119273,0.06122439856643015,-0.2646425510391213,0.08627763197342597,0.07896449878693862,0.052996197861289854,-0.20911680952166073,-0.0229185458726648,-0.20571891709911652,-0.12520380394409736,-0.13890399411212812,0.07946452850338848,0.19151381078777202,0.05571703822259815,-0.20754769852744887,0.05371687176851943,-0.20466702425269956,0.05898675735389898,-0.15463638489987386,0.0792052442829921,0.009338345892967642,0.05763783305867895,-0.2783012814290935,0.08460477550991113,0.030639747999572114,0.051576371854544285,-0.23382382295261145,0.06411680703731001,-0.2482527957861398,0.06667777500020775,-0.1331061006162083,0.0788292237673528,0.05764629909924026,0.058647583083790575,-0.22445547605575064,0.08009727981353901,-0.05249943825944987,0.05173235561081113,-0.20853699174077134
0.06495284454443959,-0.21270587508061636,0.06765008790668897,-0.17818386158488833,0.08020312317605695,0.03274723048869357,0.059260993004315775,-0.30028271884981705,0.07297271354874997,0.0086566819845489,0.047687500178837945,-0.2116667226849221,0.09094991979281054,0.13648947019385302,0.05296335752929866,-0.21367067409980156,0.08112489766931566,0.008801971557168636,0.05281198790740624,-0.21901729731026837,0.07418143243027732,-0.034347013203931215,0.0572134689208877,-0.26096421457412355,0.07543058798462395,-0.11095580580878392,0.04956750288284781,-0.28962590840250235,0.07220372359694675,-0.16291940924746356,0.07098456741688992,-0.11303508951957521,0.07874174323016905,-0.07484980585848935,0.054570823473365726,-0.2541654749202341,0.055539988404204405,-0.22446599984553528,0.09969832866150571,-0.15640278011572545,0.08688168502606397,-0.18774787832788473,0.0721420896887951,-0.10625103161659773,0.02468666003766433,-0.12452628599298149,-0.07848338370536083,0.023927958863851358,0.08419424811836129,0.00907832328311646,0.0529801207192669,-0.23333550578134699,0.07929855709567912,-0.034429991332673895,0.05253841848116278,-0.12668724388004354,0.08442690962087178,-0.00867516153541293,0.05543856131505566,-0.27462488008694375,0.08398266829149212,-0.05072315619259977,0.05567040823579003,-0.25246622272231106,0.08451053574255478,-0.013318490521032171,0.052489029270082296,-0.2147184598285191,0.0674112148919985,-0.19063723777120284,0.08882493647163836,-0.10377599377622498,0.07831278258129461,0.09729804578638399,0.051229561555241096,-0.2649939960534133,0.08115389937142276,0.00846005287782866,0.052983016534185065,-0.14910966167683654,0.07243509625622893,-0.09200068896157673,0.051491077657045484,-0.3199293940814188,0.08014890206926292,0.05920456849386241,0.05188027329092789,-0.25303975965453623,0.07975639889345365,0.08342324578508095,0.04907351865176947,-0.2799246583770923,0.07373664523374682,-0.02305552792494378,0.05102044929309647,-0.14307632944407692,0.07574980699783591,-0.13254653363118968,0.12283920627819102,-0.1494630526697521,-0.018166273848045294,-0.18825002886701034,-0.007720550594785422,-0.11074074536102685,0.02427858021109785,-0.1820874086276824,-0.014609532358761713,0.1290888766804169,0.06273446446232113,-0.13874878888658349,0.12072055567136755,-0.1481125250508712,0.05750752594247941,-0.1892879857352319,0.09412056023969952,-0.13029507372177845,0.0649460099564252,-0.1781427556451718,0.09455008463879946,-0.11415066926336723,0.08968265840989077,0.12564075684436204,0.050489720612830705,-0.2133395591111262,0.08171270798720008,0.08075707260456294,0.056897884561355874,-0.270703074767241,0.08369831494527807,0.1019930939446283,0.05223386276591234,-0.3223663762107244,0.08027534920293557,-0.00644451351022747,0.055162999830585126,-0.2980472169064559,0.07050549807564759,-0.08188639011287308,0.2100891381886532,-0.36626823166284195,0.06873088636314953,-0.14823331310851082,0.06720222323252341,-0.10237801146045615,0.027185880602746487,-0.029072679063860938,0.037110197274521375,0.11134948269686734,0.08079907997458227,0.03271450663160312,0.04908610222255617,-0.26704784546931887,0.08017233204193813,-0.027674424478484214,0.06095561259300141,-0.3404176048001687,0.02369141743324277,-0.05347485133479432,-0.03891588694596114,0.15529375857405847
0.026832860537930464,-0.08413744255851165,-0.033916759468047945,0.07561963106836805,0.024908534919745477,-0.11051252244918028,0.0655929680500257,0.1266102479392072,0.07668947262557674,0.05739466832140243,0.05252919618175929,-0.3335049496858047,0.08000365885539605,0.1453114912673243,0.05315608703075844,-0.2726332051699927,0.07755156986661091,0.07715220517474286,0.05841088326175779,-0.23593662530902237,0.02441223768999143,-0.20868562127793683,0.0599350590147808,0.021574325501415477,0.025473601689268772,-0.13959618949700034,0.04966492843254255,0.1751474419949195,0.05958116488875316,-0.17512596132176836,0.06619354266121763,-0.12995764131634083,0.018634082650262115,-0.037916410970259766,0.05253283850574143,0.08936823170888264,0.08555413706085421,-0.09569569640082859,0.05553981302833525,-0.22580941422641587,0.07766520906627655,0.014631489595153938,0.05639685232154085,-0.15971986418555667,0.01890352575924462,-0.0031905073120057185,0.0016242832216179295,0.11292771639923069,0.05271519753957542,-0.15483910370730694,0.10008372072682968,-0.11061421614009587,0.055683581808666574,-0.20170982651390756,0.11078014729297636,-0.0963780915747409,0.07083995650687293,-0.25993050128272416,0.07551486577897164,-0.0995153228911594,0.05675244465524318,-0.23337173081592624,0.08032986177916164,-0.10090923396446441,0.07916290022978091,0.12158817787823267,0.05612367773912013,-0.19544950311469578,0.05304156735894397,-0.15152513948892712,0.09330632157166806,-0.12788334650970873,0.07940832423067247,0.20013544771703412,0.052097294516079834,-0.2217607386899273,0.019150421151058326,-0.06374727475678747,0.016449725389712323,0.15922050119587183,-0.012901711366873847,-0.16880244985286336,-0.033078308658354816,-0.12448204124764184,0.047582317847361125,-0.2782512414173519,0.07564617131736143,-0.2982456072403142,0.07860499722067682,0.014627292449374392,0.052553017131614685,-0.3056568232377215,0.08316909266534443,0.08185522828680879,0.05380776772818929,-0.2651169208773346,0.07011245489061468,-0.1753989926467539,0.0668276584495974,-0.1383921330952074,0.05600658127707509,-0.16870001578948765,0.06730880664274759,-0.09834030506532822,0.021696684599642944,-0.054866751596538504,0.03374550930234182,0.02187247938917724,0.021903797984567458,-0.10259520081721057,-0.05252133904323998,0.07674009895707457,0.022034523133215602,-0.0066762781214729505,-0.03408414316920354,0.22397054907377012,0.02212889205914876,-0.030729783411473196,0.01155420238001395,0.08622950420859501,-0.01823626152082225,-0.19931569046066935,-0.11484389596722892,-0.13047829618247897,0.08380423119758854,-0.026036432746313197,0.05554406400165295,-0.36232761226930466,0.058696671266877685,-0.11067485703482459,0.09910800103626345,-0.40980400396762884,0.08126657915124089,-0.0653524094551482,0.16658594622412404,-0.1892395523496617,0.07396227391404249,-0.17048145001916207,0.10885151132789914,-0.14226258847442708,0.021711866726687228,0.00844700982768017,-0.02616703534080644,0.20141809219271115,0.07049905223114443,-0.17778521823305907,0.07906909226396698,-0.3644360881664006,0.062411112146835104,-0.22887883722859256,0.07510219404109209,-0.33885528387757374,0.024479574866100022,-0.030153537694481786,-0.009859595942365108,0.11242398827001082,0.025855614859201084,-0.07056106040907725,-0.04404730387950641,0.13193683661739472
0.07357429748201744,-0.18537748294803313,0.14760617643361112,-0.3763566340641403,0.057363727058805686,-0.11496610487254058,0.09700533716364192,-0.3897166973786372,0.08062077462616293,-0.22650603396963429,0.09038634217236724,-0.3415849289491384,0.07351363434683192,-0.1710354778465129,0.06364038697435699,-0.3591840660440027,-0.009275727763356667,-0.23289377492886348,-0.12779358635124966,-0.08497797345205176,0.06762134601209085,-0.2333564282503088,0.06894954158025836,-0.11230115613162608,0.06569247137554694,-0.14737883092509002,0.11052223367222104,-0.3725720688248425,0.059422001599616824,-0.1687200230255383,0.10907728514221,-0.35351951063598724,0.025891937925465496,-0.1061388672429211,-0.011088000228186644,0.05248059777071172,0.024535236467958476,-0.26775988436143117,-0.030220601923363653,0.10617515332214775,0.06807900328219209,-0.19118908817427813,0.06722337817141026,-0.35278907318111086,0.08761949831612958,0.058679147491552085,0.05321394029203766,-0.267389571018561,0.08367438616304693,0.12622320190092967,0.05223346280989302,-0.20753497927809272,0.08432821036343192,-0.1723142600117577,0.08460573072187927,-0.11678854096265158,0.07516816780332243,-0.1923027527039738,0.10923953822971302,-0.14699607980945478,0.057329373672916746,-0.2062798444443334,0.0911271197286245,-0.28138628113952013,0.06523389612597014,-0.23243623862530788,0.06751660579944857,-0.10879497806712779,0.062329359900916134,-0.2651586735855509,0.07364949604618191,-0.3388850517886953,-0.01699883096937374,-0.23975352464869182,-0.03190576157540931,-0.14610896629632014,0.07740570257271132,-0.17829346964654938,0.08206329931085099,-0.34552454875165983,0.062034697039925674,-0.20943896494967282,0.10201373288631921,-0.3418298232089553,0.07993523451162968,-0.08104696985038871,0.11981745617962816,-0.3416852121551672,0.08264859401111677,-0.17057087703827428,0.09393524650452964,-0.3537871944075542,0.06734887962584679,-0.18271136238150726,0.08677323544908422,-0.11248702214703976,0.07852953206398808,-0.1236099436402701,0.10173585575417109,-0.12819328056850268,0.07297545913659702,-0.22060149751071048,0.07442950801827349,-0.3400611043438633,0.08389127857682095,-0.20304077111693594,0.10460906365402585,-0.36421385661011035,0.07640904394027867,-0.1599525671277112,0.0767250902513042,-0.3890808373288049,0.06459280784531046,-0.18098485963122202,0.08613943727017578,-0.13664964610544164,0.075990872379232,-0.14020906738817634,0.10999337795509741,-0.3512449916249269,0.08883703727607531,-0.13960721098346796,0.11286053094263293,-0.3610787016001743,-0.014669340847626666,-0.2041651981497583,-0.11203220568501315,-0.12785512775453595,0.08640424839649632,-0.005850785162330424,0.11910528893042563,-0.378671393372524,0.07327439038416479,-0.04963923712231487,0.09645344741772977,-0.1435748255040335,0.08199763132332955,-0.21263111543258964,0.06910276612542134,-0.077743236942597,0.06872547645275032,-0.2541875185015775,0.07921300528865427,-0.08033475180964873,0.07307190619285449,-0.22140331697004453,0.0914059151460714,-0.3811047643434752,0.02272441375582698,-0.027246471791683748,0.03653004886422489,0.135669727715302,0.06922219073244129,-0.17531895687252474,0.08884769426243133,-0.3323603718091933,0.06243263128818882,-0.23424984831004816,0.09878802046994858,-0.1771960643968571
0.08539609687472552,-0.1856263007252284,0.09048785245096275,-0.3336248872653322,0.07392180061236471,-0.20857471260840318,0.09805733725778065,-0.08949449641396565,0.07418050865923759,-0.14966196791077757,0.13360970461571817,-0.3695215501444717,0.08838183313814699,-0.149008965959059,0.14412226795164684,-0.3511298784613138,0.0626574935903165,-0.12928625873319993,0.148164547590949,-0.35813901644959295,0.06779424358314255,-0.14169492300561895,0.11559227582662966,-0.1301124763351023,0.07244828557439656,-0.16998966547083044,0.1397432739985253,-0.3408049454435068,0.021607538992673717,-0.07290002889808206,0.01619484111525043,0.07501096762274831,0.023522871545548593,-0.11334419850150612,-0.03595170435121185,0.08246567507016192,0.06337458129462581,-0.22139604679458175,0.08952795500585337,-0.3603718984068571,0.07746915759937148,-0.13283476483591444,0.12904642512275866,-0.34647135201619095,0.06745912158665271,-0.18044055504162515,0.08372291312871241,-0.16452008177093155,0.08417333554423226,-0.07077099353395193,0.052069073199379395,-0.23561800797272486,0.057426624509898244,-0.12017229884649694,0.0992937489669789,-0.3901581712178011,-0.010026269157671356,-0.1969917419562483,-0.10413991824074376,-0.11617415736687624,0.062212172707639554,-0.15103729486716616,0.08559277404580554,-0.2137795045164851,0.07957672585831219,-0.15608908381272918,0.11556077252020236,-0.38097359790949514,-0.01897886847915551,-0.23989287824206632,-0.011357736874426871,-0.13377997917115897,0.06289327750412643,-0.19436947998023096,0.07167889532239391,-0.08456565935743501,0.07253701907862445,-0.10630923007736225,0.10671822370298933,-0.3389109128314112,0.06255227929606462,-0.11740058195227833,0.07866639175089243,-0.18221524320870147,0.09238585333167887,-0.14574639538167058,0.18795562682948314,-0.39365365373365635,0.06547146081726311,-0.09286600352209698,0.13636248289488126,-0.40878589849636454,0.07791659617147781,0.10569045744198809,0.05638469499183224,-0.2523090881181279,0.023420540030733156,-0.16129447228418453,-0.007864541928445781,-0.01011518309493703,0.07011315483746061,-0.13083695822840852,0.0772354728189646,-0.14929044402468422,0.021370562495995497,-0.16340351427304572,-0.024113995368459956,0.052237719260249,0.07608869952055315,-0.09190165342578244,0.06467746831916593,-0.279717492163298,0.07139730545484843,-0.1765615599260998,0.07292389672686989,-0.15180872499035045,0.07567739254825515,0.012702112657090009,0.053160906772925724,-0.27705852436615885,0.024864374671856697,-0.07356157461267994,0.03846264831531936,0.11126900799260528,0.06698091626086122,-0.14490252959613778,0.13672264172394316,-0.38503156141242056,-0.018672461978692545,-0.1660363171051506,-0.11086357505978908,-0.12601525751091355,0.07726943828548902,-0.15294430109387486,0.0736954494046877,-0.13074652438503626,0.025559747081892466,-0.10567812519698841,0.009919542021827439,0.1380138567857025,0.06927298731742529,-0.10155419166239948,0.08358799475604589,-0.1343766280137953,0.08469512988409197,-0.02937077399485273,0.05339959942117484,-0.17882757890033069,-0.01660479919355813,-0.18792713511475867,-0.009986624359368326,-0.12067270042293633,0.020357214046254297,-0.1221796354315875,0.037636125766298274,0.11193640747183554,-0.007957940681361901,-0.27952063879140565,-0.11556031775301745,-0.11840691251713478
