ChristianCella/workcell_optimization/results/data/screwing/turbo_ikflow/complete_beta_trend_wide.csv
piece1_joint1,piece1_joint2,piece1_joint3,piece1_joint4,piece2_joint1,piece2_joint2,piece2_joint3,piece2_joint4,piece3_joint1,piece3_joint2,piece3_joint3,piece3_joint4,piece4_joint1,piece4_joint2,piece4_joint3,piece4_joint4,piece5_joint1,piece5_joint2,piece5_joint3,piece5_joint4,piece6_joint1,piece6_joint2,piece6_joint3,piece6_joint4,piece7_joint1,piece7_joint2,piece7_joint3,piece7_joint4,piece8_joint1,piece8_joint2,piece8_joint3,piece8_joint4,piece9_joint1,piece9_joint2,piece9_joint3,piece9_joint4,piece10_joint1,piece10_joint2,piece10_joint3,piece10_joint4,piece11_joint1,piece11_joint2,piece11_joint3,piece11_joint4,piece12_joint1,piece12_joint2,piece12_joint3,piece12_joint4,piece13_joint1,piece13_joint2,piece13_joint3,piece13_joint4,piece14_joint1,piece14_joint2,piece14_joint3,piece14_joint4,piece15_joint1,piece15_joint2,piece15_joint3,piece15_joint4,piece16_joint1,piece16_joint2,piece16_joint3,piece16_joint4,piece17_joint1,piece17_joint2,piece17_joint3,piece17_joint4,piece18_joint1,piece18_joint2,piece18_joint3,piece18_joint4,piece19_joint1,piece19_joint2,piece19_joint3,piece19_joint4,piece20_joint1,piece20_joint2,piece20_joint3,piece20_joint4,piece21_joint1,piece21_joint2,piece21_joint3,piece21_joint4,piece22_joint1,piece22_joint2,piece22_joint3,piece22_joint4,piece23_joint1,piece23_joint2,piece23_joint3,piece23_joint4,piece24_joint1,piece24_joint2,piece24_joint3,piece24_joint4,piece25_joint1,piece25_joint2,piece25_joint3,piece25_joint4,piece26_joint1,piece26_joint2,piece26_joint3,piece26_joint4,piece27_joint1,piece27_joint2,piece27_joint3,piece27_joint4,piece28_joint1,piece28_joint2,piece28_joint3,piece28_joint4,piece29_joint1,piece29_joint2,piece29_joint3,piece29_joint4,piece30_joint1,piece30_joint2,piece30_joint3,piece30_joint4,piece31_joint1,piece31_joint2,piece31_joint3,piece31_joint4,piece32_joint1,piece32_joint2,piece32_joint3,piece32_joint4,piece33_joint1,piece33_joint2,piece33_joint3,piece33_joint4,piece34_joint1,piece34_joint2,piece34_joint3,piece34_joint4,piece35_joint1,piece35_joint2,piece35_joint3,piece35_joint4,piece36_joint1,piece36_joint2,piece36_joint3,piece36_joint4,piece37_joint1,piece37_joint2,piece37_joint3,piece37_joint4,piece38_joint1,piece38_joint2,piece38_joint3,piece38_joint4,piece39_joint1,piece39_joint2,piece39_joint3,piece39_joint4,piece40_joint1,piece40_joint2,piece40_joint3,piece40_joint4
100.0,100.0,100.0,100.0,0.05321346148589627,0.019907603789307816,-0.036769655572436284,0.19865050509450383,100.0,100.0,100.0,100.0,0.20910011099769288,0.37443498073242976,0.3490699717608159,-0.16619478917480363,0.09330440844679361,-0.09091203738619147,0.1647024143575035,-0.19684544667705992,0.047287650431368455,-0.1244747569227167,-0.03426951941857133,0.06754179921283843,0.12005477675702511,0.09569334744569388,0.006884073978112321,0.21033336988525572,100.0,100.0,100.0,100.0,0.021131999905183618,-0.023116328868868507,0.06677058086645014,0.1477705593019882,0.10645151574342197,-0.31839052730479644,0.11702573827554012,-0.46711516577894874,0.07199168862583433,0.07199168862583433,0.07199168862583433,-0.03740441896257722,0.0036404544359127863,-0.20727226249959432,0.13112235409065764,-0.021241481553010505,100.0,100.0,100.0,100.0,100.0,100.0,100.0,100.0,-0.07706060054672498,0.016590713898459265,0.03169378329056649,0.3276657634731137,0.06699300773361083,0.08701476996009883,0.05978229651128679,0.06699300773361083,0.07855682811503982,0.4017889960934607,0.32474191936700647,0.02766023487553746,0.1389575509332969,0.13810514473243565,0.14521103324488377,-0.09259844179421173,0.10294490275397605,0.2526751650187648,-0.00200430742947115,0.3461923758069821,0.14062464812386619,-0.11500900974848811,-0.009599072521424543,0.061018264007259876,0.2161419221967821,0.21569045153792202,0.22131959209825403,0.23151046878903292,0.11393634818006054,0.18117685653601395,-0.05220516150583738,-0.043103612040921474,0.01991116194458854,0.42749178447352576,0.44623933794957715,-0.1383332300460014,0.12296447591442101,0.088994045217139,0.19832423239661084,-0.14694454234597898,0.07229459850148608,0.017376625575837832,-0.09588244050953143,0.0064957949883446,0.03593963954285379,-0.03612940161357701,0.28612300969398774,-0.06762358135258173,0.11161481442734926,0.10045487133175829,0.039301150319436845,0.2556980554582959,0.1348876771284264,-0.24349035363209456,0.20022455386871055,-0.1925084001627368,0.02518971527878621,0.30719111584149156,0.16376321721645817,-0.10936118835558578,100.0,100.0,100.0,100.0,0.05914193463688228,0.014085474462152775,-0.140426980470973,0.2081483986442414,-0.0207220663124546,-0.004665310993025043,0.020644827887175782,-0.2413061811180595,0.04282562177362762,0.17036990420156906,-0.09924444766614395,-0.004087276467150139,0.13397839371056344,-0.01479239746863182,0.22689844956789984,-0.08534564751233958,100.0,100.0,100.0,100.0,0.015185808726338668,-0.06028698683352495,0.0028483339701821098,0.23562931851057584,0.12501277128326638,0.4093042324398034,0.16864191197714837,-0.12898435849742917,0.27241311741917673,0.007268257551089827,0.007268257551089827,0.20145955772375826,0.11224324278771536,0.10761513400894349,-0.10087234424551514,-0.10087234424551514,0.03321096449615821,0.2053769883793083,0.42117775475238156,0.1790158326024054
0.07960406788009544,0.006815005380189356,-0.0870496107343175,0.007318516477998874,100.0,100.0,100.0,100.0,0.32542334839690934,-0.31675656586454115,0.16135486458001183,0.1670302733651075,0.03784219018713552,-0.19541653721245503,-0.0488492054236218,0.13201750868491724,100.0,100.0,100.0,100.0,0.2714395937545656,-0.03897312415225099,-0.008409643651745952,-0.0054945457923620405,0.10442062379884859,-0.04258177111395048,-0.01667373594675181,0.028748833462943976,0.08704728611197324,0.12130088647238832,0.06011918876073999,0.022161197542082154,100.0,100.0,100.0,100.0,0.14003773530995148,-0.20591866659480568,0.028510319533910977,0.14070357567815697,0.1207560203355308,0.40459029474983915,0.36610090579536436,-0.13178377022004822,0.008922863869853498,0.07864063594040652,0.04375749979093507,0.13973448713570952,100.0,100.0,100.0,100.0,0.2237408081018356,-0.0848023194135802,0.06559364334649287,-0.3387906321233909,0.08533875397672858,-0.3617966080219473,0.19981979195783173,-0.21141709983136364,0.10600150890816865,-0.19507878600927228,0.074623457098972,-0.1957681681451161,-0.04021424139212201,0.357092314199781,0.43470203321456713,-0.08681073214795301,0.07844562932684002,0.21187431646506746,0.09336686182086948,0.1558376925662291,0.09431839727019235,-0.22737181767278986,0.06131549460213338,-0.10015257792216736,0.12987761728667946,0.04492158805424355,0.10326222754280526,0.006022196039518982,0.12641320674936257,0.06868807877992421,0.1589863570457149,-0.18615310673751964,-0.03173210206350109,-0.40374242014103845,-0.10083258484514213,-0.11074859609158161,0.2368910168382489,0.2142853923475578,0.20137358995702245,-0.07969510460072915,0.1894058539321121,0.10884680906226407,0.08564140778490685,0.0013633927189564896,0.10008554791020449,0.03948804632899258,0.12294266033249399,-0.24461802494556523,100.0,100.0,100.0,100.0,0.07153268062701434,0.179970621650918,0.0866692529569005,0.07818291039156283,0.17328562130600084,0.23735977582773127,0.22318514671356915,-0.15820316547429203,0.09935116428749535,0.07512643462706399,0.25801438812993327,0.09222285188786353,0.20302607945579246,0.008219607000306705,0.04809138402059225,0.13406038994975206,0.1533078571754236,0.006059116439228365,-0.09877630204983956,0.006059116439228365,0.0339000577175235,0.38835718500596356,0.37127572512809515,-0.06346874562991064,0.184110640787071,-0.007147819667420079,0.19390480951031305,-0.38438293042755134,0.24753315301562345,-0.012644121117714985,-0.012644121117714985,-0.1223839254770208,100.0,100.0,100.0,100.0,0.12707295115752198,-0.13628697314410387,0.06366053561787256,0.02570399794712014,0.05342937917434165,-0.22348626480125197,0.0745260802289571,-0.1557528828315785,0.20367769952721895,0.21777514935887352,0.06920137563766487,-0.4073587818046127,100.0,100.0,100.0,100.0,-0.02146688764469349,-0.2630799839983507,-0.0009286333996606361,-0.16844017613748624
0.024142385990493575,-0.4058199172339154,0.2881757537940694,0.25023053695848646,0.11777722820908203,-0.3030775318128634,0.17115063931126492,0.05863323540278637,0.05837188091604158,-0.03363680305489877,-0.01853885907557376,0.1754042784320623,0.07864583831226087,-0.16929798494582554,-0.02527136138536845,-0.02527136138536845,0.1689283441848778,0.00391671860083459,0.22182203224429153,-0.1247129986066199,0.04704227824050144,-0.07087426440623923,0.09500744315904461,-0.18362143963245114,0.14423705952874727,0.2513029095010119,0.08503147133944747,-0.11782640303824891,0.1437227394135515,0.421513989875472,0.52692436942747,-0.15179681564230357,0.20162948719190882,0.11643567429007992,0.46261140414600055,-0.04658473967145152,0.08335034448622736,0.0013359693242412894,-0.04373631947268833,-0.006607129795490045,0.3212424195515924,0.1451863701728633,0.1451863701728633,-0.17571130514778535,100.0,100.0,100.0,100.0,0.06525074503587261,0.234599529612235,0.39375737955076934,0.008538137735650514,0.18547592023632098,-0.42905372877204745,0.09000534220824113,-0.17986716407385075,0.14249966687048532,-0.06462401823618014,-0.03850375983092071,0.1047924546794841,100.0,100.0,100.0,100.0,0.027874991770644453,-0.029403071706174348,0.17413625175186542,-0.03082970849353671,100.0,100.0,100.0,100.0,100.0,100.0,100.0,100.0,0.1721807872272384,0.1720377075361006,0.09169476540067353,-0.17762882986861467,0.11317082266852874,0.012542924805679933,0.08370572607944649,0.08325810494600364,0.1697248302017309,-0.18207437595832762,0.13907108895406994,-0.09283871081113489,0.06598261397818707,-0.22612280990243727,0.12825135238654123,-0.3275515947198357,0.18895049641026795,0.05437024432278086,0.19941557426950557,-0.11213232462481051,0.15199802996574796,-0.14224057839665416,-0.03439527345944114,0.02359548664656999,0.10242218990434429,-0.13920580977940797,0.06542589977586563,0.08089987846742502,0.0918382065173995,-0.13916995282215958,0.11836496217975112,0.05947503632995077,0.013096765271794429,-0.3965326236418931,0.10145305538032408,-0.1718523375186231,0.03679968432494904,0.43078028764489146,0.46287000370574694,-0.05505599923314726,0.0917207465938586,0.1416437682161456,0.26961351739600264,0.08199185962495512,0.09673811156494572,0.22844357488859962,0.0020250794479638873,0.13566107858565438,0.1466268778347383,-0.2067110844449544,0.013452049167205524,0.2073217490767988,0.09342239090415999,-0.0711101845299329,-0.025997165092329896,0.11225566785332755,0.028857776277768466,-0.11865675218878727,0.13645811678983327,-0.06840735145305658,0.11048439779479374,0.0645475212951568,0.14886484221787763,0.0942891373105649,0.23974998004271642,-0.4003394494225976,0.0601043296150091,-0.28410063899792937,100.0,100.0,100.0,100.0,0.14066968532576518,-0.22048697005707218,0.21364018699198822,-0.18180800626700383,0.1294813781447849,0.01894391555912609,0.27121576394423497,-0.22143458833948823,0.09846884831785466,-0.06848233175952276,0.16236258565374145,-0.021743682928635186
0.1793325878906286,0.32193443490247203,0.35740788549827596,-0.056663995630717126,100.0,100.0,100.0,100.0,100.0,100.0,100.0,100.0,100.0,100.0,100.0,100.0,0.1124579008743864,0.056002499285448974,-0.06605931165027076,0.09681043525641697,0.21672869404961848,0.19520155426136812,0.16571096625899834,0.23712711884178989,0.12170114703883007,0.13871628140445305,0.09804096288160317,-0.01691870074729364,0.07918081146834516,-0.43126244722228946,0.041408171598132426,-0.18853466066497462,0.045447943550695716,-0.22875823964037545,0.14611663640426634,0.27795531281909946,0.11140461254878782,-0.23538883221676668,0.24018663224708925,-0.06948348298188847,0.02266827346071417,0.2298320508074417,0.13159305950094927,0.03340875883951665,0.1319863850673144,-0.1785261682363163,0.0720402314636853,0.122699623299978,0.18612424197563165,-0.3074171647361351,0.09624546114270598,0.10652008106823793,0.32861307297072684,0.16251187509461573,0.0407297055183817,-0.12338167125058089,0.176452296843632,0.27670876129582,0.07686766134812573,-0.14225847717451903,0.07154500410979119,0.1975448335403651,0.16543042369130165,-0.16584399677073758,-0.024160156445158124,0.10347294100793958,0.0844748817708959,0.13667331047589648,0.2041149209879504,-0.3229813055176013,-0.03639243826633553,0.24612938870410989,0.10652019764436473,-0.29419774390206843,0.12622625610399443,-0.07234905984620527,100.0,100.0,100.0,100.0,100.0,100.0,100.0,100.0,0.3277032996746008,0.23738841432883273,-0.11889738061029506,-0.5403603131096115,0.1914652311424503,-0.3106264643972132,0.19402983306114172,-0.18004172966320287,0.09476263890295425,0.392007115584303,0.40539099836645814,-0.22821348250365475,0.2046310092395928,-0.0019306039386341595,-0.08490230571298008,-0.0019306039386341595,0.11389023814071306,0.17735904100261268,0.050479402640670204,-0.006630558192142949,0.03483349889644291,-0.04369359292028023,0.0837863304903332,0.06013941334077927,0.1844016399331116,0.45527870037778284,0.41878991987016617,-0.10644795569947119,100.0,100.0,100.0,100.0,0.17909001570543337,0.13597767473613925,0.09320524068335807,-0.2971647734349626,0.25152153248300346,-0.3657394591838689,0.15087902404460934,-0.22332034265723183,0.006374145858943969,0.0172201935334574,-0.1240786628465694,0.25423229646037154,0.07954474374453432,0.43933532773995476,0.45002334229598817,-0.12334989356921772,0.11707148044516708,0.3140460022379491,0.08262920431778056,0.08926710529602576,100.0,100.0,100.0,100.0,100.0,100.0,100.0,100.0,0.10810224037654584,-0.26680242434438817,0.20069421765548168,-0.09965321709670133,0.10484168249928881,0.22476585407295097,0.08123561121994721,-0.2720145859021174,0.14109739711953195,0.2493022240248031,0.336846729309105,-0.2998186274533051,0.24627693947541082,0.16935822264378494,0.16935822264378494,0.16935822264378494
0.20639354911132515,0.04063264495833586,-0.0061776232204237,0.04285715975565704,100.0,100.0,100.0,100.0,0.03483965599228829,0.016835070818785713,0.03483965599228829,-0.05517777314656902,0.10108044879650128,0.12751427705493118,-0.13684270230448872,0.164262448839304,-0.01651921650307018,0.06394646824386874,-0.1928663320685958,0.1226659161671361,0.14791276491005928,0.030451619538530813,0.08341456679257593,-0.044531220223486566,-0.0007378526237994537,0.05691666972673561,0.10201234196078954,-0.25979156781038654,0.16588409881269284,-0.07075741162010037,-0.0622712391787915,0.09174314872974396,0.20027294581571675,-0.04862661344697045,0.18517053473922476,0.14722220147765092,0.24833475515686523,0.03605515746043035,0.03605515746043035,0.21348974196506848,0.10537978094910305,-0.16619879801786563,0.04012961907806245,0.1269816753147167,0.21236443743606007,0.1290786435095071,0.04854438319159704,-0.04505305606828171,0.13511938544391575,0.11642825430259243,0.33305174345295385,-0.007210367310981659,0.03568993991458362,0.03568993991458362,0.03568993991458362,-0.18544125979048753,0.02675320138961974,-0.1957217263588825,0.17303324392129002,-0.1071829087411609,0.1521914286046418,-0.387790363252562,0.13649870628553384,0.06987704922111287,0.06651859853506147,-0.0002122371498695843,0.2081947361404898,-0.023509222046422897,0.13154923212735586,0.06637321657108525,0.059230067571506506,-0.03649500174223009,0.037074908142855474,0.143155134725553,-0.1538011499582739,0.14286489558970408,0.07397504177432512,0.012727946092811623,0.017804351365576586,-0.04930424481383133,0.11186936347118692,-0.10206002529194359,0.09532536271446179,0.1740968229044331,0.11766075317498821,0.14937298955421174,0.08139656416826152,0.015959209110316924,0.09828377259226692,-0.2795002796938999,0.13418239967787474,-0.07416633805890069,0.002404512776568111,-0.35123498767114947,0.19658940050564117,0.0485461445556791,0.07477165140397181,-0.030448601889519773,-0.028888232211174578,0.10061835742062249,0.1266551057633572,-0.12320074230936612,0.1527306049393879,-0.3286658802677116,0.08181415215660232,-0.13479969315763027,0.11430780979033218,0.055520456499647056,0.019210400859269162,-0.21930376734512236,-0.014355587337867595,0.04565479035803794,0.133037555573013,-0.01078423716086905,0.4068532709750211,0.061605212890024096,0.13775680858593542,-0.38659530178691104,0.19945602370955434,-0.2177301981253337,0.10750662163523896,-0.17430714253807267,0.09197010804726337,-0.005979602383551084,0.12235752102032446,0.10496456176250576,0.10816117620988,0.19201506832166665,0.20529360155347365,-0.14420613914305005,-0.0330176023737637,-0.14831543929479105,0.058801902608164903,0.0866816071212656,0.22671757426400319,0.01582644194592199,0.13435315467014738,-0.09603737397414187,0.037983329032861446,0.2802274879950046,0.19022986901969563,0.10357821448563395,0.1458186333783716,-0.01407410012280945,-0.05244066433569367,-0.2388171273796296,0.06469411490513365,-0.05244066433569367,0.05524866283958861,0.12707059058539957,0.12788449675833682,0.1565051016020848,-0.0173266010923101,0.03845185553828781,-0.17959804624759676,0.10934550268054054,0.2225481363226195,-0.051439849177687784,0.07482669205419562,-0.00213397076096062
0.18432968212712533,-0.22417321830745915,-0.07382886669588787,0.37280612108487177,0.234981765433677,-0.044650908423260006,0.231310150152714,-0.3718635236111959,0.07403333167714113,0.027483907485025827,0.28275844014011975,-0.10638238425917969,100.0,100.0,100.0,100.0,0.043910726786963734,0.0805266764864623,-0.1870927440883512,0.08202982480797538,0.06026781739717387,-0.03868890535083705,0.6574923621877744,-0.11934763590442776,0.16106622139001905,0.1450853569831066,0.08206515157192522,-0.07800381915672416,0.07888448886833539,-0.02155255990459851,0.3440620530658464,0.002453224157541331,0.10657257116567138,0.061015273560023425,0.09088229538413373,0.238232463242531,-0.05316131592629544,0.29926716525800556,-0.05316131592629544,-0.14532723113999693,0.0944136662273826,-0.21256141953811244,0.10365095508525815,0.06691544979922637,0.029875878620324828,0.3362829050165861,-0.15219361826505967,0.1402235133564333,0.07832518161439295,0.03494003026361594,0.00980665422554615,-0.02211158563719412,0.09941513050563411,-0.058794117651339156,0.10759456392452901,-0.3145246419807697,0.09242663241182295,-0.33749338854706284,0.122165382220349,-0.3320921013314119,0.03453176689591848,0.06882475629886754,0.04819296505061924,0.17875690956195106,0.07883574167918328,-0.004516009944661933,0.2931361340436588,-0.06028705706419299,100.0,100.0,100.0,100.0,0.10158340482619979,0.08329724948535666,0.140898081962155,-0.21745130884983682,0.25363626973272063,-0.15236440842523677,-0.03970650781140451,-0.32138297259302107,0.10941760409961777,-0.14821572251274295,0.14158706717905123,-0.11852721396683305,0.12262071938033632,0.13629866029676335,0.12262071938033632,-0.16643074512725364,0.28090768936283356,0.16443562681831558,0.00929817338129977,0.1379385204741162,-0.007743877361489258,0.029986853901740232,0.1380548832236185,-0.08360046787338152,-0.17241001865130634,0.5333835188329721,-0.17241001865130634,0.16444120526865524,0.07788036635165849,0.143762756339483,0.05850543533157333,-0.07676164731816215,100.0,100.0,100.0,100.0,0.019976818281481068,0.002309563118726203,0.10085904549161522,0.1928181935394827,0.036575071460549155,-0.0097835290614142,-0.015662068360338732,0.07872378513497585,0.10411386911338183,-0.17285849394415037,0.2792043761617832,0.27634059082899626,0.11880694802340137,0.0009033087793162645,-0.07666575434693682,0.11804582785273139,-0.06326840375821254,0.19958583684279285,-0.06326840375821254,-0.17588260420899532,0.06287835934283255,-0.3623593951294095,0.06407257999957999,0.014026140169365466,0.2156525608104932,0.4092237851001903,0.1481266698051356,0.21498015761450928,0.27740255279814385,-0.18567514966299453,-0.07304249149697536,0.19978134995929336,0.05987736434883992,0.1831758629862832,-0.031929006860644066,-0.13552122402854766,100.0,100.0,100.0,100.0,0.2413497263210873,0.13867403014976662,0.03795544108741093,-0.20128463946255412,0.3354311128184737,0.07862156580551016,0.2737628705052695,-0.15700778991736633,0.017083703093099367,-0.05031046881060044,0.07050773899980271,-0.039966266849242586
0.12837585468085244,-0.10675406712373556,0.15101907769024694,-0.08003262974399201,0.15999465868944177,0.00374143886542605,0.05812755504169342,0.00374143886542605,100.0,100.0,100.0,100.0,-0.08277256837461906,0.12391322559608199,-0.08277256837461906,0.3727848999146226,0.02652719075101073,0.03867158350650046,0.0709364725166965,0.08951751455923804,100.0,100.0,100.0,100.0,0.0931944395934816,-0.1375115397345381,-0.13419257735043216,-0.13419257735043216,0.07994460302910911,-0.25719793685559017,0.07454958125757269,-0.09011738791799227,0.19580541036888444,-0.2097379266197042,0.19580541036888444,-0.07042150436347808,100.0,100.0,100.0,100.0,0.12421523821734999,-0.25408521742683426,0.26651510071261664,0.16029190019624262,0.23600492708059548,-0.2601183779467804,-0.05671491569055843,0.061397592074707685,-0.010594531487254866,0.03388347493400953,-0.09161945581023648,0.18625845162147592,0.03161414813431359,-0.3780510874693365,0.19654147197405886,-0.25395483816304937,0.14246899672490654,0.29096434900575063,0.23861707511562363,-0.13669660488162774,100.0,100.0,100.0,100.0,0.08859638432667327,-0.2475567779457428,0.11053745792510469,-0.15731609548243253,0.12764718980188644,-0.13129340404827422,0.0342470939358642,0.13746217660595297,100.0,100.0,100.0,100.0,-0.12655543915850792,-0.12655543915850792,-0.12655543915850792,0.14962458046864716,100.0,100.0,100.0,100.0,0.16769739457601363,0.21258183678387815,0.09231885101493287,0.029390014963068162,0.06730243119706426,-0.03960958283823934,0.08251224621727384,0.16974013952622843,0.3627988199841789,0.10890731731440659,0.1236321712073387,-0.004399573420509784,100.0,100.0,100.0,100.0,100.0,100.0,100.0,100.0,0.37737380393725256,0.09677776218459211,0.09677776218459211,0.17944424320263527,0.08665460193687695,-0.12682133828777808,0.03456556452959789,-0.04514922938222449,0.0214782908538547,0.462892323857244,-0.09170980814621416,0.015971037966380122,0.2952727170553514,-0.06497192508987684,-0.12381138389626715,-0.1853339355378949,0.18921084083600195,-0.16356579706415078,0.24849364836062202,-0.035604891734223515,0.09845416035122441,-0.044927571624043386,0.12403723980789796,0.05866693130862294,0.145191892853139,-0.30981152113123434,0.20583528223518716,-0.2808440049067065,0.17876418806312933,0.13823832343485806,0.15094607827029846,-0.021196613029888296,0.1348461984115912,-0.03139982824305322,0.10722211379676527,-0.10321153540306952,0.016741461377855857,0.2926986402764997,-0.008815919606849635,-0.16377928734053251,0.14594162565264815,-0.0925801441591464,0.3791408301436593,0.09080333610211719,0.19168284274787992,0.30679198144193787,0.11452043609659479,0.1434793683623197,0.1789268011950908,-0.3727475469614958,0.12035649687410477,-0.15436503329624876,-0.03506324798882533,-0.1860360887321258,0.14177347901655524,-0.11288557593842073
100.0,100.0,100.0,100.0,0.3548510989104191,-0.10664737624567391,0.0476069968557046,0.023855669148079246,0.011853038005886399,0.07360496371008465,0.17928885148049445,-0.03170386961169651,0.10425447656554565,-0.04330895377173136,0.0757483399380774,-0.0151148402320945,100.0,100.0,100.0,100.0,0.24480432928946158,-0.4497957088768524,-0.008380989225148332,0.1378833367928837,100.0,100.0,100.0,100.0,100.0,100.0,100.0,100.0,0.13088906087090751,0.023429089216376445,0.15090560147446272,0.005739077689554367,0.21231412884018364,-0.3557477909055785,0.15638953656792906,0.1111659549120641,0.12049264125599818,0.12616446809059756,0.174052850386836,0.17423529934508675,100.0,100.0,100.0,100.0,0.21122787892329192,0.03692280548219985,0.3921382515753783,0.03586070464674619,0.07209780841645222,-0.0264879618113007,0.1312049679844469,-0.34910591425925913,0.1108488431437375,-0.06976302698741743,0.08679241321036044,0.11226558507742097,0.06463298110868397,-0.05817272189249415,0.10181631175050222,-0.28267109860195644,0.07331519712577993,-0.07053672582257138,0.207109361761617,0.21128686119010046,0.2993462374142121,-0.04809274604515908,-0.004814999868036879,0.06080966059634016,100.0,100.0,100.0,100.0,0.13405836618472988,0.2353202653215096,-0.03037381447654206,0.21499580536923862,0.184585051323634,0.05868279323668239,0.09923410976268487,-0.03237329086929416,100.0,100.0,100.0,100.0,0.16337927803974922,-0.31333917069917405,0.11867237189140667,-0.5156468959379833,-0.02475367865277167,-0.08072845255697175,0.3063365535983975,-0.01948769719949913,0.1315289663341121,0.04421134906790626,0.08010186814502493,0.23969586806489146,0.23550517746001043,0.3915960053505417,0.26778771793980466,0.08572955950487654,0.0994983280274668,-0.21011679910406086,0.18019438832115553,-0.12382029058411928,0.10988837883729781,-0.180632130553605,0.10988837883729781,-0.20304544584095838,100.0,100.0,100.0,100.0,0.10127247262614164,0.3567775918223045,0.05271757499722937,0.28457965196263196,0.11645433977631783,0.06462663976393275,0.09546069745544296,0.12259115809322263,0.2005522558958219,0.3349618841446956,0.20059759545072894,0.09136604738819798,0.212561397134506,-0.27833876776375505,0.007902479184129924,-0.05190763980264873,0.18332158918932312,0.24334347649975777,-0.0068755457065964795,0.24334347649975777,0.18914584527276812,0.1419786061180344,0.03662797959418032,0.16253505296516998,0.1375434212049196,0.20649442040091565,0.16925376538008044,0.10504216652336867,0.01955245974350294,0.14916573284967688,0.3252820602444742,-0.0536557535380195,0.16662266797006842,0.057674949868342235,0.1232272620490287,0.17928025345150717,100.0,100.0,100.0,100.0,0.21844719136343027,-0.2301397889429445,-0.03196535931652135,0.183659606882527
0.2784274999933814,-0.16853551014686594,-0.16853551014686594,0.17937973721245754,-0.03708477208954087,-0.03708477208954087,-0.03708477208954087,0.12234583023751658,-0.04310153327243875,0.21078679176228,-0.06827489050539176,0.3008439019573173,0.045119575983402715,0.026569968506253375,-0.0759565081607197,0.10434253996970533,0.08546326632962178,0.2475041658078128,0.3629227826951268,0.05077655389059704,0.14865641002844096,-0.1411909045055781,0.22091446201726614,-0.24193452273864435,-0.012144149509217106,-0.3207260914559325,0.3406610935397223,-0.17141579908930318,-0.16984755203857801,-0.22064331874579313,-0.16984755203857801,-0.29004877727113326,-0.013409989626777558,-0.18724316859107532,0.10171334163587682,0.12110291328052426,0.12044383794092242,-0.07570141079896801,0.09581484534447576,0.019541287635287924,0.13081454485088767,-0.22967806844208963,0.09240718651041316,-0.047570551029485805,100.0,100.0,100.0,100.0,0.1789394923786181,-0.12105516029393235,-0.017980886703705054,0.03749651513970506,0.22948901998886334,-0.08140557999508836,0.11617391505342567,-0.2767962758936269,0.05343380141858255,-0.47460959778218414,0.17254617843936126,-0.30025093689682425,0.33151087807530444,-0.17752047879497962,0.1614201674925911,-0.022905893942521717,0.06109760943257594,-0.10228450693315026,0.07363189110710586,-0.048801468262925606,0.13538294566422754,-0.2324367323064958,0.3114914195514187,-0.18542052600304218,0.33688932206663347,0.11921333671974386,0.0769984719985132,0.0053776970470202495,100.0,100.0,100.0,100.0,0.23468797835843486,0.04916126593385435,-0.013443027582870503,0.1706014653452208,0.009623198811735914,0.17842046310534831,-0.15237788314013123,0.1976376557812248,0.2584548285036122,0.20837939788406687,0.23113228509052164,-0.4110174303477099,0.1971566661154333,0.03687691973470508,-0.041214357707292176,-0.2730409751395554,0.03304255166093123,-0.07149420373916707,0.06917321613735004,0.10722582613673118,-0.014422809086420638,-0.3351008075481782,0.058328093050335955,-0.17691031595285867,0.18818607066050197,-0.18577062920482476,0.0856676602346446,0.05968282692228406,0.07950020887985812,-0.03124417594641278,0.1482310542260225,-0.024346856798550753,0.15370921016561168,-0.10401977253647017,0.6085739383310715,0.01243557592534962,0.11586845495026035,-0.3399004309710502,-0.05972220831352142,0.034234815199161155,100.0,100.0,100.0,100.0,0.04925804412221139,0.016209387368338046,0.03498863400248773,0.1788448059204391,0.20692728804271165,0.03095881962633299,0.03095881962633299,0.03095881962633299,0.13558550493126548,-0.10507909908099565,0.3088047857711779,0.10054322105555166,0.18714624777856598,0.006559917311411825,0.1595655044881606,-0.20472500973587068,0.12455593720233546,-0.005992183927124764,0.013201623049744059,0.15538847276126122,100.0,100.0,100.0,100.0,0.23436086069788908,0.13975321610520616,0.18363262691007415,-0.12749025636501873,100.0,100.0,100.0,100.0,0.043149869087267985,-0.36288121324418976,0.16233059508969158,0.2039813247112668
100.0,100.0,100.0,100.0,100.0,100.0,100.0,100.0,0.08127741929458972,-0.15723660286132185,-0.09910362313255076,0.02462515086605785,0.3050535110234148,-0.024020936310883544,-0.024020936310883544,-0.5229190220012381,0.12471566337457748,-0.03827681212927166,0.22722314239829094,-0.102952243632882,0.28305856025906706,-0.0691398346465618,-0.009578702942345266,-0.2243334519121183,0.12157779573994817,0.2984078796928884,0.3147220382388194,-0.1506131332136022,0.09776176607495085,0.11203492165538023,0.09233856648442365,-0.09391445166273191,0.13096850107644942,0.04321164478038292,0.093447986927228,0.12034569316749016,0.21274415515226197,-0.16225727669405465,0.21274415515226197,-0.34004961803117595,0.1773515129314277,-0.12265251364222307,0.24446842163071064,-0.2425570283120015,0.14200261181179352,-0.0740472481011968,-0.021836066132042732,0.1313634438459235,0.12968993609435686,-0.1602775584322642,0.04683381627812952,-0.07000373788046811,0.15806165366647235,0.23732874828821035,0.10423810077283485,0.061891020824525744,0.16048605044353192,0.12596610433692834,0.3875468670214407,-0.02192284487119319,0.19193516752259232,0.16733111320782845,0.07191016728339891,-0.23619675650606028,0.16939171027349686,0.2804343492012492,0.12824674379270368,0.15151205659175393,0.22387401217713085,0.1381934194669397,0.13890262223880973,-0.08763628422040362,100.0,100.0,100.0,100.0,0.1501438473623097,0.01008422787333612,0.1542284885056271,-0.12707186940534512,0.21253875825546173,-0.09063638475720313,-0.03394353701034958,-0.020529580889153555,0.10407100959482049,-0.18882302319273858,-0.04387120007109184,0.12063159060641332,100.0,100.0,100.0,100.0,0.15735697631873655,0.06090394392271194,0.049346965474140074,0.1601001630615029,-0.03948314566373858,0.3930486793528333,0.0447570641467835,0.006353143516004758,100.0,100.0,100.0,100.0,100.0,100.0,100.0,100.0,0.1286344307152498,-0.07898833191447222,-0.028502093545016968,0.004334108423162515,0.32314351280754344,0.060505898038538924,-0.08830161544783718,-0.07936539560493597,0.08917725242400337,-0.1247250928902833,0.10671251462103977,0.02929924428116569,0.08068511777028642,-0.14505590947575034,0.24474338321135342,-0.018981257131193585,100.0,100.0,100.0,100.0,100.0,100.0,100.0,100.0,100.0,100.0,100.0,100.0,0.25360891021947524,-0.044577664160079036,0.029300428815674722,0.029300428815674722,0.07019996013416939,-0.22398317549880767,-0.023150301610534364,0.06024561693690704,-0.009139116716890536,0.04664576400386113,-0.05366763491303296,0.09559990098076337,0.15386979029672335,-0.1055131477426389,-0.043285149944312845,0.06035768660189437,0.15342706961273558,0.07619628288599017,0.22723876533327209,0.3417042650799741,0.20579106743707093,-0.32799174392993574,0.21555510873858302,-0.1610048600366259
0.04193519896164728,-0.08585861642804438,0.06394376883555253,0.23103309277457262,0.24609508560382104,0.24609508560382104,0.24609508560382104,0.20945015376796,0.28333721841196735,0.03832943273332051,0.03832943273332051,-0.3735236541256117,0.37651063110504446,-0.3615345863095466,-0.15859092204102143,0.29678054464348935,0.14156531996021443,-0.13848158395294446,0.02539694550800587,0.12386187101343345,0.11107357005367693,-0.21735666292739902,-0.028222896355617186,0.07689464773513799,0.13967486043920851,0.002939755863745947,0.07056027712628452,-0.04084817221677209,0.2548101392264631,0.2743844863477484,0.1153394168803199,-0.1063347582667038,0.04784052624538569,0.45938865157633224,0.47356746512412373,-0.17099112744268616,0.09392222941978509,-0.049457362814672244,-0.030513694306493883,0.15774317501656338,0.22936039127437746,0.2773163547147493,0.21436195947513795,0.07672213606571501,0.11826159400248891,-0.2810340190602413,0.08114880401289691,0.2235762889666901,0.17249620203113056,0.03805968172207162,0.22133613914962721,0.0695640245883282,0.173804401820715,-0.14539547110043405,0.23474099090340175,-0.02534137141229207,0.17351030464806708,-0.08179501227110406,0.2395718117124334,-0.1524435385781187,100.0,100.0,100.0,100.0,0.18154001002104242,-0.025466167951498166,0.03731541134470363,0.0830084789256593,0.12508025837217326,0.00114636437954007,-0.10585079353977148,0.00114636437954007,0.2071144984207503,-0.4179708511740704,0.02133197563520714,0.1466705592627106,0.051063234671608795,-0.11367757595742937,0.08151812357192191,-0.1780318022940077,0.06860179184555841,-0.14384017184783804,0.09621796480151157,-0.35116872842018304,0.0755898894446986,0.014944265517936622,0.4815242468278869,-0.040499153466061186,0.09887202179421777,-0.3312225561280668,0.1308089814738287,0.033056154092293386,0.3302487445813598,0.17383499630505048,-0.03503688043556139,-0.4842647842817585,100.0,100.0,100.0,100.0,0.20998524410303923,0.16501541178228096,0.25081914606019545,0.1029368304723032,0.12160495513822431,-0.23718599132102247,0.07698014776616269,0.11250884459396727,0.12529263233503563,-0.5456066319448688,0.3575895906065072,0.3451504000056047,0.14224324787570064,0.3873802841164849,0.41040777301624276,-0.13006294094384857,0.09188619374462326,-0.03679181318501662,0.009050589499358108,0.16150972553887272,0.03845845138223292,0.013536623229504378,0.1356314884503245,-0.08033526432477331,0.18524384335400756,-0.3463640983521632,-0.1450402333687873,-0.3790048552453365,0.07901325527989755,-0.06347245721913475,0.08483646479789803,-0.37432488913252476,0.10981994387119112,0.23087231714106976,0.09201436203717636,-0.2768269318581443,-0.19085205798654317,-0.19085205798654317,-0.19085205798654317,0.1629429398026845,0.10610344556424714,-0.07374647442358565,-0.08755459096328856,0.14512491782666764,0.1181012754613136,-0.21941009218873936,0.11025623852714225,0.0592753868221089,0.14736572005797083,-0.3189262404141796,0.1505050978337385,-0.2015497909518727,0.3515392915209283,-0.19968226612783543,-0.1078075133362264,-0.06651637145181828,0.11054468144714086,-0.17669163161251245,0.18981191508597695,-0.3984603078074468
0.053379602589054026,-0.40301613853258667,0.07546168689016067,-0.19138654833555993,0.07465850750196996,-0.3189337445388345,0.09129397990316544,0.13170146358044363,0.16127285646699757,0.04719086891262836,0.062175222363998306,-0.32035633264573415,0.17718920817459113,-0.04818052086156703,0.194800026923935,-0.2801946776827267,-0.03235381608385402,-0.28469875473112205,0.08821805156999656,0.017725301227620997,100.0,100.0,100.0,100.0,0.18498750750068071,-0.05943913009647605,-0.02656273816803857,-0.02656273816803857,0.11608383299012236,-0.021095311400997175,0.11530344886484128,-0.08098573883737599,0.13852329909142236,-0.03496387722661576,0.11953123315640671,-0.003886230062205471,0.3310027965783755,0.20265540432432835,0.0043718600669704205,-0.34368801854308756,0.16199939969394775,0.03187643293590281,0.08918579662970864,0.07249012343640603,0.08395699803150729,-0.035245486973959135,0.3193222165502689,-0.05930557676238954,0.06412364808161308,0.22023247385331884,0.009175912940880035,0.04176366232083148,0.0003098553627064668,0.3708184685783691,-0.15566265534648355,0.007231335258898922,0.07202645895002023,0.09842410432238018,-0.02388330954069695,0.3963551987586693,100.0,100.0,100.0,100.0,100.0,100.0,100.0,100.0,0.12619624442000577,-0.41658625119211,0.16791420401114696,-0.04113737388361205,0.07442083765301194,-0.282682400290072,0.11165516093526306,-0.2725616235001228,0.09836638411837163,0.3849742314040012,0.4496280594012103,-0.05791657954282895,0.05622555909009768,0.17937883143172972,0.28381571087785123,-0.04249795863548089,-0.018729223940866117,0.14898576787508327,-0.1209187155737216,0.012515081636655429,100.0,100.0,100.0,100.0,0.07591955236522988,0.46844966737006977,0.09392893751028525,-0.1250176204917659,0.057653730741336444,0.1241405567768302,0.00932488097634862,-0.061773641520170314,0.11356153793475435,-0.16546686491635482,0.12777819262746143,-0.05199867367997932,0.09357541615024305,-0.35394558995033853,0.387426719065241,0.23983383243272782,100.0,100.0,100.0,100.0,0.12836747984651986,0.061874611699741774,0.30202230482808723,-0.04722663738377243,0.12154665024180071,0.17474395493022674,0.061449473086100964,0.15083839015853268,100.0,100.0,100.0,100.0,0.23152130933548876,0.21955603034688148,0.2818445968483797,-0.47362119340721404,0.0743527656974274,0.20137574165726743,0.044034211110177066,-0.27271366019823007,0.0005377597488292613,0.32738880619559685,0.0005377597488292613,-0.1752079800329036,0.09601930383501012,-0.033972324146740604,0.14749753827072554,-0.4403340079070661,0.0971901528095036,0.009965402970953063,0.14991226967443907,-0.3213708811800072,0.06142241680092759,-0.3766761416088027,0.14362166582682145,-0.3327237390285202,0.12877984227612047,0.34796327892479006,0.28866708573499195,-0.13877715142209424,0.07158290902038572,-0.2627332145862539,0.029878178066898124,0.23899396800386452,0.07008267048312818,0.20061720396926372,-0.05388151083953873,0.3135645971690704
0.09334846737897293,-0.11984450197479493,0.3379265731599037,0.09663587891812848,0.09755617490089233,0.0033112957472892987,0.1658608950548898,-0.32600579330829693,0.15158445159071518,0.3505948246687542,0.4692279799894528,-0.09933164487115068,0.15037227255449792,0.14600731429921326,0.002765352677496266,-0.07350689236641621,0.2170457788560113,0.1439664344114946,0.22344600268139908,-0.07754765377934876,100.0,100.0,100.0,100.0,0.35815365509052893,-0.07112097660006177,0.15009572222600515,-0.0768332423766325,0.14324682315653012,0.11026091716558284,0.04229857999511391,0.2001516510753474,0.10097903898231622,-0.02491908442871273,-0.004372555728895004,0.19778258024202172,0.14623362278010305,0.08177495783796165,0.15326634354777197,-0.1399550212323813,0.25011996689882227,0.08585016998360642,0.27071580807666257,0.26165744402795255,0.10844117460954648,-0.32199523750702375,0.14363699768621005,-0.37817883173065503,0.09124804292379321,-0.1949922444191407,0.16140135010009365,-0.2775158864598577,0.312769388681206,0.2794313586164416,0.005884260053752002,-0.4024955979193764,0.20270677253394204,0.035072506991334754,0.17317277979910894,-0.3975301768485092,0.10943611214537634,0.04423506950216815,0.08786253753420634,-0.313911533707701,0.05894283729814487,0.04744795857665941,0.06515916684146575,-0.04638248925264157,-0.001049385295860978,0.062201422889626615,-0.1441113076430779,0.17558329914343385,0.18964006136367895,-0.31645753955755435,-0.11926379528133892,-0.29483063288532196,0.319412014405888,0.36403194584068477,0.2281884469501478,-0.25626807179934746,0.06758213426109587,-0.3146966293598008,0.13457844343784642,0.04770808901848411,100.0,100.0,100.0,100.0,0.07516841158147246,-0.14419034677712528,0.1686918017230074,-0.32918460591176396,0.12215394884670129,-0.06939984508473682,0.038275890177822486,0.10293178186503338,0.044920617048835834,0.03524829285247086,0.3755437341624065,-0.1262025292817725,0.21430626611385706,0.030873787358539753,0.3806071350677227,0.23253422532049559,0.27739174908771635,-0.038896301419434044,0.04729927360164825,-0.018343217681816418,0.1951073722498579,-0.18141591778299726,0.1951073722498579,-0.3460206286436486,0.04984553912319758,0.2500205895048201,-0.13460038937704016,0.2003527140276962,0.25300177337187224,-0.17840407724199459,-0.14596329335480557,-0.06180244816900415,0.1845942214751025,0.16947797039561668,0.1049861025568753,0.09955818788764398,0.07781272739259126,-0.05163036524684996,0.1020451723217675,-0.13609135147125617,0.10590615448552397,0.01924758564808341,-9.794788009745425e-05,0.019502463793575342,0.09864883717728637,-0.3094085973666283,0.21424009924690526,-0.21008944764482837,0.17915225812352314,-0.27311482430785716,0.2821080068186062,0.005142421145555999,0.14628752791252966,-0.26154465954924055,-0.0958757469866098,-0.24264224257929023,0.11229158715045881,-0.24779988159778138,0.09355548236225857,-0.09400446822790476,0.1893724293683021,0.052472025635696196,0.17582582681562853,0.17131700939818761,0.11080113667876461,-0.07639279109949333,0.10542292262232592,0.0007084999113729368,0.10913448260888547,0.06731796116467803,0.13100184354789962,-0.3125350363583167
0.05954950396975558,-0.024436326464526766,0.36122960933671366,0.011351378639030005,0.07869113895030294,0.11305899885423316,-0.07044993614545919,-0.03197264302224871,0.09325641473415773,-0.041158288296778665,-0.1612238588447932,0.13703883667295808,-0.01425926670476603,-0.2621409091902448,0.08953593917519331,-0.1953024380873692,0.024301105158805007,0.024301105158805007,0.024301105158805007,0.13856163612211603,0.22432030723228305,-0.046423614517027506,-0.0247284076387754,-0.130360427173622,0.16837730923617583,-0.039283628553209646,0.029288409342930713,-0.30868465651408317,-0.04404541896030535,0.3797945962539798,0.38855497096320823,-0.11700227699283576,0.10933971665639455,0.034648414303712446,0.15083911080092233,0.0999673715583845,0.020791570169694955,0.11436240916009531,0.06779007685412995,-0.15687756354437876,0.1490314350359069,-0.028762561716787944,0.17111548736849264,-0.3891630032085355,100.0,100.0,100.0,100.0,0.11726834359901961,0.2692556032725233,0.2624336817954319,0.1364073379443845,0.10709095739644829,-0.3804983747781635,0.10924482079069067,-0.515232943639387,0.17595803092847476,-0.2036069594039172,0.013639804115964507,0.10649450601208266,0.22146355432337647,-0.15506086265388536,0.031794842251537746,0.18371111192927936,0.09156773516835115,0.21427216094819948,-0.08166407777914167,0.056372172860222544,0.06531977200397049,-0.10828809413980167,-0.007265564244419605,0.011078162794844457,-0.027638897014166587,-0.027638897014166587,-0.027638897014166587,-0.19232041993206478,100.0,100.0,100.0,100.0,0.0712859394320447,0.08085479056803496,0.09689819492656894,-0.15175070253888798,0.17290656016659617,-0.27922672172776125,-0.0009586658796459924,-0.08180633339084167,0.0229013882985514,-0.1069025024506759,0.10018501955781885,0.128332996356045,0.07799781799780262,-0.21446330209432124,0.07010187796964723,-0.05879470603024467,0.19014717194576286,0.2552188311481362,0.22404179840206517,-0.40805182364903614,0.16364484549486122,-0.3739146436690825,0.02678253967285285,-0.1956667972315628,100.0,100.0,100.0,100.0,0.07979077511439692,-0.10311888176532963,0.18852413604007343,-0.06880080130220712,0.04180477464206051,-0.03614899350285146,0.024647630847806357,0.18212333318991536,0.11342896347331871,0.06883113949028478,0.11278421202634538,0.14010396737840616,0.18633490588910576,-0.12671285688843853,-0.12671285688843853,0.08616751001084208,0.10735268936683784,-0.027667904060131365,0.14435387594985516,-0.2665884071027928,0.12977505658175206,-0.2775219135921815,0.31982513004494306,-0.22014662118127284,0.27905798773254653,-0.09893439031901596,-0.07602150102620506,-0.1539961469761103,0.3625732219712206,-0.2616539059793001,-0.18896184925186774,0.17280141641228555,0.051575422286964656,-0.23702600665575554,0.1595348666887973,-0.2208104953478055,0.11507708551894387,-0.2239481146494419,0.067927553346238,0.1784197088499563,0.12276825158658354,-0.05861179955520375,0.14969877405559254,-0.065115344010126,0.10504465184454201,-0.30380863247605494,0.15575827260503394,-0.03692801118569903,0.35697504113087986,0.22814012353623175,-0.018491604404458913,-0.09704304324123791
0.17497915046323162,0.03681536719292518,0.3550946402100736,0.19872522034777138,0.27734981168671347,-0.02760521680898997,0.014369883428868933,-0.03126913051049063,0.05174998418829428,-0.017552576571073772,-0.04017643134421227,0.12719522777515263,100.0,100.0,100.0,100.0,0.046480337526013236,-0.225717798980371,0.12281407894876042,-0.17736437292661972,100.0,100.0,100.0,100.0,0.054966432575139716,-0.18679836300465857,0.08606777459880614,-0.041716211951700936,0.01877495900513615,-0.1352897202713092,-0.06196209269237432,-0.25918894998704983,100.0,100.0,100.0,100.0,0.13679767090277814,0.19940572301742954,0.31819989106322955,-0.17426768774443654,0.2270012778524622,0.01884699658980772,0.13917730639382758,-0.1541500140299621,0.12069812979058633,0.054572065299604657,0.09866512760411773,-0.009644200802450903,0.1399697928200638,0.02342302800344375,0.09279024403045064,-0.3214591157907493,0.11614748039044957,-0.012511514859280148,0.0307054487167149,-0.3786413095056832,0.18521408331674544,0.25544013880749517,0.27173621975518614,-0.4152509690485777,0.10752624703712506,0.1271520439809651,0.09116773625212814,0.17945507882344433,0.18216484006898553,-0.4203832605209512,0.10506076744773662,-0.2229663895016458,0.11436896183674052,-0.01999885566124059,0.19582746062803139,0.21344471579913182,0.12897318459916915,0.1934525864622676,0.12779533215804295,0.21301972628911187,0.06835833157364163,-0.23020995459336613,0.1312469870585996,-0.17197677735166575,0.1140170167562563,0.020311234696787202,0.13134457711599107,-0.09078981426916594,0.05375485250817258,-0.01961972138543073,0.08680881962050699,0.18684207734080022,0.2998468200482577,0.13034141348976735,0.2558261479842796,-0.3238488331006282,0.043224485458526016,0.2792395633828551,0.3704122397430367,0.012511864756700491,100.0,100.0,100.0,100.0,0.2243078508092306,-0.25923529365454706,0.06321813545216341,0.02348801622252953,0.07831404027430496,0.014645752226152137,0.05626297629495119,0.07435207347064021,0.08875822872987595,-0.08002817157896144,0.1118964844634637,-0.3935019295041678,0.2028509144755125,-0.15862233962279093,-0.06316003286587021,-0.31582229836471354,0.1464301327737774,-0.06599385078335215,0.11597905607292319,-0.006965077417671533,0.12676604043080847,0.042685476088424296,0.12358173335608455,-0.044585102708177504,0.016603299301786383,0.23401386886639022,0.09863655152556437,-0.20554205612460907,-0.03310974914943251,0.06263497786454489,0.0694998147922961,-0.06954486883805136,0.12060380341553048,0.4451358021257376,0.40951894603788686,-0.11269928155056427,0.13524752438235887,-0.19473176192700278,0.32862038170833874,0.015120977238295218,-0.05130119058235216,-0.14347616086010817,0.12152486360856023,-0.25608936051524794,0.06579092658650182,-0.28620566811185505,0.18583374740381614,-0.2555392606077136,100.0,100.0,100.0,100.0,0.07933647238834525,-0.06964295576776691,0.1185986510267174,-0.3716153853635539,0.06754850458048857,-0.06527489276100157,0.11243733181944097,0.2059319787332179
0.12241303582600332,0.024065204081685842,0.0646048791728875,-0.05297682257834599,0.08269351699053964,0.07025142953959385,0.15930446105605772,0.07605056150362954,0.08764929356162506,0.010958841267114189,0.21661652676269866,-0.3826313049677687,0.08919879059312752,0.014336247061594825,0.10762610075205531,0.05987432269947347,0.25936090372866216,-0.09488964706002045,0.2148631441474731,0.1523819628891398,0.02319886948720165,0.12348173095530585,-0.006066689281557708,0.047529618541352237,0.050588125740583,-0.29570477951402974,0.26065313067338136,-0.1265322548719479,100.0,100.0,100.0,100.0,0.2954476530085011,-0.04892170112847824,0.19637383579096543,0.06698004529134144,100.0,100.0,100.0,100.0,0.13125042717326973,-0.014660218268159698,0.045849121527757344,0.1330882049571858,0.22496033427110212,0.07966763091073709,0.1855308911693235,-0.18286550660837142,0.13833828400553652,-0.06254762046048576,0.14004034872162371,0.24181253631091176,0.07418558538713907,-0.07283369345710894,0.07436132776336489,-0.19266749499234323,0.26748911057798064,-0.05905440433644833,0.18269963169354458,-0.15125057405307213,0.08599132873615245,-0.2807322258671129,0.1279504873783294,-0.22013433733381413,0.10471215330737918,0.024914238823223897,0.2991480928091974,-0.00804738697947997,0.2534807289663157,0.20031050395057723,0.18277191240667318,-0.40050579760946303,0.1352336160285848,-0.27355602702552584,0.5094004163416734,0.2047344967520181,0.1273239623757784,-0.017872394277217,0.030106217570746163,0.01314768446930696,0.043866838440637115,0.2693806876975306,0.13364696670577753,0.1370116440692503,100.0,100.0,100.0,100.0,0.11382454779591204,0.06318065569803427,0.062109102381987503,0.10748058808741544,0.13618804975289517,0.15991927022731356,-0.007785967935725142,0.15991927022731356,0.14600212223051415,0.18543642766695195,0.1672547888966076,0.18734033647317272,100.0,100.0,100.0,100.0,0.07076570325545806,0.05352108866620127,0.08222970907487179,-0.08799241677897725,0.051207322454648804,-0.0132867187567672,0.0158948309325675,0.15639480703682004,0.16364404351410256,0.013839031302048388,0.09401016851272773,0.20557175761962806,0.18962251674905806,-0.2739753344187253,0.15861457306088203,-0.1517876933998814,0.15917305345354069,-0.014411304188689768,0.04704973099941674,0.07529203571919567,0.0484115896298186,0.018670124475278188,0.0484115896298186,-0.10594017012984278,0.08099796473841464,-0.02383431935188307,0.10390152584859441,0.022321833546096504,100.0,100.0,100.0,100.0,0.06883460047950753,-0.05492099552949661,0.16609080683661398,0.16015676334669382,0.10732014898603803,0.05524993954295268,0.09019275321751502,0.09463891070825145,0.1727702790198635,0.3984097365454286,0.08208808286699945,0.11823361588704369,0.11360257846838026,0.09294315441289702,0.06942629154094233,0.20184014048472607,0.0677623332868259,0.06974577057810052,0.09546055881502406,-0.43426449194720457,0.18908513678610944,-0.16998882403220694,0.10713641797784008,0.22247365447104606
0.07824600854776098,-0.068344175511036,0.11972194323575872,0.23044596451704263,100.0,100.0,100.0,100.0,0.18465683741236763,0.04775404017354238,0.2463555767127407,-0.14634798851044264,0.09092318656525901,0.07306781152061832,0.031028578999492552,-0.033375996045736524,0.1600019032055383,0.0068214180633842415,0.10955637123175738,0.15775053013815538,0.0398874227697741,0.004356841803648499,0.052880214831875695,0.19697651234659666,0.06192804037604628,-0.007977757342112514,0.09500199875101872,0.06979767356064333,100.0,100.0,100.0,100.0,100.0,100.0,100.0,100.0,0.21785727035769015,-0.3254575253341946,0.14277692775589437,0.12612252111551406,100.0,100.0,100.0,100.0,0.1529457636739474,0.2737277086272976,0.22980187263750748,0.014167201474496897,0.2002866579811873,0.010210315364414182,-0.1657435136782751,-0.12726796630210185,100.0,100.0,100.0,100.0,0.12350652433783514,0.03184000987380668,0.12258925118367736,0.1521752528207835,0.14812397954948892,0.04130968479780131,0.08391117363432554,-0.025023023211992228,0.1484590587777329,0.30364789670506526,0.2461380607184812,-0.0598045547627567,0.1765491199682738,-0.05236261128997426,-0.06587457227223034,0.058110677510181716,0.07279085842459804,-0.08362901961043254,0.14538104840769298,0.1343296998590764,100.0,100.0,100.0,100.0,0.003080475264057473,-0.10941737002677057,0.32903981858276504,0.14218104887308927,0.20838936235330854,0.11317772776616034,0.20838936235330854,0.054324901727718325,0.12024407740987729,-0.39269786416271674,0.17009639335918372,0.21331946488259626,0.34665380778432214,0.11244956407180523,0.11244956407180523,0.2835851393626863,100.0,100.0,100.0,100.0,0.08494130727461473,0.011434150687470106,0.21200432496524518,-0.037189713526751024,0.03582773580748161,0.3534598405095257,0.2640891893441239,-0.08539866139771654,0.05446554210360148,-0.06700303582332434,0.09733389999782643,-0.06810241150177951,0.0359609768951676,-0.34504243651968625,0.26618773063795764,-0.16744544920192084,0.07257768064936357,-0.061670167211124935,0.15937424988688445,-0.15423741971386004,-0.14455962027573316,-0.14455962027573316,-0.14455962027573316,-0.015847378720937017,-0.00833449432375084,-0.36724024200612754,-0.00012293602995311348,-0.20336204423393056,0.14909465019721999,0.19587969583452983,0.04004021871732687,-0.21734877885632922,0.13147233216781348,0.20773132935444102,0.3281785210263076,0.20773132935444102,0.1645677400489738,0.20129490446240667,0.11885655589927852,0.12046136277903435,0.08941965632539006,-0.18643640008111553,0.08910075089188704,-0.10854438924393434,0.16773819808052529,0.19578954347768893,0.30133783145786897,0.1471752982344705,0.1695255888434019,-0.000979644374521381,-0.2044957223597186,0.08821107331613501,0.1056194707979839,-0.24474867609398465,0.2796042796782547,-0.14686272344575765,-0.011977357437542475,0.4258759878750201,0.4586164673619304,-0.15562889747470599
0.11805196363242967,0.13585357761893707,-0.07778924887919049,0.0471524199354845,0.09977781619193353,0.2085416463352186,0.07092511661221505,0.046242409442345825,0.10770113292653168,-0.37704296359752015,0.1389949370703512,-0.19196779116201776,0.18940782106708776,0.003591804870114408,-0.08029718367359831,-0.5216300007039806,0.10736304677344077,0.11301136329991367,0.03866098170444844,0.12016566376100306,0.1015289757522648,0.06491797824184127,-0.011297026735310536,0.12116776542600838,0.05132054902689662,-0.023091814940301235,-0.17092276908342552,0.11975292390546907,0.22120154497739702,0.19526530089387967,0.25452801387725177,-0.29476345108916346,0.18305201671378404,-0.3164517890033818,0.07354653142335985,-0.07909999536884689,0.08530809513552008,0.4173172012582003,0.39807269857483435,-0.06160725592562321,0.040622043405115986,-0.21783957299371975,-0.04632841895399389,-0.08121332932057099,0.1798359643514308,-0.061351934055110344,0.5203857561591951,0.2164966514025109,0.35917030938259054,-0.1516731360388141,0.024588939132168974,-0.1528174841256025,0.17022113038451125,-0.3331740201878392,0.09540110116339177,-0.4725513815294011,0.13201934993422482,-0.11803646719008212,-0.016765358502096983,0.19738110887179672,0.1826897649173205,-0.29152748281064494,0.0950046624152172,0.10897273301876274,100.0,100.0,100.0,100.0,0.21340618933374872,0.026466214063883765,0.04894144707362666,0.03287461467097913,0.10507763098267012,0.07173481451593453,-0.01937867907978997,-0.1455229537230436,0.10270164982754501,0.025658404732776103,0.2000664680322932,-0.25759844160062884,0.09935979032629993,-0.05438651877463695,0.1323628261188316,-0.4233285777391044,0.07418831979296693,-0.35322801041782365,0.1261237805264334,-0.09416561206287818,-0.013666050577477811,0.4596281663599208,0.41049259837178226,-0.07420627255739229,0.026458192345127064,-0.3881194533272297,0.13460851743385321,-0.24657523328665004,0.11696446388111598,-0.35409642127206054,0.16352721890786945,-0.19796140074678106,0.2278354776172626,-0.3198538022924903,-0.20709055909529578,-0.14013202722583784,0.06639267880524201,-0.5728646198009688,0.07252683026338402,0.04242175527178022,0.13214505105619145,-0.42998162903498294,0.08277725874239637,0.24442427646666626,0.42366552224225934,-0.19376576588781905,-0.06928105195061796,-0.26927413429581737,-0.011154599917110646,0.46628106106971184,0.36190378334072637,-0.1063157579011077,0.010574624254360787,-0.13638686794774013,0.3426548164442679,-0.019295871730185283,0.10536021789750154,0.01022302851514318,0.4543151583429353,0.2469902215405461,0.18793890631583138,-0.2728647610602855,0.03217565031454884,0.27982131864546245,-0.027648620019861087,0.40162010196655645,0.3151307446087535,-0.08359425366933418,0.09582835380422888,-0.2060845564735495,0.36550533190483,-0.1553520564169566,0.21368377303931235,0.09227917209094907,0.01816137763220231,-0.029660036097904713,0.06867883225737469,-0.5301206548246951,0.06119497515202023,0.15963529577142896,0.12319257591361267,-0.3674240105574266,0.14668046890014885,0.09515410517676534,0.19876557962332617,-0.4125130353023218,0.2145682491466283,-0.1935748990959536,0.19934948619672488,-0.36305392839578665,-0.1750387644836284,-0.4903713695303562
0.07935607900841699,-0.20825384841054093,0.18431083845651983,-0.40181571270155875,-0.04496745964731372,-0.3464472517484912,0.04205578314444747,0.00890764827493492,0.16781178575841516,-0.2919609308099411,0.1169927299139551,-0.4747110126147155,0.28640872498544856,0.07040391420522779,0.07040391420522779,0.07040391420522779,0.1346705167511023,0.33748697546496514,-0.023764618241199735,-0.08719733248154496,-0.054138167205155324,-0.37144498930238856,0.11659786325111883,0.02151411752231304,0.19802094171522933,-0.4035898740781522,0.051848388077552446,0.22305644677224262,0.11606953138189628,-0.4201878334672571,0.10993240585523092,-0.23541076132806407,0.26359861141923957,-0.31282218113708377,-0.13511826987954334,-0.07415448130365014,0.2184169483624836,-0.26613263594639824,0.09143951952664195,-0.1899845492057688,0.1752173200137847,0.19452079198779687,0.06650769876899336,0.11020273610236472,0.027829481191277896,-0.06076620294431103,0.11054774605237892,-0.028090732084334758,100.0,100.0,100.0,100.0,0.22064363902849446,0.12354301482697672,0.14044165739933803,-0.14163564631934314,0.012437994190387058,-0.25550900081719347,0.10861120219499529,-0.24670357734011816,0.20521513279352965,-0.00013561081487462393,0.11668097535693508,-0.06928423267080003,0.008247270686137132,0.45120280007586244,0.47809887074580426,-0.07362615998320307,0.0956664577429561,0.0417916623732916,0.10009166374820083,-0.14926944398792646,0.05554883834289104,0.4236932279407788,0.0610105220572394,0.21266144209235743,-0.0017180092899477684,-0.051589989964474156,0.0734073877021511,-0.024657197263271466,0.1187042641986602,0.34696680871363134,0.2956810075658623,-0.103572453917107,0.20303297238516205,0.16020053791757155,0.15748108579039138,-0.4147024333284341,0.06352582494530074,-0.33752891705061927,0.12725327093771016,-0.12809374623217984,0.06418556085700683,-0.1302368304560306,0.13298568775724073,-0.34961167558660966,0.09870480888495585,0.02235936560800538,0.11637448373886969,-0.37816031261950933,0.06544343909263015,-0.1055135314969936,0.1294785905659745,-0.37060103728170757,0.12073109495063784,0.19481080326753178,0.11359242880131212,0.239889448594365,0.08168706210154192,-0.32352630494418677,0.14453701392248197,-0.4182949377338988,100.0,100.0,100.0,100.0,0.1742911458437298,-0.40287119563396606,0.04324533202046106,0.22637065605816112,0.09861949265856129,-0.15877763962447605,0.0206713105124518,0.1649678727041995,0.16786115089142686,-0.08874398378717702,0.5323260812162794,-0.12298261718325448,0.08510360824919483,0.07326978354417044,0.059897675814341654,-0.006754345726275729,0.15008471673461032,-0.3694283719448175,-0.11137210188476558,-0.43508690202199,0.17815751810463723,0.0242471062533491,0.2414038551973811,0.1548004953587407,0.0910328430263205,-0.32581719538478027,0.11985657020093422,-0.38666960968650527,0.1903626618358658,-0.13261501880600562,0.18123661952857595,-0.43995682343374304,0.10431666390085804,-0.18646823341981997,0.10431666390085804,-0.007826343907779913,0.26511396017589905,0.11089745912831221,0.11089745912831221,-0.03191288988976437,0.15348593748877914,0.047943282293955655,0.09210246736926578,-0.04455672196126145
0.05427547663428142,-0.17445602426883647,0.1346528592007723,-0.11549139893210013,0.1249830341697821,0.02528423146007535,0.4902686243038768,0.14601962013111508,0.3062341650781555,-0.16545034726720187,-0.08726359114650029,-0.07260098249024807,0.12025680788243814,0.14399036723460706,0.1398111934183228,-0.19874202880084138,0.0006256423622146047,-0.08605843630727111,0.34713226986537327,-0.2538964559529515,0.2857960815611743,-0.312898029732134,-0.1792414044743392,0.25813933666345384,0.08342441406236463,0.23393942856788832,0.15037211692878055,0.12751573219397472,0.2852624353016319,0.19965927225981228,-0.06883837838313356,-0.5023496356690624,0.07989564300286162,-0.35875907215059255,0.14703255084647743,-0.24341453236050445,-0.025557466578687515,0.06203218902628524,0.06321184077838798,-0.025210308722002063,0.032415308177907234,-0.03810955362217711,0.08398422898148414,-0.34693917712281624,0.17341146695195303,-0.2486317015793475,0.1494748916978608,0.17148687104963775,0.24006187401464335,-0.1070162632615962,-0.028950530175930744,-0.02109154042591313,0.14227433258919608,0.07973535011880006,0.056380326484027896,-0.05975091773975455,0.21240620006570424,0.17972331958836596,-0.09795394857467242,0.17972331958836596,-0.15958637985845753,0.08435513937115709,-0.15958637985845753,-0.27366549522570777,0.1333098200046801,0.19307779342932188,-0.13683116434541984,-0.4939355816998443,0.08839257625632133,0.0668299554704764,0.12179412932444401,0.0102911870694,0.1917604964937644,0.030496769195762316,0.05400923855294218,-0.31226803209608356,0.08607992717360272,0.3836235502466545,0.15793413816888058,-0.13337230825606794,0.06062451386249812,-0.10844278201006151,0.5271485882263186,-0.06398787010883146,0.08092198939706856,-0.1887034534960257,0.06083372401902905,-0.14282085094493135,0.1712305386742142,-0.31948813347127936,0.12249953008414839,-0.04237392563879597,0.16762513567623819,-0.3434270210151985,0.08185999103063415,0.04771607933298539,-0.011248278638301655,0.43134968179816885,0.28561158361944183,-0.05293329704690219,0.041108507850166405,-0.045887654852998644,0.31801325897480315,-0.10142525852310902,0.15761166625448803,0.08614413256139208,0.1107173501280137,-0.21138540594965602,0.1503351041770346,-0.34350414109175764,-0.11846351609843997,-0.4567057590488023,0.11605403262171402,-0.015635762624428867,0.5172033792301566,-0.07790480922184159,0.060601730554776294,-0.11622744385903311,0.4811783901457594,-0.07676456733794557,0.09775007111982867,-0.16395647595439056,0.15214120301906017,-0.2910921080007371,0.2358194320034626,-0.10539715327176213,0.13749947023295778,-0.21103454637049282,0.1473363544449776,-0.3110692116914073,0.20568078785212834,-0.19877752690375497,0.11021222411030436,-0.24153532002663491,0.07050218964971695,0.11164584842496374,0.20256507863170878,-0.07183705965332134,0.23118013706399723,-0.3296876962839656,0.14159635038624577,-0.34106676657137436,0.2012018983330637,-0.11962947830474308,0.21106636114217703,-0.11414833849617577,-0.09056932063137597,-0.5157036810874762,0.19045811319191086,-0.4000382917160077,0.23408793932412955,-0.20874271310091488,0.14451694248532646,-0.334978275212103,0.031287264663216734,0.03508835613369551,-0.006951976736194602,-0.14326400340028161,0.10623804851771276,-0.24086590583522188
0.1469469604914571,-0.3655310546446843,0.22426820872786152,0.002579744969530005,0.1028518676046628,-0.10827480458224793,0.08181538607057603,-0.11838125038785385,0.09154209952053105,0.13111058707705575,-0.012155627425130364,0.16537810965070715,-0.016106627340540164,0.46864066612365995,0.3755606881055744,-0.08621900134195208,0.08977585206272773,0.1468943082081983,0.11725155605776286,-0.37406054979751324,-0.012450213150259062,0.4529111614325168,0.37369283003615006,-0.09339036112901547,0.18541910955409627,-0.3529918975115279,-0.140301633207093,-0.49289966611356895,0.15064178292893507,-0.08737209434459625,0.19335600018997182,0.1908852882679392,0.12943730261949338,-0.3086468166350496,-0.08492621418019868,-0.31391216961329016,0.17796332169590723,-0.36824608157981903,-0.14082532389836877,-0.5690392766548419,0.03871520300473554,-0.08216787315149318,0.48889504945673895,-0.0742585625114357,0.06343746552291911,-0.5254026282708185,0.12125041160150153,-0.08356084426260865,0.1399459067455068,-0.08893647868688759,0.5471678784046399,0.1999702730691949,0.0867052593124552,-0.39261065300357434,0.14527838733623852,-0.49786131855754934,0.1726123637181184,-0.34723503765415054,-0.1293094832221399,-0.4016991639531115,0.0787555233781538,-0.36270388857806574,0.1453680571075306,-0.4474114960815726,0.06560597022791127,0.11847491400767744,0.12013115854252962,0.10074709392481274,0.2221013313966895,-0.3475066536210196,-0.11271756850710443,-0.5076809383323935,0.1272221294011843,-0.007934526213509499,-0.02103366453462341,0.08759415121767894,0.1269552251902193,-0.2675822710521756,0.09098443783478678,0.0673991396275237,0.10806163212905923,-0.10066282250182541,0.1645617710340208,-0.3005391445440918,0.0744305418822318,-0.19494535319345144,0.1398749422704399,-0.163078828787979,0.09934730464037607,0.15230999634118667,0.1320067102680692,-0.16825313106382467,100.0,100.0,100.0,100.0,0.08830394185869049,0.05749358439806407,0.07509071595859365,0.010522096770174258,0.11552374488310577,-0.12619328745084277,0.1437548392383713,-0.26021649382888284,0.12882910806986117,0.0679857321172565,0.09865508382448536,-0.07399880820491475,0.08090632062881822,-0.3105137534545998,0.10587540696712618,-0.37756263801608214,0.11624148261154013,0.1041271680484043,0.1404098623091662,-0.3975783425239482,0.11689015662621022,-0.31476854685794836,0.095547004080658,-0.3778913276065484,0.11753917811202269,-0.0950852557129237,0.29810804499455884,-0.10579794855281406,0.070438124339037,-0.07196781034028714,0.14717310271179496,-0.47409632694740766,0.19486601073167922,0.060686614449114724,0.032457130776205906,-0.012812543022260266,0.10401277082892954,0.10957728863083638,0.14144684357882975,-0.2348237021612161,0.07225951391036455,-0.08005081488663342,0.12833719420885792,-0.25372647035288376,0.150301333414912,-0.12026472439628595,0.07708216722932032,-0.10370735803661287,0.17346616696277833,0.027889503556445587,0.009689185792512947,-0.012713363436448778,0.11326172685546053,0.09030636898963734,0.13132021889567194,-0.347517381828298,0.27686457140537013,-0.1010368474817483,0.12132690661792568,-0.12398212154322756,0.07625010963577636,-0.011201900294308887,0.054906964524136126,0.01755038710760253
0.052104500334827275,-0.15867016466201073,0.14967291548708084,-0.3349142379784562,0.26233604144252537,0.017330963455763515,0.062379246782427664,-0.03860488487380885,0.12009110178985491,0.025374351895417285,0.22870755362911258,-0.3320362283612369,0.3487477112296182,0.2983486369791458,0.18705954284931414,-0.11794307025334552,0.08325035490818128,-0.3056493922143859,0.09848815128201646,0.08036958026118216,0.12475950219865461,-0.030466243796843956,0.13155214171638907,-0.4234181458816466,0.05886452211812973,-0.2817905286984732,0.13902457671608634,-0.20367639447476016,0.043610388613021495,-0.25582761311848223,0.16048064032097722,-0.2606407620107702,0.2001388302399546,0.030340644994801567,0.04496815298975581,-0.02975610121431993,0.2374549362416456,-0.11332163125624184,0.20610355948373155,-0.023106731310522686,0.11946397761344002,-0.0414714343194466,0.11874656533639846,0.10662627200251329,0.22682492067201904,0.07423928982158096,0.22764029300306754,-0.06998182549788197,0.16789983680208964,0.05259569831723452,0.0802958863514251,-0.04795132087667677,0.13457267821531854,0.07675313654299834,0.13499454667305139,-0.3441061892007066,0.06748506133935603,-0.16503386561574168,0.14730886092836426,-0.12409015657118437,-0.0005926785008427277,0.03213870467420177,0.061320314673311026,-0.09573357652570634,0.06737048860685835,-0.2589788935723617,0.10657005520018731,-0.20107792975663605,0.1107277276984244,0.20669933867545692,0.093229050784532,0.057006981323157235,0.19723852828772528,-0.0295606808176642,0.25289656521834714,-0.2564750451836241,0.12895381653565646,-0.017531119229911747,0.061082278633981454,-0.17792260252061176,0.11662115574184528,0.17114128805862638,0.09160504706683828,-0.11551371328276022,0.09557936726135056,-0.3524903996008936,0.1730173988260771,-0.38937655861703546,0.17490519013115693,-0.08715568804771748,0.035522003299274185,0.2280145644180434,0.14170701931316898,-0.07001661052157945,0.08336678343284164,0.23597870959345663,0.12536136566448206,0.07382528124187764,0.2229408378254938,-0.05155448420111333,0.10056705040472597,-0.04514191353752884,0.09929316044403871,-0.4198595654383229,0.12982439921289607,-0.10278659367454898,0.08436504141018437,-0.34226340356724044,0.09859875832273829,0.22111904128955798,0.05057893301603508,0.2746039787079234,0.15608713465450047,-0.2916426685469416,-0.03664225872682107,-0.20437340869996348,0.08694311741484473,-0.38141850975291813,0.11446123375373166,-0.05113912062090615,0.0988844554738616,-0.11548014312178596,0.19407470554162132,-0.342359116418035,0.10047562409253989,0.09336224183316892,0.1314187119449185,-0.29959183142044843,0.04849284410574081,-0.32723343658442905,0.08923284919921005,-0.015790139971300566,0.0862774595782028,-0.35921381284016746,0.14005775667302758,0.23051072175995338,0.09767660329105793,-0.1608369114367364,0.08418577103826602,0.06948356493918702,0.13179912253154913,-0.07110908074877242,0.11135598356853069,-0.1107612211895518,0.1555584361173653,-0.03894346074435556,0.007720053198972732,0.21069547729291713,0.08322485906088786,-0.3136765974384586,0.1402386659275679,-0.26885665101585976,0.19110981675955455,-0.13836996270845772,0.191801274199869,-0.35538813379243955,0.12201079497421216,0.315052788819966,0.0969437585951861,0.21359256609855293
0.10007319264285555,-0.3674594658396568,0.11375968617220546,-0.324129445247144,0.12159998352626862,-0.22791381541510472,0.10268140525176801,-0.41210183964894415,0.21044350786680527,-0.34260362883498463,-0.08080428749957791,-0.45663003917559875,0.06910455999306936,-0.36118286435157554,0.10508144825881083,-0.20439305035470887,0.15706265083017368,-0.2541727543850485,0.10786632613008827,0.09864769490933875,0.08956738895133508,-0.022539289680864938,0.17839602844305483,-0.12256181786626538,100.0,100.0,100.0,100.0,0.11638621450061322,-0.3316337992948785,0.07424274243150095,0.14560347374473726,0.11675525600547362,-0.25867483529066443,0.18146521756005282,-0.15568769068702862,0.09970373383162096,-0.2570616061541635,0.12270610915146671,-0.1469177254288158,0.020011911383794802,0.25664848096131043,0.08361120817965007,0.07163178240844884,0.21353390537533576,-0.3007253269191338,-0.0052332788910016,-0.4384921543406817,0.1290718174526735,-0.36718735747400927,0.14481143676422098,-0.11653553540682893,0.127310948158065,-0.2182274482957691,0.15176732712862379,-0.2153059171648313,0.1601405070480575,-0.3942651794816954,0.20799553008300808,-0.2903648298542477,0.12438996019096495,-0.04770435369633812,0.12519562897198022,-0.36867922977354073,0.08323983444864944,0.06941930400229092,0.12042658314476008,-0.06634482380490436,0.09840209619307773,0.0048163628645860185,0.1379715022816432,-0.20386409064032346,0.0816635083370692,-0.2057013750715164,0.11815287606855669,-0.043582148916189015,0.09680612205978623,-0.34344252669486475,0.12705592350965478,-0.41410577492608774,0.05121139050511911,-0.36992812855041,0.18297509508721896,-0.05756339835828678,0.0928838256139094,-0.30899899316729806,0.13034123465161115,-0.1389626975530281,0.06925627749325365,0.23568552628693418,0.21527380896350287,-0.201852710727905,0.03836726230845252,-0.052264448874719274,0.1047700754715436,-0.01599431631753065,0.10385555139091363,-0.045108198214460285,0.021659785378655316,0.12152433533930816,-0.015947721300631126,-0.4295712268734577,0.002567326535183184,-0.20545077728499894,100.0,100.0,100.0,100.0,0.13342339398868142,0.11106255440960805,0.08952636251208695,-0.14764434351402614,100.0,100.0,100.0,100.0,0.18184615313323374,0.05511034941919893,-0.18761695671523032,-0.41836794005991956,100.0,100.0,100.0,100.0,0.20316602562911548,-0.30160070745117296,0.09054051610004304,-0.46928585691287544,0.1042665790797774,-0.1880342208518951,-0.11812747442489735,-0.11812747442489735,0.08137969685309074,0.026934370350321334,0.14151904102654705,-0.24900630910686783,0.0676670485147039,-0.303000405387321,0.11258477327326954,0.01866504701282841,0.09763645091211558,-0.12479740733572763,0.06977296833696109,0.03420400564875782,0.28875044545930095,-0.19265692755677283,0.13567612661707698,0.044523532539964314,0.04843989737020746,-0.06572845264581884,0.14412687126978163,-0.3362885973161525,0.07615496496164689,-0.3003376071737248,0.09856792970530522,0.21542631411532684,0.12496716790832776,-0.04439616668972014,0.07574818024425187,-0.20381052480354245
0.13947818196441208,0.12078628260560095,0.21127633270748183,-0.13451872279601573,-0.0407983075139515,-0.0407983075139515,-0.0407983075139515,-0.30063315450654465,0.35103414946749306,0.060621138879745864,-0.09154469006184163,-0.06400179724966358,0.08131581065617552,0.18703215094922604,0.236604655950706,-0.3688034403863318,0.09609728008202817,0.05092176001839381,0.14958454456396422,-0.16930115287696956,0.1776486419364066,-0.19345205788251943,0.2030728202302738,-0.2046994463090771,0.05363461155449978,-0.2267084668392585,0.025318146740131987,-0.0719057817797485,0.05416039713032263,-0.30836579105412515,0.33650590370959466,-0.13984802177050779,0.16302640198476206,-0.14597878861227992,0.2228209503506412,-0.20642815190146263,0.10524045017279872,0.2948163583712488,0.3346567897995139,-0.1378331518302372,100.0,100.0,100.0,100.0,0.043925481868851396,-0.4121599757374828,0.3105183391050576,-0.31822950107219117,0.14515907036488535,-0.21472404575649331,0.2201493489380949,-0.21482682112814694,0.23190989765584807,-0.030875327154533505,-0.05547496473380284,-0.1598299787754284,0.09969918160164909,-0.326115614238698,0.11166893575219236,-0.24468232043895802,0.05273154083607155,0.1428953942596654,0.1393658268457414,-0.2896565180291118,0.20461567294383343,0.2318433448511239,0.24837323217779655,-0.42550422516386693,100.0,100.0,100.0,100.0,0.06669596326449886,-0.043730880980899875,0.08172661067159005,-0.33648160502800073,100.0,100.0,100.0,100.0,0.12919531504952794,-0.27574166340175377,0.1835066151682351,-0.12401221580645454,100.0,100.0,100.0,100.0,0.2368850764300276,0.10248131275569526,0.1588010007594225,-0.1227243217260788,0.11310710101617956,-0.1793802919284339,0.1650598853963737,-0.14638826711883168,0.15172084946020092,-0.31036245712577104,0.1302482602867204,0.10061893093472477,0.10177013976024418,0.28290348483179845,0.1539892049133194,-0.05299181887291942,100.0,100.0,100.0,100.0,100.0,100.0,100.0,100.0,0.06311040542697602,-0.20714847920832682,-0.011779214052905853,0.14932802897501135,0.07216311139344544,0.4143318517718732,0.43730530631563386,-0.14444924843581364,0.07990244307987723,0.11764841222427258,0.1918219434359695,-0.09940173176392887,100.0,100.0,100.0,100.0,100.0,100.0,100.0,100.0,0.1517819187498048,-0.21010939550006782,0.2130632085384757,-0.053312045175449144,0.26401993250278116,0.03639631273884837,-0.15057162628768503,0.05030760657571928,100.0,100.0,100.0,100.0,100.0,100.0,100.0,100.0,0.3241456482687071,0.029497487826696672,0.01921020469400779,-0.15570961746784634,0.17736405813282663,-0.20090176043773555,-0.1247372369629196,-0.1247372369629196,0.15503027137099548,0.10285158104366514,0.1361041840223547,-0.13475880832943032
100.0,100.0,100.0,100.0,100.0,100.0,100.0,100.0,0.11394616557440115,-0.16129062802435265,0.052565019507637624,0.0659120266426049,0.04988102142399355,0.1701689945734517,0.17383321023381973,-0.08053999184543964,0.01475496589874283,-0.3224586883206212,0.281429051983768,-0.19937956379230728,100.0,100.0,100.0,100.0,0.2123539760508062,-0.2232864518995391,-0.042057616165217936,-0.042057616165217936,0.33163973383888334,0.10334955844503868,-0.14707410314143424,-0.01626154576142988,100.0,100.0,100.0,100.0,0.12007283165096463,0.02779109150024597,0.06622727059056735,-0.0683734647362386,100.0,100.0,100.0,100.0,0.23974734380367851,0.26295318735488654,0.3038551208812892,-0.4250906815445176,100.0,100.0,100.0,100.0,100.0,100.0,100.0,100.0,100.0,100.0,100.0,100.0,0.11082883373737755,-0.03655604781001459,0.05712329014678545,0.05531655568133621,0.00726580686118182,0.09561592172336923,0.15044841818788454,0.00726580686118182,100.0,100.0,100.0,100.0,100.0,100.0,100.0,100.0,0.1789886435338257,0.12047138263865159,0.13667484457960932,-0.2865172976272794,0.08626505999865482,-0.10263470201240656,0.20112906101900685,-0.3140956492077473,0.038893372160960726,-0.29373887184870057,0.18578892055010635,0.1486213592393485,0.17816798971965103,-0.2288558730080951,0.19540852195441608,-0.06831051014850054,-0.0014764464731925053,-0.15457868707199182,0.22319724926941953,-0.2387641856502245,0.0724219964622208,-0.13035020910737347,0.14716509337737674,-0.14957907845959587,0.11206312422840106,0.10293291549546654,0.2515601683709093,-0.337778368282891,0.06441544070580034,-0.199862330630965,0.10570873755480525,-0.16826977898387868,0.08074890161076503,-0.1096716086105369,0.1833152147165007,-0.39524063705650514,0.09311408374788237,0.19998805216605328,0.19361512553528887,-0.07192361953497581,0.1468581196940051,0.04482554868462107,0.13276133300463666,-0.4187065512567851,0.06610995188142693,0.16130304808127421,0.12645689065228768,-0.301369814048228,0.1570605288739437,0.17951312176108908,0.16270831761139576,-0.5110024409811739,0.09858923076668974,-0.0872042374670523,0.12277450448036953,-0.37728921569235446,0.08894207702414796,0.0884904009821895,0.1674448836722508,-0.002469805943758535,0.06091194355309691,-0.2359744337630153,0.14622167214556786,-0.42716221384155323,0.11793985447496227,-0.01660247455980756,0.13948271501895884,-0.4244871125187616,0.09999225412698146,0.23855533811471857,0.11541007730478323,-0.17369369704305979,0.10248735719867073,-0.03157668205168805,0.12751210043172584,-0.42504812265831526,0.06655318344712682,-0.20033396009902557,0.20233946641450432,-0.2544533809712671,0.0905185773608563,-0.033628490701997416,0.07540152837157445,-0.3751301888083805
0.12667572893716,-0.22854108048312077,0.07987501352173967,0.08073732054011137,0.16642694550744075,0.25155876317167775,0.2599098248352521,0.00709161346704287,0.10332720451727662,0.12687991803666349,0.24319053458725992,-0.08294822920445905,0.06918657271740483,-0.12144351340790133,0.18717235852008346,0.05362822826821982,0.08322829218919461,-0.16822033907403108,0.1873079880116323,-0.10473780079129887,0.06052247248034358,-0.17137107857912043,0.13980645234389297,-0.15722095907247172,0.06721679808146519,-0.15452703123661596,0.2006340382628165,-0.1495889047827118,-0.004054604759352355,0.2044706472491176,-0.10047896235844084,-0.1772758424059041,0.15788342598419877,0.010726512653424843,0.18671231904443183,-0.4806713509707672,0.07611452922487574,-0.03233440927281998,0.09466408995840689,-0.2609018527261359,0.07321054810762011,-0.029228810734529154,0.13672908452516946,-0.2541426606642246,0.10635011120061494,-0.12542218226822213,0.19868604932756015,-0.4108556367341354,0.1031753630638643,0.04427980117851489,0.10458104242530816,-0.029362617473993713,0.05443494310363633,-0.15059187382586328,0.19642189777809865,-0.09527418918515237,0.09562125084567547,-0.15489377760924544,0.10430408424695099,-0.22045288186969442,0.08295715474773835,-0.13317363098129786,0.10435464133065962,-0.09915619835143549,0.1361535582860564,-0.09294215792623917,0.17365325821182526,-0.4698059826738141,0.10145658599370663,-0.4018393241149259,0.17496030625769726,0.1387937878657411,0.12150441694937916,0.08118875698131427,0.1690340441878415,-0.4800728720149494,0.048132974686104515,-0.06681202162492406,0.15709920043115236,-0.008388315273972463,0.13641065985872058,-0.0309541208353575,0.19766665446749312,-0.2494740418750793,-0.0029154429975549066,0.03931902344517547,0.05476215278538976,0.08617669287795135,0.07520313589218355,0.18996416607640698,0.15032139051388094,-0.08348226108654279,0.01739064212953207,0.07150089175996682,0.07514633509407925,-0.24599191630354728,0.09464686606450777,-0.14944824413963076,0.22397545227691504,-0.23465800714585974,-0.008966720339685885,0.33740784701804494,0.2912636082290345,0.024464523151065024,0.18461355331147955,-0.26390480507114555,0.23179664953706877,-0.08983765280430095,0.2755824866452451,-0.2394549404963314,-0.026598700502801567,-0.34861047851634014,0.06797756057720064,-0.2668996329886315,0.1120748532276358,-0.4638775481014042,0.08083681856441145,-0.12845768420904036,0.24354866080107654,-0.2389641034345827,0.08483671942272167,-0.3145805879166981,0.04059821293735124,0.1799692569233584,0.13349254467821028,-0.22395587226278088,0.11331201743332314,-0.1949609401168726,0.07110554794314869,-0.35859181790848754,0.08897614193013809,-0.20574365785556226,0.06628429798512883,-0.3712942440999334,0.07184825021963731,-0.3709195438460809,0.10185051863512053,0.014342871530220208,-0.03740574729939394,0.042262688562417536,0.11904626061267291,-0.18932975591221468,0.13719255905042083,0.21593538370416976,0.14433193434723834,-0.18257492862957375,0.12063019047942697,-0.13391572915599745,0.024048199283888374,-0.3686320245968846,0.3457918693018033,0.17786253050287026,0.19300604288206452,0.047644655457647594,0.06990076176529873,0.06804184309180042,0.21577974150285467,0.3842306278518734,0.23726282655057224,0.04587756482074439
0.1339330803687897,-0.11724745003911946,0.08820324663547094,-0.14909000893366134,0.09813540966776906,-0.3626314993317075,0.15250613204141186,-0.20647661700904024,0.1649152444807902,-0.1310205853697891,0.11069146791329484,-0.293369241998526,0.04498279406510684,0.06021725114362864,0.13406269370807342,0.06021725114362864,0.10539642686068537,-0.027015579168789793,0.16445160462671943,-0.2787181060223698,-0.005199229269171962,-0.39730727973649,0.3432237339597648,-0.2679985675909411,0.11074922495237202,0.024630048542028805,0.07778001266826012,0.09291557868049033,0.06831867646938224,-0.35177614426308496,0.08956229122890907,-0.18640508676502046,0.062450143605923554,0.28195704590871384,0.1698261957095435,-0.1314932947635938,0.028405119115237354,-0.2787680786685969,0.14228481340936217,0.20192482319538207,0.08916957852956345,-0.13231747619695197,0.11503980478631445,0.20413386479644902,0.07948260181508097,0.20020888069877293,0.09953975886671297,0.07685700713304938,0.06350129889206538,0.1497433059077872,0.07736274219716023,0.010221936102335016,0.107674119281357,-0.20902236099349764,0.17802611742463417,-0.4729405205731972,-0.007220245698663114,-0.3538020949632483,0.011025164255389477,0.20473631826141422,0.06205671670917434,-0.014958376957139214,0.11929729705600212,-0.3922842894358666,0.07354927981103995,-0.2721782153545379,0.10396901086202026,-0.30824464417795433,0.11427227398327819,-0.39520325573734155,0.09635852678871504,0.123993993245091,0.08522678468324336,-0.1438292556247252,0.1067966568804315,-0.3515179767871639,0.0683953613399821,-0.0051839711687797635,0.07718331860345998,-0.2622568235002434,0.07469914302363415,-0.32107922722726684,0.1226602745898446,-0.23115903976754362,0.18006772087158943,0.04038981599289616,-0.04516953599789672,0.13744146623607928,0.15748331936115906,0.06216513369532474,0.13317141272824237,0.1381829633991054,0.030977973655950147,0.19468435196043127,-0.13949129969666083,0.19468435196043127,0.060492880285925074,-0.288001228154556,0.1009015926195464,-0.3503520041302368,0.09029353003702556,-0.21316679790668477,0.2775005633789184,-0.21268550126326186,0.12244315100140163,-0.1237195735780481,0.09278646278117755,0.15234845807445546,0.12940323215986158,0.12536925011897254,0.15293966417235744,-0.3546380738914456,0.012312553601951891,-0.3780343226347628,0.02547640310256652,-0.1909678923477361,0.14467461221893008,0.21595060321232423,0.06137050215793169,-0.022923919839486044,0.10596925766242743,-0.18501089281159477,0.1618414216529207,-0.29189685445118785,0.07514697935608705,-0.0013704329814291875,0.054638726550044786,-0.21612805253684036,0.1596276151846092,0.19089308477573202,-0.048388624715483455,0.09192158878681009,0.17021382996286627,-0.08735183224459184,0.2928479106304993,-0.08552914047825569,0.1378485566017538,0.15606165119741175,0.13529024710499332,-0.06645464394841755,0.07543892858169159,0.2535842732281435,0.017873565937190458,-0.06035947762005109,0.07700974882831291,-0.17393945850088866,0.11141002239894339,-0.3150727415431437,0.15500524311430766,-0.3851137985895125,0.04184968787125566,-0.25030133688832257,0.09197001099557305,0.18644393449795155,0.11301540518462509,-0.23397729046535473,0.09956792078046281,-0.1721838656276048,0.2670761892085163,-0.11082003158070747
0.025217987873788726,0.01897761452566106,0.35833568402868626,-0.1470817398535989,0.03320429620938073,-0.3799598547613302,0.07309938449872527,-0.22547573303559562,0.18003994020168204,-0.03314988331030784,0.1859252078342541,-0.27173041805566495,0.007296667303395038,-0.015953666782682112,-0.14106549961054798,0.15996836655941357,0.1361569192034543,0.19752091816581152,0.02939132793077716,-0.069793196059143,0.006893506225144501,-0.30157022997379285,0.07556141485560722,-0.2106006935096872,0.14368243679920673,-0.06063119077044808,0.05043993923033419,-0.3844889833547084,0.16066992360554347,0.14907658070015647,0.15707753915938372,-0.142335244566282,0.06272561300226379,-0.23724594725066322,0.0859260458369116,-0.021036352888057216,0.15895389567447496,-0.14853859639077432,0.11768824621500444,-0.18894860104325467,0.15587307171119028,-0.0835871136154144,0.11713292868358323,-0.3548838947087601,-0.00012522334525297274,0.30089528178519315,-0.15292717688998145,-0.03379003720975385,0.04276967930404447,-0.37917478896163537,0.16816950354469745,-0.4050757316591244,0.07728868989150887,-0.26756582278401464,0.12084565689387568,-0.30452584665132143,0.13636659634243672,-0.18838086234737728,0.08536192482529513,-0.17751233301962197,0.1391001661609479,-0.35810759062408837,0.23856763039046985,-0.327361895987042,-0.0038116191062757855,-0.3829573464520816,0.3393662927484432,-0.19652193146517938,0.04934637060653427,-0.3248753357445201,-0.04533388111601672,-0.21124639660204986,0.09337644496444335,0.17366515208098066,0.06035129737091225,-0.21792116201847797,0.14211520483626694,0.12828675554397762,0.44996179883000037,0.09362253757184087,0.09027345712175573,-0.4315243944780113,0.2152252469594998,0.04702885084637874,-0.0038630991357914875,-0.263401695196516,-0.0234856211412052,-0.25801840053461855,0.23849267488363535,-0.30365064566824085,0.13652726314576163,0.22931104598484373,0.2041751163535711,-0.052199362409641833,0.2588769324316651,-0.04390016216634443,0.08950846744511615,0.11009601523887129,0.1122653374139229,-0.1555335899574904,0.1546585281158459,-0.11036373155718511,-0.044285734827586805,0.1200790192587581,0.08553714861318362,-0.02341922675360076,0.16530170957202678,-0.19603572945192946,0.12123506380358848,0.11726847170353397,0.22248965245829755,0.0872069815282989,0.07068597748089928,-0.3106967856231222,0.1310785208892795,-0.3938088684841741,0.16189041766557502,-0.3104785607659332,0.11610011034879583,-0.09677750312022965,0.17030914534149624,-0.36200936346940066,0.20552838368678658,-0.22311369511283705,100.0,100.0,100.0,100.0,0.09968913703459481,0.12645824762674646,0.21153866269530813,0.11688562329208052,0.09457099614513431,0.1449639849193346,0.10399197811713337,0.14250487490821329,0.11551869016562033,0.03594249516238254,0.1017986889309047,-0.201931457665453,0.13871321119004526,-0.06324904716304487,0.14868780193595782,0.030464872106751507,0.09051666450253412,-0.09966330044864549,0.1077676570054324,-0.18606209082316716,0.055368254773192606,-0.3366514004799082,0.07296048402589789,-0.18687666633589176,0.09199020723055971,0.023261583483839013,0.07998880254104404,-0.04664874185366185,0.10130696226130498,0.023821073320720906,0.08067632019175242,-0.04307774863869141
0.09934499365968319,-0.3582047407421155,0.059356130049551564,-0.22672534179321682,0.07568270602164175,0.09898674612698125,0.15832117666855675,0.009169758858532794,0.12789726668257378,0.033366842451466094,0.15886008161559986,-0.24843543943890706,0.10465914427629995,-0.2916317575636363,0.1157072722879669,-0.29298623127432927,0.09883525597027926,0.0541685805087147,0.10964126153812905,-0.08677390469047844,0.08869232208607812,-0.35790983295096246,-0.06990656833941446,0.03650844273805802,0.10249841268058016,0.04814040163262094,0.08078282721762534,-0.03746423099807398,0.07256732360674975,0.17911544107249083,-0.12353681531527118,0.10062241516692186,0.00888204014155473,-0.31995245429704805,0.2820302366715106,-0.18157976310202958,0.02079825079330792,-0.22303762681274097,0.06614887169899727,-0.32008021858201813,0.02441622972387551,0.14915178932661416,0.03381386269136666,0.17557258594412398,0.10234047525601486,-0.2826775884186473,0.2094872959060387,-0.26471695435829984,0.10978108738066603,-0.1541389259973372,0.16958327949237176,-0.23428966911911062,0.09953149194559237,-0.04142757110822223,0.09586490826859242,-0.23366390190316913,0.24922660588213835,-0.3570233612477099,-0.08999794264575811,0.19527364751646653,0.07727514086222703,-0.03499509333329422,0.29928119228684225,0.05160207808320182,0.11861814882949129,0.07935755599854498,0.06814587513395688,-0.2512308262065022,0.2150922925160522,-0.3767313292965733,0.19600097527935534,-0.25251051086374005,0.010912007031273908,-0.41042873947923736,0.12201421725674225,-0.2986505192204886,0.044555847997236026,-0.3448838341744393,0.08157622296655126,-0.08321601012342109,0.05423116865610124,0.09334000546460378,0.10329566481716089,-0.2284220451344134,0.13052238601287033,-0.2626864668523019,-0.007907773622470277,-0.18967193051985357,0.08080215280938792,-0.2494715730127266,0.19413271563519932,-0.13114902521273955,0.14960125138597363,-0.043890613284605876,0.23798511698384528,-0.46256853151934146,0.0971874221077078,-0.3733927962673169,0.153722630411052,-0.4973209244424696,0.06725700337069343,-0.15513428369371687,0.06725700337069343,-0.06625468433093744,0.10610505274067053,0.11131320224062918,0.2325057191033174,0.18328380684751144,0.12850050479526537,-0.39436315869127275,0.1769399109149372,0.16959777231547402,0.05204406322117093,-0.22025164802992864,0.15489950959495474,-0.11318950213897083,0.07795548954800319,-0.09537541452532897,0.19151323253275887,-0.03939478165711845,0.08206876711691685,-0.21084664584979912,0.20667709919888622,0.140180986374209,0.08071427937747233,0.13156956563175223,0.013175082392097956,0.17612808026358612,0.06210512810380507,0.05684487592478021,-0.02613570752234552,0.09868768943171449,0.2634151754457087,-0.008093635065461915,-0.0179025287633753,-0.08919311850361467,0.06870063306898871,-0.36389647240094003,0.12238133044132615,-0.27202322656060224,0.04699952786454495,0.11576689852143798,-0.12314096602547163,0.11790069161547094,0.14602248555643024,0.20536807119623962,-0.14776750133450972,0.15341730490813849,0.07454967649620631,0.10538098579761845,0.1273006569254183,0.01119501398520413,0.022133081189600827,0.10911246711995776,0.09489761612024196,0.13842953204010566,0.062048659089458745,-0.2685636803261552,0.13643879889455396,-0.15945758423388948
0.26986931881044285,-0.1003467394313934,0.1443842811643908,-0.02551637843481093,0.042734264933138734,-0.25778538658992445,0.21626062697493767,-0.21717456758185527,0.049509142044422326,-0.0029112768868030763,0.20928141262034927,0.07355460159452637,0.12016245716433348,-0.39643995908480484,0.13599919843157668,0.25825705169290636,0.14957480099900142,-0.33692068790784846,0.17938725255232463,-0.20146746837083562,0.038914771629024604,-0.2970500534027534,0.17409055215250469,-0.17654563016812902,0.039943986622817916,-0.3715827661987568,0.14837837420632025,-0.1620796982090983,0.05382064086946105,-0.34192360441947806,0.07797544432774323,-0.311711403381305,0.07412493790483714,-0.2798158546077839,0.10631983858413216,-0.05701578826689868,0.09176797433702386,0.1604332099480368,-0.09799055082494919,0.18096031736721258,-0.018289658937222363,-0.40866441767170125,0.03137807338115969,-0.18914535835193433,0.0899995334881809,0.001051596763551016,0.030871700495421345,0.0600481584321891,0.22125486765308677,-0.02256313872225384,0.19647977282805554,-0.04181867190700489,0.016865518851877852,-0.41142297663236344,0.024262843091761688,-0.20623317136539376,0.1917120025789914,-0.4290296082882048,0.09215237074814109,-0.1301980706443872,0.07273967433638345,-0.2829892555218249,0.16949548709663576,0.11950322292942217,0.21383497503345117,0.03478780560989289,0.0009333532748974603,-0.20614263808820965,0.06584448070663496,-0.33607137940401594,0.18351907929891798,-0.26582274764165115,0.002321474189478305,-0.1950990983224239,0.19029158787314615,0.14790889363117332,0.03713590752855938,-0.1105057090467115,0.08775852806521456,-0.18452957811409695,0.08431669462585906,-0.3242549227090535,0.35392282736902764,-0.24133725264622052,0.05808978909386217,-0.28232900042647613,0.13869835126498353,-0.3280907073786104,100.0,100.0,100.0,100.0,0.05659197494879879,-0.10186007371820509,0.09492347389413026,-0.06195283255087759,0.1880033953542892,-0.013426607063138203,0.20304335678480007,0.21311125553554836,-0.039489750396014024,-0.3953366684936698,0.10534282743857899,-0.2369972787492533,0.04882330902770808,-0.31296660164036044,0.17712829537848923,-0.2126111185051526,0.07555747396739511,0.027469760870672374,0.024964580129194572,0.19959114693589694,0.16604775775780636,-0.19532167012050208,0.07266049844625491,0.2252485859971348,0.04482694201196926,0.07601591580084581,0.07978136447224514,0.17002985205216248,0.01064027874832572,0.16805897545487392,-0.05050948380488407,0.278998713516592,-0.04140555319478105,-0.28254842884643017,-0.017500377266690972,-0.2875061617386541,0.08265477447001676,0.07381112052802062,0.15360089532467924,0.016368152369013966,0.07610411082503878,0.11868674985353966,0.03677282452665837,0.14464185939067986,0.042245541179958226,-0.3865404539713374,0.07816576606496228,-0.1795239628427977,0.0656343295597162,-0.29099176091103834,0.0999013932746941,-0.05384606507581612,0.0549695891136925,0.11658581963983494,-0.0932755059559297,0.13524647939774526,0.04906973979335781,-0.32632683814137164,0.14886643122346527,-0.273439462669808,0.01785895918818969,-0.3467712725608188,-0.03043205188904422,0.10722336898242647,0.1337039486224545,-0.18681674791068414,0.18155723298512522,-0.313012743293385
0.10189050633806539,0.14483277190419397,0.09770188589556238,0.010461574620994776,0.04617240727003545,0.10087246637081972,0.04120210621996602,0.28765397538963833,0.07791809672921907,-0.362303214653875,-0.04746161825069204,0.1717128934854843,0.0704618391244206,0.10396497737605492,0.026793122430477944,0.1309461719960952,0.15972184810857565,0.010751743560322418,0.10788750422607765,-0.2142467335267946,0.011248348281992698,0.02297878800190451,0.18887992864281652,0.17094014058605983,0.02314838198806228,-0.2548532061382959,0.16251496778157584,0.15873331974541782,-0.013685380537968483,-0.3240676735060499,0.02482257041271653,-0.23224206492984373,100.0,100.0,100.0,100.0,0.12350106400681901,0.04897653394436796,0.09947627333774275,-0.016411978467381703,0.020242036497307353,-0.19839067825655496,0.16998500072620815,-0.1941268231515889,0.11178413872610901,-0.13218623596868212,0.21870890923633995,-0.21108314193292244,0.1811143165390817,-0.4121532236943692,0.11173647211036485,-0.2228503408904093,0.0948377117613678,-0.31516135952249735,0.3087001795090931,-0.3277309436062196,0.06804308701739362,-0.37807771719387745,0.03596875682574062,-0.3140532317833409,0.2101456560934532,-0.32314929366290185,0.20564613841953167,-0.26840354377437237,0.07851449910215794,-0.24838213199647657,0.13542232129175863,-0.11510378320880774,0.2531806987795403,-0.38201977746420634,0.15103927678949391,-0.20169762637092983,0.02780166872613163,-0.39526500891525246,0.3091343883173207,-0.22602321361967015,0.059358098427865116,-0.16701454009225158,0.22337423263248435,-0.11115686695709806,0.2640422972852605,0.13214815813478703,0.13214815813478703,0.3190079801003763,0.1938391695369889,0.12713393003166062,0.039333735335282366,0.12147038470572788,0.04682824340301386,-0.07055293713593054,0.10352461655448025,0.2590056945336591,0.07468135298708088,-0.004205628294786275,0.1397115598858555,0.2919206683367256,0.08853852918042504,0.12081095111893411,0.0939970707939745,0.23349578701331244,0.09056489316286628,-0.22980326855714744,0.1155949963352568,-0.1309276572968698,0.053271955193241655,-0.3689844219915161,0.1300718422713118,-0.21979262618309986,0.21845054855687965,-0.03766929661204628,-0.03766929661204628,-0.03766929661204628,0.09746867190452993,0.42220579838558236,0.4547703390307992,0.2919083205248155,0.11175416620269601,-0.3474023986453467,0.16913531670727583,0.1639375417288677,0.06019186376899659,-0.34862327835588325,0.036605497516824445,-0.17007186696296533,0.15705446569133982,-0.38354501344492786,0.19607628546362185,-0.38911957853332124,0.2003017164504069,-0.13616773101350851,0.059357795061554156,-0.31635686692052395,-0.00290850895448295,-0.10675851430177485,0.08806657225842564,-0.11526884709396078,0.14916332679961902,-0.013905587461629617,0.08723953246806447,0.2266182065432878,0.06415700871144217,-0.30315727772137957,0.15671949700536225,-0.1259138475052647,0.03198306556314638,-0.29339316091783424,0.15725330512200103,0.2985896235197646,0.06428083490471348,-0.18735746571830508,0.1337293439238133,-0.3997520584636387,0.009536853208318298,-0.2194828070591014,0.10289999570801596,0.1598062738150936,100.0,100.0,100.0,100.0
0.18263997814803082,-0.37377034825322664,-0.1566255294897541,-0.3593919707537475,100.0,100.0,100.0,100.0,0.07558211363381029,-0.23256885434003427,0.07540751347702651,-0.21798787174803996,0.11253197284885828,-0.3382720584488445,0.13718679421858257,-0.4121810602980733,0.10407931271911765,-0.040930226807945405,0.11024038815318246,-0.2830792654517257,0.17888655758819172,-0.14545869626828273,0.038863997339429024,0.08668582917264615,0.11714070486903846,0.38948289817206627,-0.011406534909238847,0.17414013352036126,100.0,100.0,100.0,100.0,0.08248862960194525,-0.12220607998606045,-0.00022441962887315842,0.2670202779431562,0.19962380969060037,-0.060915313225125896,0.09595069770913392,-0.06917233232343188,100.0,100.0,100.0,100.0,0.1301442472581285,-0.01173534091591126,-0.05907963429765444,0.17154467431771525,100.0,100.0,100.0,100.0,0.1033867886058744,0.24187139684136574,0.13915590395732041,-0.1454464291600397,0.27920985249960933,-0.3173387061639062,-0.16831949345126057,0.2492556524303742,0.06605641072512491,-0.027727585901829048,0.12567775054745323,-0.18540102825814203,0.0680527565448538,-0.36241864279119684,0.12846496104957755,-0.33841862751328766,-0.021849776735951308,-0.1328585639464127,0.2897331186570653,-0.3221617563454745,0.15955480766313507,0.19594876316255455,0.08424729112454639,-0.011056710923198002,0.1074524443841437,-0.3763759200798453,0.15911616154655459,-0.47425954081864713,0.008340747046180617,-0.29684562370942114,0.15305064711663652,0.19610116063188324,-0.002007320575067714,-0.1689680893506119,0.15996515681307671,0.026843929857664466,100.0,100.0,100.0,100.0,0.07169804868423395,-0.2738109504090669,0.07165019499842545,-0.31395786739927634,0.053212649000292794,-0.10584101904225687,0.04695322447579095,-0.18378438314685655,0.06980318309558844,-0.2204602464179568,0.05625784757248903,0.1070753017128716,0.03451886553009731,-0.14396174464254552,0.18229434548962428,0.07242408201908962,100.0,100.0,100.0,100.0,-0.007420162862420858,-0.3060980384133689,0.11817736846137622,0.26561180074521434,0.023952780210393675,-0.1855456764062028,0.15300042985183024,0.06888917366262226,0.05328950959069191,0.256629748534889,0.038199854351532544,0.15133856407726587,0.08713213160518858,-0.13640348952678577,0.10087072050980805,-0.34451076674335956,0.07025703016816384,0.0657923026465886,0.13602955101058856,0.17435021901575137,0.06578687157612406,-0.3019961204521326,0.10825895991399462,0.1324493628407485,0.1689339611839048,-0.3163825454895426,0.07316665784064515,0.21014816750814952,0.06014071832472853,-0.33746709887454973,0.12010762312863288,-0.3508921913186281,0.07634899458993102,-0.19288498973983853,0.013799970895057426,0.19949005152086416,100.0,100.0,100.0,100.0,0.1055369573215903,-0.3859940936455071,0.1370577622192938,-0.40718486582531127,0.05910324472285078,-0.1452808651218719,0.09173274265936636,-0.30853882899845003
