ChristianCella/workcell_optimization/results/data/screwing/cma_es_ikflow/complete_beta_trend_wide.csv
piece1_joint1,piece1_joint2,piece1_joint3,piece1_joint4,piece2_joint1,piece2_joint2,piece2_joint3,piece2_joint4,piece3_joint1,piece3_joint2,piece3_joint3,piece3_joint4,piece4_joint1,piece4_joint2,piece4_joint3,piece4_joint4,piece5_joint1,piece5_joint2,piece5_joint3,piece5_joint4,piece6_joint1,piece6_joint2,piece6_joint3,piece6_joint4,piece7_joint1,piece7_joint2,piece7_joint3,piece7_joint4,piece8_joint1,piece8_joint2,piece8_joint3,piece8_joint4,piece9_joint1,piece9_joint2,piece9_joint3,piece9_joint4,piece10_joint1,piece10_joint2,piece10_joint3,piece10_joint4,piece11_joint1,piece11_joint2,piece11_joint3,piece11_joint4,piece12_joint1,piece12_joint2,piece12_joint3,piece12_joint4,piece13_joint1,piece13_joint2,piece13_joint3,piece13_joint4,piece14_joint1,piece14_joint2,piece14_joint3,piece14_joint4,piece15_joint1,piece15_joint2,piece15_joint3,piece15_joint4,piece16_joint1,piece16_joint2,piece16_joint3,piece16_joint4,piece17_joint1,piece17_joint2,piece17_joint3,piece17_joint4,piece18_joint1,piece18_joint2,piece18_joint3,piece18_joint4,piece19_joint1,piece19_joint2,piece19_joint3,piece19_joint4,piece20_joint1,piece20_joint2,piece20_joint3,piece20_joint4,piece21_joint1,piece21_joint2,piece21_joint3,piece21_joint4,piece22_joint1,piece22_joint2,piece22_joint3,piece22_joint4,piece23_joint1,piece23_joint2,piece23_joint3,piece23_joint4,piece24_joint1,piece24_joint2,piece24_joint3,piece24_joint4,piece25_joint1,piece25_joint2,piece25_joint3,piece25_joint4,piece26_joint1,piece26_joint2,piece26_joint3,piece26_joint4,piece27_joint1,piece27_joint2,piece27_joint3,piece27_joint4,piece28_joint1,piece28_joint2,piece28_joint3,piece28_joint4,piece29_joint1,piece29_joint2,piece29_joint3,piece29_joint4,piece30_joint1,piece30_joint2,piece30_joint3,piece30_joint4,piece31_joint1,piece31_joint2,piece31_joint3,piece31_joint4,piece32_joint1,piece32_joint2,piece32_joint3,piece32_joint4,piece33_joint1,piece33_joint2,piece33_joint3,piece33_joint4,piece34_joint1,piece34_joint2,piece34_joint3,piece34_joint4,piece35_joint1,piece35_joint2,piece35_joint3,piece35_joint4,piece36_joint1,piece36_joint2,piece36_joint3,piece36_joint4,piece37_joint1,piece37_joint2,piece37_joint3,piece37_joint4,piece38_joint1,piece38_joint2,piece38_joint3,piece38_joint4,piece39_joint1,piece39_joint2,piece39_joint3,piece39_joint4,piece40_joint1,piece40_joint2,piece40_joint3,piece40_joint4
0.17205250342384726,-0.05474313224196713,0.040496428014197276,0.10525140282252897,0.17335581538703276,-0.21172314116122562,0.18361772396403742,-0.3262634433820097,-0.0335637127297296,-0.22929621521249943,0.26798581318198916,-0.2058291689838622,0.11003948462267077,-0.03666329449361325,-0.03666329449361325,-0.03666329449361325,0.17993580718663874,0.12973261255518848,0.38961612348555674,-0.10195088522717055,0.02318820047250862,0.2875251160210149,0.2735364245769373,-0.05683955904191359,0.024281594758001908,-0.1952985079788067,0.017538932159858717,0.024281594758001908,-0.03343455343398562,0.21059259103228367,0.23570202498241496,0.2108267525322795,100.0,100.0,100.0,100.0,0.10475309966052929,0.04585818755344276,0.0684810746133671,0.11805855126664666,0.23193808925964418,0.05682254708220357,0.2863644403684418,-0.0913210326543313,0.14771284040507826,-0.22593303397165537,0.49402311746590527,0.12655505511383175,0.06099898934521554,-0.03647363176370445,0.4426723645279167,-0.04719772796395268,0.18034221938670128,-0.16106917255702152,-0.1384823458643722,-0.002426337654797696,-0.1561888512549483,-0.1561888512549483,-0.1561888512549483,-0.1432942340478582,-0.0688560254414927,-0.09804317628190176,-0.0688560254414927,-0.0688560254414927,0.23965401376996415,0.027017517633926996,0.04384152129197031,0.11024091577674024,100.0,100.0,100.0,100.0,0.24141173358585233,-0.019630537694275904,0.18679558396658308,-0.16675330624343052,100.0,100.0,100.0,100.0,0.26341595986726507,-0.3564767703327285,-0.12885991066231298,0.2141794123120036,0.1159232426068583,0.05110019818419138,0.2058553562068158,-0.37391397902522383,0.21190365782233284,0.4046735224244079,0.10570644129651913,0.12100863426006758,0.145257804079459,0.09996744870044982,0.29057677221663397,0.17540987945975564,0.007841315198431457,-0.3653376302222689,-0.0037197050893051087,-0.1515302196135798,0.17214438494013287,-0.31450870803531145,0.24105498663008965,-0.19128516429080322,0.15462048465198042,-0.00930681379295346,-0.016368510570364023,0.06709475606386112,-0.013861647186865667,-0.3472765525623748,0.14756297622229203,-0.23935798988087237,0.24765934476387014,0.05441020419102846,-0.005993517506265575,0.05441020419102846,0.1818727189387269,-0.15750400796214542,-0.2297176502301829,-0.008046132903787223,100.0,100.0,100.0,100.0,0.054426667836885725,0.32469090735556155,0.12836737140007615,0.23938183064338223,0.30660572559330457,0.1156518095040871,0.11035225854202887,-0.03641036173858186,0.07059122962297443,0.09759622744772099,0.06636851601747981,0.17841725009124637,0.1590729191220786,-0.0297598627832137,6.451657820691348e-05,0.2048149740096823,0.007632370986685583,-0.07680812895358324,0.49113060143858495,-0.07685741922381531,100.0,100.0,100.0,100.0,0.10917185059493237,-0.1583869850174074,0.09417012872314345,-0.16389806307896304,-0.01968053965967574,-0.19528457225625573,0.05768424413549486,0.13745244655569294,-0.07822194539660177,-0.07822194539660177,-0.07822194539660177,-0.2188569491473859
100.0,100.0,100.0,100.0,100.0,100.0,100.0,100.0,0.1273773065783772,-0.03584175908365423,0.031524361735402864,-0.19671096279120354,0.03246203322246208,0.3986462034929062,0.03246203322246208,-0.07888410824806397,100.0,100.0,100.0,100.0,100.0,100.0,100.0,100.0,100.0,100.0,100.0,100.0,0.16210720210952223,-0.43746185778277547,-0.04683402257423168,0.16465301260229898,0.229699953396913,0.11582237104952967,0.19680427733339623,-0.08646494331367743,0.1372294028440036,0.090539179193736,0.44256463654110845,-0.058622568232593916,100.0,100.0,100.0,100.0,0.1738682222890684,0.03185031908595553,0.2007617931098667,-0.1959944477926446,-0.04007549873256687,-0.06995034940814002,0.06718895891006695,-0.010943749506297458,0.09205967620675481,0.23100231303746452,-0.0005682209117102814,0.059521883592256616,0.08111845017911781,-0.03187860231661944,-0.01695900557216897,0.14284229887095973,0.16958065754934712,0.49136672155654826,0.14339917789004142,-0.07493351892621716,0.2396027134168452,-0.3443370812335708,0.19550538165739945,0.058676662148161834,0.27042455040318786,-0.04834707134638225,0.3035514480838778,-0.1540544597269562,0.11135211946618084,-0.1612134072078904,0.2239001467966408,-0.13190854839484686,0.10507234972064756,-0.014493722264050452,0.05031390738224265,0.18000876515894051,0.033199947918120545,0.033199947918120545,0.033199947918120545,0.08235956491129176,-0.15646638914013264,0.6413136422513124,-0.15646638914013264,-0.16552267798073092,-0.02577296421086195,-0.02577296421086195,-0.02577296421086195,0.026508147898252683,0.21135911121061657,0.19764918473699655,-0.06601586245879568,0.06733392495040097,0.37367655120016163,0.28231489494512346,0.02266174910639436,-0.043010432635667145,-0.16106834222586525,-0.16106834222586525,-0.16106834222586525,-0.014902974074983484,0.028117446631383068,0.09525624582592128,0.061430288366326156,-0.06334203817429007,-0.018518657830034754,-0.24538413264239078,-0.09186995852238937,0.050908097032494,0.09237373227749103,-0.3776047086197666,0.08217191592400949,-0.003083588401375112,0.21146531464207735,-0.4781770053857495,0.21146531464207735,-0.2974076794674163,0.09336866065474884,-0.18654534554863011,0.040141479274820493,0.13097229106218927,100.0,100.0,100.0,100.0,0.12407697716431172,0.2868504997613504,0.14038720384271428,0.2319653888432659,0.1378330130404372,0.010946916523673945,0.11246289442925136,-0.06779489197711269,0.09684401226923081,0.40468283527798665,0.2848035142257207,-0.05770739823902185,100.0,100.0,100.0,100.0,0.21263209525730903,0.29063619323174794,0.1909310521922111,0.1583166505664394,0.12646172091406072,-0.22713322485119325,0.07002888964092786,-0.185597557507786,-0.010021875017099943,0.4655652389499494,0.38830177230348184,-0.1384593059231976,0.14523443453260934,0.13585517791796697,0.19339796966034095,0.19339796966034095
0.05853574971221295,0.22556927281898864,-0.1800269230865692,0.048127008327174606,0.31051786521265395,-0.024093498747569657,0.31990774953191037,-0.14358496266105655,0.2157463368601512,-0.07411488096481811,0.27541358392530146,-0.3798338018107458,0.06550444322807394,-0.038369735394499754,0.11069489723918785,-0.2594736009009245,0.15043502405387846,-0.1764178419382345,0.08038173571726695,0.0668746209186359,0.2628918503487186,0.2005486407416151,-0.020275440754241973,0.2005486407416151,0.05574196837609182,0.036563087422327986,-0.10720194174296666,0.15278519334395568,0.12371261930254289,-0.09516469662914266,0.16597403289607116,-0.025023383937741707,0.05647176851956622,0.1890874477344573,0.022675065997788707,0.13657704136858848,0.14910997719982574,0.17434617993223805,0.03484612018480111,0.3214393346927023,0.10097943268462022,0.1896368357757369,0.20756808276709926,0.03588978837593539,100.0,100.0,100.0,100.0,0.07377933527785341,0.14492703501276943,0.1474872236642959,-0.186506434655991,0.2762990140217452,0.12525463562927464,0.12525463562927464,0.45131229305040993,0.14695821597088415,0.14695821597088415,0.14695821597088415,-0.22304391592610623,0.1680536151716685,0.15963088707262674,0.11895886088607052,-0.3340811212715331,0.08240290190146696,0.27540155045584824,0.07183019078900628,0.134777276882073,0.12037845713260892,0.36855806274843644,0.49326085734460856,-0.20167408309567392,0.21296737871359728,-0.36017533886250575,0.029356100043263493,0.1479704606308896,0.2823871623966438,0.24962510455503623,0.1278646637927435,-0.10951315727222816,0.12266695278793188,0.07624028998646516,0.0010027162383725863,0.0010027162383725863,0.1674326757272452,0.37266932757841964,0.39597366990241417,-0.029601334680985206,0.1567314925813818,0.23093891738216443,0.1567314925813818,-0.16594415743943114,0.08229730451630596,-0.16708992930502514,0.0779243997389962,-0.0894382322016498,0.0634161684996013,0.4516769357196806,0.5400066849963124,-0.08874376524492295,100.0,100.0,100.0,100.0,100.0,100.0,100.0,100.0,0.050913088167668576,-0.3058619081888899,-0.03101654387996551,0.027622314746565818,0.015945425486662685,0.3306340786910966,0.11877743529637809,-0.04544340214023886,0.2338859210432957,-0.04647967930456188,0.11604887979778179,0.10278365637946707,-0.015466875651503398,-0.29429716319949184,-0.04274354793116872,-0.28881443512569993,0.2888635274818198,0.22605819905532726,0.09562374168337268,0.049063449726267055,0.11541351938972218,-0.14997090241336097,0.20722779420438409,-0.1040458049603761,0.09165765124372947,-0.045676755286716046,0.13735336377836194,-0.31949814151143374,0.051344090000480624,-0.2006781677424344,0.028346527059876742,0.028346527059876742,0.14262135737403447,-0.19306169116625432,0.08481852939263226,-0.35591520277738314,100.0,100.0,100.0,100.0,0.04584910733739923,-0.08551261760682484,0.02037829603207276,0.2412234272612999,0.28847916930129475,-0.007761731261481608,0.0964204594535612,0.14280970191849818,0.11531190640108636,0.3107547591692186,0.39337208705047944,-0.06499112812464812
0.33176372973900226,-0.040972973300268056,0.16993627861581684,-0.05445616319514597,0.09243843201278931,-0.2277655626443092,0.11007748311678713,-0.02548588699662918,0.07372083850855055,0.016135111594252856,0.4803013290576597,0.105179839748433,100.0,100.0,100.0,100.0,0.14926358635760284,0.08856294157844871,-0.007800710469728415,0.23658834649122218,0.002437083074240627,-0.012556069006515066,0.30784949137633566,-0.30984328812540257,-0.04721925577980794,-0.24222530670254894,-0.010390569251673646,0.02748033106118765,0.05899544982907501,0.0762484608501702,0.1070034916256877,-0.07407057353109658,0.08672364847324719,0.45257293935607124,0.5189519505788913,0.2450072897968788,0.11549569054684078,0.1439542303488373,0.028574566015793612,-0.1942569405597392,0.08202884854599789,-0.2528289342667134,0.21566686737498178,-0.23553576425365164,0.17574234607604874,0.1958728902803215,0.1958728902803215,0.1958728902803215,0.10871568626628443,-0.01012643687764068,0.014596827873766205,0.045273196155018805,0.08434654719231602,-0.10402443241590253,0.12027367339229506,-0.032699233275903336,0.18570722564993888,0.41777335720171505,0.06726143592159622,0.09898247363730266,0.02714679203556381,-0.3285651964929987,0.14961847354447794,0.27732533476668847,100.0,100.0,100.0,100.0,0.0670572418247635,0.19873370720413833,0.0670572418247635,0.009059120792147567,0.27311904819286564,-0.2561330271594071,-0.13021124107185206,0.09559816193088655,0.1980280965671972,-0.36953606602463723,0.1295150560616885,-0.21130064537556403,0.1627749376982998,-0.30869017688409617,0.12746956983248,-0.04323585990916432,0.135594330316797,-0.26459610123708477,0.11770811408012796,0.01928148094867085,0.1371866117211994,0.047020045935655695,-0.001826459761144164,-0.18242457392936792,0.0794794971048692,-0.14359688581008181,0.11550061057471502,0.10116371614677172,100.0,100.0,100.0,100.0,0.3884429263579229,-0.29448178979590406,-0.06867848630055821,-0.34562078540516344,0.0965301267052432,0.18533918903723118,0.10118244086751171,0.13377223813767064,0.08229563605958418,-0.1304368291597443,0.031881434034079406,-0.04173404163034906,0.07808808578122617,-0.014858869254936248,0.2920862687555954,0.06901356649235628,0.16394556146601436,0.17881289319559518,0.15914949391277172,0.07552964915525096,0.22234864210791705,0.19678908926743294,-0.008241135888463803,0.028219974451121232,0.27541948841342345,-0.1617922306369316,0.3292033605390875,-0.17549801331576712,0.26780033264651243,0.1600127615196843,-0.003208720144539483,-0.12021600753779843,0.2378207362265155,-0.07854507235150647,0.18794757780263874,-0.3232058813064979,0.17816919209133447,-0.3357146973962313,0.30149383992821804,0.07744697876168447,100.0,100.0,100.0,100.0,0.1098876890973959,-0.1243147892257967,0.07521512550860483,-0.28036915391289774,0.08689507892041025,0.09702363271036775,0.15321153150596706,-0.06897893642851302,0.3446088510006269,0.21435900025100518,0.040237154306266794,-0.1574169294837188,0.037391933030653385,0.026434203482910312,-0.10741360073048556,0.1534789518738778
0.28221337956588183,-0.12476443722156125,-0.00841150084051421,-0.189009975110931,0.14798012333351634,0.18045338250586382,0.21782816660679288,-0.09674643128118056,0.09260368861130308,-0.08945401564575517,0.535010380965767,0.10265137145041048,0.16350472846508576,-0.07431130318173339,0.1186849985612147,0.07142796622544767,0.03522480532236092,0.048405686053407844,-0.023937614735170233,0.3088866621774249,0.25500661752410864,0.08073570926387674,0.08073570926387674,0.08073570926387674,0.043937800861741226,-0.067480674475067,0.3941996853130508,0.19414012633381486,0.10435815356290323,-0.1561203520526909,0.1778566846910798,-0.05244143616523164,0.07520695360978308,-0.02693478810662698,0.07668031576121577,0.22701030309150333,0.11209429079891833,-0.02001385577129596,0.19705225676096794,-0.2571243698317673,100.0,100.0,100.0,100.0,0.2153066170131805,-0.24884666963581814,0.16275908322871457,0.14331950168386481,0.11534061763050846,-0.10733771919136012,0.13132112560264525,-0.13319614468767146,0.16615905663818498,-0.13362282538340992,0.6119216012130034,-0.09574165548814056,0.09966257359370023,-0.2953165515825766,0.19700191339147838,-0.1657443070626643,0.18769624833584658,0.2688509336450839,-0.013518156471978134,-0.38807576467768523,0.21843863012523088,-0.009113847249467788,0.24547525669377585,-0.16105616521777016,0.10448495839201953,0.13307300512413062,0.22496757685671537,0.015789949533471095,0.05507546134465391,-0.10080146368768478,0.06771315998261675,0.13843760404513028,0.10963918127099667,-0.273767308674891,0.1996503046247933,-0.16869773846582045,100.0,100.0,100.0,100.0,0.14702101847471327,-0.07806649398274187,-0.07806649398274187,-0.07806649398274187,0.021575191446318524,-0.15841701922430568,0.40402903192689216,0.03183517071255142,0.1388277897222971,-0.05831151605625637,0.09922732303165863,0.010667141067599289,0.08878503675863379,0.10075872533912766,-0.1138636419522362,0.23227919723420476,0.06503463679959007,-0.34041014805962844,0.06511512770662928,0.006924876798384744,0.18436104926388658,-0.0709501875480621,0.18436104926388658,-0.04822777067054207,0.17011757522553636,-0.011760412313443228,0.0878371600539452,0.20689376235310913,0.10381036599052398,-0.058094780337677426,0.156695617538948,0.15277144464523246,-0.009766587942951807,-0.4657033096108626,0.1640679042532986,0.17534118883777128,0.37732691530186224,-0.3589298234541958,-0.1459396243387555,0.3103288714188141,-0.0019622411853952165,0.4364096501513243,0.3686112123531363,-0.20291678297657018,0.20990037450073806,0.1391547439236821,0.1391547439236821,0.1391547439236821,0.20489216483895362,-0.37185075102578824,0.24822770963723156,-0.443167690310983,0.2818163007130837,0.0751277311868869,0.358166513892512,-0.34242489820436217,0.07016765395543523,-0.003171806619247028,-0.07180256700222667,0.08109884758740671,-0.01763121580048023,0.45876276906036495,-0.1162684391752214,-0.20006882019261962,0.0826807181140529,-0.14681407876424607,0.1352020089620734,-0.26091632698237777,0.13052608961463547,0.16847685211932417,0.2278258277732918,0.18717526183893732,0.06612990704194344,-0.48244429968304775,0.09717350628851358,0.06387920414701051
100.0,100.0,100.0,100.0,-0.029554719726438403,-0.17341452889827927,0.10460449870074799,0.12135677089709185,0.06988898128275657,0.05615187101378591,0.31441181655780137,0.06278695536373324,0.11536792607705723,-0.3066909226368439,0.15004612002965956,-0.018618467037912333,0.19233581582754644,-0.16351702175598742,0.12333812569583827,-0.09998954945204212,0.0691236822537083,0.07446736444390675,0.16410602211290826,0.05469349039584194,100.0,100.0,100.0,100.0,0.17602843959247977,0.09973683360034137,0.005758233831883772,0.035842360936752665,0.09269324767511762,-0.28999942784631005,0.08720786853487518,-0.2351836464218397,0.057263123606467625,-0.1362612212636745,0.5077139372722691,0.056416199675261416,0.38708240583737574,0.11942786050119633,0.6734342023503219,0.11942786050119633,-0.007466133445493173,0.37686775264300626,-0.09320624530515437,-0.06389505335889806,0.2281124549176785,-0.39821046830393453,0.23201402610272653,-0.1664030070948975,100.0,100.0,100.0,100.0,0.09666770843131375,-0.15589963346420277,0.1720839655293857,-0.41684453998875887,0.03348410732923182,0.18005595831308452,0.42782000510871404,-0.1833499628142263,0.10955594196389326,-0.31060254008880106,0.06481052695350906,-0.14603526513066592,0.10738287321680673,-0.22628570101473827,0.2638377196551833,-0.20467509686639432,0.20625914531770187,-0.04530946021692894,-0.031067192000805148,0.2352100236054212,0.17765377547651476,0.1143177967079675,0.13535239078961764,0.07320213666494219,100.0,100.0,100.0,100.0,0.08075084644312785,-0.14253660133761237,0.006726107864269616,0.11682908876211054,0.027672893583691915,-0.2757045936471214,0.011083232059172315,0.10313252792341873,0.14970989450323496,0.012011710578733535,0.0884501224162245,0.13411843268874774,0.11346869580990604,-0.03279747697401475,0.04913623856218623,0.19337001046942537,0.017943464919005083,-0.14135435346695,-0.06180853475528554,-0.021309159314487458,-0.10885500483879175,-0.10885500483879175,-0.10885500483879175,0.061615958780782826,0.3297362706253119,0.3204229763591106,0.19664910910408367,0.25737942311692846,0.18045946232695503,-0.2932979108006087,0.17894747008079298,-0.13744893679873607,0.08919601854286477,0.3811817391222016,0.4673469751328393,-0.08805489177298426,100.0,100.0,100.0,100.0,100.0,100.0,100.0,100.0,0.09858951926685577,-0.12693845082034946,0.09210888349276476,0.10071523168099127,0.22993197690121878,0.10848365783461852,-0.18200172381316204,-0.3385559457416348,0.112304866807452,0.014064975736182619,0.0701904097886681,0.10800444082315216,0.20083612658223832,0.334394373706992,0.20663407497066763,0.13709278976838973,0.12205816103526695,0.20085391401887853,0.12693049733031497,-0.13266951337131647,0.3515825457396538,0.12423470952452409,0.033583216578164786,-0.2753489692941532,100.0,100.0,100.0,100.0,-0.009860726030448009,-0.3895813948467134,0.14453121146869113,-0.22199140849853305
0.10482670874609468,0.05332185750791463,0.1235748668450734,0.12870762054907614,0.1975592174875492,-0.44492950147594384,0.0024419179619618175,-0.28709611840150273,100.0,100.0,100.0,100.0,0.36490541309738983,0.09257379844229546,0.09257379844229546,-0.09990409283129215,-0.189321587949393,-0.189321587949393,-0.189321587949393,-0.29044212486633314,0.08131834745343981,0.0012973327452595919,0.039481996662937474,0.06946864574869663,100.0,100.0,100.0,100.0,0.06503352480828774,0.051042130858966056,0.06503352480828774,0.017358168293407646,0.14872972356161673,-0.2835298606551699,0.3184956772456593,-0.11519730506674122,0.17269527708023413,0.14607763712602714,0.056193780230511185,0.16422281484878148,0.10628832535908003,-0.2193928351885585,0.1698262849859108,0.14981371679643363,0.11013230437803037,-0.5745118205469077,0.2707416807381734,0.2105535176132849,0.11665936953305578,0.26175972705417855,0.1651686607544134,-0.11155697844918552,0.0758441798951938,0.35425279097645157,0.24585582215956117,-0.13397047984030214,0.18564297113756112,-0.261004567411267,0.04911553850523977,0.03792578419095917,0.07498991022999968,0.08353434054205454,0.04902446872692508,0.22298697623665326,-0.01827607345075761,0.20368615399274703,-0.17400381770525214,0.1276326552942451,0.13556270153702502,0.16074152149803006,0.2079588463753242,0.16269825770367857,0.12055024984013765,-0.19024349169329596,0.05120196407232901,0.06392175085421312,0.16557813133758653,-0.2505818776628358,0.19288455340791166,-0.25724143176256387,0.0038525329904829826,-0.00938573166170012,0.04463731661174438,-0.17054019437651344,0.3196089519468408,0.12448030207356861,0.12448030207356861,-0.11635277521804631,0.09854922755158911,0.14696499979495178,0.12816681793251544,-0.06416922354589258,100.0,100.0,100.0,100.0,0.16799912971231545,-0.16862940787654415,0.04832101729896561,0.12106158237381975,0.17996648786841074,-0.07018739053828645,-0.08144879084432129,-0.07018739053828645,0.09199513646977404,-0.042051637222916015,0.23717718074208352,0.2256367826451036,0.03436800845427453,-0.07931020186190454,0.03436800845427453,-0.013283636084067782,0.16016509012870658,0.0272183986297801,0.30740579971128484,0.04260979639946755,0.19175893975865027,-0.16682111554060536,0.14592770344271488,-0.08896251355327742,0.20013910745254174,-0.4199467090918403,0.3037493971893361,-0.24938857575578688,0.07061680469953216,-0.2802216811529135,0.08570526090218555,-0.4056795665699791,0.16472533894880542,0.19242068781180327,0.11082409173631827,0.11082409173631827,0.09345939130010242,-0.1744115175562298,0.030266320381855845,0.04763270325095525,0.06925172584939057,-0.4470907142784483,0.17604493050110867,0.08891190750461907,0.009935994654571532,-0.041157503276773644,-0.15150696708231282,0.130418375652645,0.18724147772764904,0.06628663697344762,0.5164833768524708,0.06628663697344762,0.06882716015552601,0.12090680064532328,0.03567524846437918,0.11934266424382733,0.13626553865778956,0.12607182327529093,0.2260100368979928,-0.07420547273808088,0.16940630730236883,-0.35175752469054516,0.16153681263780378,-0.10499416318878829
0.17253080501917964,-0.3391372795748537,0.07423304179986265,0.1530146088869025,0.32021054195360243,-0.3579621913132575,-0.06363135615266373,0.22782814951552965,0.2678108500591724,-0.2534290021430562,0.06607299931371002,0.08611370301154699,0.13724175004381078,0.20510526659524353,0.13958760214390553,-0.18856587332603908,0.12341806378020699,-0.19184909358972121,-0.031371104882226365,0.028554480297416196,0.353694455356045,0.26945471704574453,0.13101050735353462,-0.07658461452466579,0.25874137115267326,0.10650124900612176,0.10650124900612176,0.12766094087609536,0.16809755189618822,-0.12231252888179266,0.2281339875021578,0.09801810333429994,0.07366005553565656,-0.02979389621670505,-0.0017533197021539415,0.17932696737163276,0.1395048422651346,-0.335763444419692,0.2981930241042594,0.22949645535643376,0.17157807358439156,0.055152549881063884,0.4276698151498921,-0.12798486074006205,0.1099040970347832,-0.02538280957921826,0.18066032299835005,-0.20059443946504693,0.08207799726691188,0.10782449177486289,0.23050908608581988,-0.2817361826318109,0.11198065122907222,-0.38142521850489963,0.1589487580977442,-0.34993422942884295,0.16194355656475817,-0.21178605256152103,0.1854059178851204,-0.31979833515587747,0.10041733019227835,0.10041733019227835,0.10041733019227835,-0.32669364218017444,100.0,100.0,100.0,100.0,100.0,100.0,100.0,100.0,0.11204576859416554,0.14200037369319365,0.09626182191841406,-0.27875490631431243,0.1917867650291796,0.21312931175697652,0.10514963769143634,-0.026379026124779048,0.09782366543747582,0.029218630203206867,0.18238995749435544,0.14904508707581832,0.18535626708214575,0.07647246013605502,0.03303438765119052,0.22803837999425294,-0.07484499605152165,-0.299901617758943,0.13111214739054894,0.06840130007930931,0.17886722775622046,-0.08308764873827316,0.07863439284833604,0.0922005781632062,0.24634257381922303,-0.42283561113240625,-0.1730213458520118,-0.27621933753893635,0.10470648187588959,0.018367303932076442,0.1544894360291118,0.08826241475540055,0.04704951635638856,-0.3093558300407058,0.04928912557606037,-0.2706326719000371,100.0,100.0,100.0,100.0,0.1062396746687041,-0.1516170452254773,0.2969597424195518,-0.06799581434220937,-0.03784671474466671,0.34547778534267937,0.09687052805685706,-0.09488386979225365,0.20124592716420253,-0.22878491715852417,0.4554855236743758,-0.14959890709005758,-0.04797942743655474,0.29753468723663856,0.11624290946757163,-0.1988372666724289,0.04823734586164366,-0.1900079506517879,0.10553869210544758,0.02288696021823637,100.0,100.0,100.0,100.0,0.1498928817721023,-0.1131599255471693,-0.02412339808946737,-0.3011958044033227,0.19625344770099828,-0.27485248757323766,0.08138744453859519,-0.3397900893453638,0.20112467710127,0.3801278006539829,0.12179927462087135,0.10144732188156232,0.20660869715331381,0.20660869715331381,0.20660869715331381,-0.009510179907131405,0.1755913984962747,0.009677762386399419,0.23560429457699125,-0.03231787493770227,0.1471316248645115,0.13565707115955128,0.011286301587426634,0.1803716218928265
0.0577426194666444,0.3755043958167733,0.40754837299470104,-0.056031836031596484,100.0,100.0,100.0,100.0,0.10292116516737185,-0.11539337987636075,0.1621024684026834,-0.24385642353402806,0.1661736651567594,0.19735862447623484,0.05691961642782345,0.13990619816879873,0.44357488369083253,0.457898943990647,-0.07849722537898608,-0.09795336125695983,0.3259394688024627,0.08084343584147409,0.08084343584147409,-0.38723699705831033,100.0,100.0,100.0,100.0,0.2383841512003687,-0.23986166419714747,0.0015609230456923862,0.3606004787013264,0.07738640319582937,-0.009124580517724676,0.1782804407239522,-0.21322477774439616,100.0,100.0,100.0,100.0,0.24720181815465764,-0.2534292820031645,-0.06823931660018288,-0.3667814163562684,100.0,100.0,100.0,100.0,0.03954715001913536,-0.11203558104712197,0.03954715001913536,-0.0880983300876243,100.0,100.0,100.0,100.0,0.10226737563533733,-0.1699160551203993,-0.01129495136292695,0.19346593805124374,0.10412071708800114,-0.021516210203002796,0.15050654967620847,0.09409320829211217,100.0,100.0,100.0,100.0,0.16776701167508704,0.11746132269610338,0.18134311387315893,0.16776701167508704,0.07452480821532287,0.09312569436525589,0.069410375267848,0.08981668483490506,0.001547556036712183,-0.39522733253060705,0.06970349648717847,-0.1225909372014086,0.001553466871145671,0.033574587598161315,0.5328067797505808,-0.21765203282562262,0.2781002961686919,0.1607770588491672,0.2406842052441267,-0.41468430284212887,0.1881018255762608,0.23826820231412202,0.05872785047603665,0.08856867542502207,0.08543966863228629,-0.1693004424502657,0.18029942895725443,-0.12261895126241622,0.13106228341830875,-0.4316864741896401,0.13435311410353257,0.13089845600952768,0.05613960420801124,-0.009998936451022476,0.05005405527992125,0.03243993160890736,0.19282556289038924,0.08889310864918722,0.19282556289038924,-0.01846215729855326,0.16659836610802956,0.2062016125663935,0.057102979791819164,0.08577292669812975,0.09395266952473373,0.11697782280462071,0.013083094504160526,0.028048717278195898,0.287282636365787,0.11216068244092611,0.11216068244092611,0.24580236526464033,0.3213869767549452,-0.07840374451474393,-0.07840374451474393,0.09035841725180561,100.0,100.0,100.0,100.0,100.0,100.0,100.0,100.0,0.13330305043426638,0.0070798748347808,0.06792006350160272,0.1501720161625731,0.26441053801594555,0.0453569973693448,0.24585106882154795,0.0453569973693448,0.1608436793570563,-0.21336855616712241,0.04793513364099077,0.26912266745004687,0.002433198719941493,0.024760967112607425,-0.16455193258856549,0.10453718394623168,0.15056124602982357,-0.040128848992674215,0.031234337142196207,0.09946621549173998,0.010535453360228458,-0.3241697959040324,0.07431444301539841,0.012546498382412851,0.06021989541751333,0.032949878931990764,0.09969296184099458,-0.11328148440474761
100.0,100.0,100.0,100.0,0.03815938249837654,-0.07106692181146262,0.2614243199791025,0.06153193499019076,0.01278851866508941,-0.06179447992636497,0.031864296682369064,0.08995389115963816,0.2746826348625082,-0.3090281244472902,-0.206266958509675,0.15288650420952177,100.0,100.0,100.0,100.0,0.03875439395152062,0.20291882834124142,0.5471056962534493,0.20986618317307737,100.0,100.0,100.0,100.0,0.04100727287598079,-0.13191266686936665,-0.11663140983535789,0.012871245542920406,0.04996220236374035,0.3385175464975315,0.056966347312422005,0.09489950950468315,0.1216526235507264,-0.0038519758688199054,0.3909066572738255,0.2419900428921955,100.0,100.0,100.0,100.0,100.0,100.0,100.0,100.0,0.20286970549175382,0.09382469552206535,0.42999407993556,0.09382469552206535,0.2186155247457233,0.2186155247457233,0.2186155247457233,-0.12275023703802432,0.15146486438855294,-0.4436917082649301,0.17012721886693677,0.12742540653809215,0.00844989581214603,0.0800185132556118,0.06282916724367468,0.05151831331287823,-0.10337449862808787,-0.10337449862808787,-0.10337449862808787,0.2180316127333789,0.2315402092875161,0.02001774160891913,0.02001774160891913,0.0013997962379442286,0.17346728394892305,-0.3688600012721128,0.15331052733192596,-0.07314250179305536,0.047317756379561274,0.013032896307324557,0.08222247724929128,0.08925444267051642,0.20117669788510723,-0.23638726238264357,0.24997461110987274,-0.0005755416155396216,0.1880580685471252,-0.054120672782028985,0.5032904029937685,0.0032711181570602476,0.14667624770559726,0.1068914426288891,0.14667624770559726,0.09611485767892014,0.20271380246892007,-0.08773849568930553,0.252203038686598,-0.18376324106159422,0.1686962049121502,0.19927878559994738,0.0592565629568127,0.035950002580321605,0.08404265092895341,-0.3700311145536659,0.1627246091625853,-0.21275192505697293,-0.13378562485291423,-0.13378562485291423,-0.13378562485291423,-0.531216903010987,100.0,100.0,100.0,100.0,0.13332277432417938,0.11086098555283574,0.14391989504180944,-0.09738067057434505,0.2976964246882935,0.09907426249998724,-0.13747157684792033,0.1410996301806223,0.12230616500519562,0.025009474267723555,-0.1180531120283158,0.11607830601500158,0.1865959627095334,-0.33605061959732885,0.1229167680095164,0.002133053710328507,-0.03843729816158886,0.07731779913226024,-0.10795717105499836,-0.21862037066715684,0.19434591310219645,0.09454622282458702,-0.054722905302802466,-0.17020889435049175,0.18014040927698394,-0.29677451561767915,0.07557028294876665,0.16588816422250433,0.24949854671060126,-0.03260994318877984,0.4722258453550454,0.2639100687934861,100.0,100.0,100.0,100.0,0.007846108955984605,0.1016028502563967,-0.02058027280512445,0.0009293113652993953,100.0,100.0,100.0,100.0,0.01972415965167524,0.01972415965167524,0.01972415965167524,0.15331208496414522
0.11338487963554489,0.14860286030543757,0.11338487963554489,0.23659266403271328,0.08825527005773597,0.131503857533693,0.0691224584830475,0.14542179051362994,100.0,100.0,100.0,100.0,0.1595560830750865,-0.27137023913935227,0.2492306808817392,-0.210639107315227,0.15937049701277423,-0.03419588391796535,0.09011766645243252,0.10893741940664864,0.06641732795812214,0.3955957193352816,0.04449168728277622,0.01217803902372909,-0.1326227516218157,-0.1326227516218157,-0.1326227516218157,-0.052824830946253704,-0.006092217001136621,-0.32062724091838163,-0.13892156944286405,0.1244190673362912,0.03466637319788965,0.04514514989724597,0.2342202485193018,0.07044753365982323,0.2073271322702138,0.09407990326276952,0.107592553917364,0.13105521804216164,100.0,100.0,100.0,100.0,-0.05802174242167784,0.36552692581184787,0.04440102663727783,-0.007455038067384977,100.0,100.0,100.0,100.0,0.09371833472791938,0.10802172192473639,0.20241681927240665,0.32170447405432373,0.11472970430200213,-0.19205995860802821,0.0973465699262227,-0.22727340605399532,0.1719992293859726,-0.2146604826858188,0.14643945229677144,-0.26340928953005144,0.20002774707818632,-0.09019562056321807,0.15044813870934653,0.13731464232275697,0.034300050208408255,0.37802953781443344,0.20960442515730435,0.06852091979189523,0.09964783943043934,0.10087526691315846,-0.05842207445119982,0.03459480619043476,0.03575442409026664,0.12890567988289586,0.0065106088248250565,-0.0029688398136136496,0.17216309420436038,-0.2990018802409432,0.2710379410664381,-0.023025447147401398,100.0,100.0,100.0,100.0,0.13793149732274584,-0.24146760370572345,0.14584938509750325,-0.30870272790074965,100.0,100.0,100.0,100.0,0.08177065125025654,-0.18096476977979084,0.08595460817483873,-0.06465526229909989,0.11545888228327564,-0.059259793623756274,-0.1207113715045535,0.04737760003304238,0.08218734297126234,0.034065899950206195,0.09714324920205906,-0.1602868319208722,0.13601952968574488,-0.12656481883169435,0.24761989426865605,-0.050003228009630196,100.0,100.0,100.0,100.0,0.07700625959420977,-0.21494388535866987,0.2757743090687949,-0.16559288665062954,0.1386858738989662,-0.2556464198034988,0.15455068863555055,-0.3953393701459697,0.23090411571270875,0.2859110414562118,0.07757921135386331,-0.11914197670640375,0.041613645056555876,-0.2995932070924635,0.0966581704953013,-0.11484657085678661,0.1546644621492611,0.2514799013144799,0.15986895227794273,-0.14868454289273866,0.22026876331381856,0.3629812418806553,-0.010315364138184412,-0.02380540904726155,0.15279967298817906,0.11076566893892467,0.030810865722385294,0.01498445606339625,0.18995884104886324,-0.27952625526290165,0.25876429643744175,0.17403352552987467,0.12473187852758735,0.015463556878518154,0.14827766532700787,-0.3833412692381688,0.05491808940323169,-0.13267060655618698,0.03894149859133396,0.030917885837021205,0.08962292530496371,0.13422277167964422,-0.17066315139481902,0.06261218653968416
0.11483317241951468,0.040172418426426035,0.016591482669398985,0.009161780802596269,0.1359771254379685,-0.08833408052583018,0.029940284498708336,0.014293677687258408,0.19555404506139593,0.1710114345225192,0.143111387817959,0.2123081366007648,0.13867339220517233,0.061673428042601855,0.0033562546458560105,-0.4735847051754624,-0.0578454633200729,0.38394144278832804,0.246726176704758,0.26922540607498413,0.20606349323810047,-0.10853584968416397,-0.012341957693884475,-0.10853584968416397,0.1503880073799524,-0.03565235558028705,0.08762109773920077,0.017788682279098682,0.144504881472558,-0.38217156369052385,0.18059495303629755,-0.16195721370658256,0.1147173264751903,-0.017768077944232463,0.035702666682110806,0.2045651530748766,0.0650071536512244,0.008039953420959985,0.12222205313022642,0.22833768587005981,0.03761788539528592,0.012370429581552406,0.17900461276424934,0.13183786943597164,0.07630401272056242,-0.14995900397053025,-0.014252481429822585,0.1358618495834157,100.0,100.0,100.0,100.0,0.007262609204149187,-0.08050004698277291,0.2582953746884349,0.09751530672839645,100.0,100.0,100.0,100.0,0.17996402374408685,-0.12667295910421095,-0.02804488746714542,0.035618824275544386,0.10521282927285205,0.40988203088222974,0.40008319441820556,0.02790674877113608,0.17975870371130415,-0.059194559906946845,0.5410109114978074,-0.058703209661520164,0.10217006476540876,0.3294486610855321,0.4327840847833296,0.09624155078197716,0.12895463381940556,-0.21054639167954856,0.2158864516224007,-0.08160629086344733,0.08931484468242047,0.26190448296344276,0.2663396667618034,0.016426418869399065,0.1676605211834992,0.08335664020357353,0.07730808360876215,-0.03957099217119386,0.0613774406180435,-0.0329523087799105,0.02028634713695833,0.213157505615139,100.0,100.0,100.0,100.0,0.15903717432569536,0.20520784424214483,0.16754742075764245,-0.13655942023758172,100.0,100.0,100.0,100.0,0.24441033253917196,0.3120695564505309,0.26719868754586856,0.05749132272272464,0.04762430424388695,0.4025514658805374,0.04762430424388695,-0.0772096013383834,0.09308832322576241,-0.1277916124223776,0.11821963413201753,-0.01471368464374458,0.12370383389577758,0.2933914306326497,0.45124191104278005,-0.07671018119120684,0.13217647657715384,-0.03450644028446298,0.5929386468875358,0.029961859951374667,0.06258517704832103,-0.11967164289387824,0.06258517704832103,0.045861573307565025,0.21812656609552794,-0.25089691952976706,0.05552012658376151,0.3630924975776572,0.11563912989730162,0.39136213157867966,0.26271808821723763,0.32486046439378974,0.0026076446521490493,-0.25308167413208194,0.10730539601943434,0.12757693951013302,0.05388830187854389,-0.13432520743921314,-0.1368092529841708,0.001062759914778097,0.25419637511794574,0.08098483518903282,0.24493966638502399,-0.16383574397593886,0.05533857555409173,-0.0253423208391462,0.07401001398379453,0.1225996185369208,0.03574412534424462,-0.3718606338256011,0.23532986263456884,-0.3387102716612419,0.09008318571424145,0.5142147971938957,0.29986318216230357,-0.13136192709631273
100.0,100.0,100.0,100.0,0.0932253781885696,-0.12724715653104024,-0.07878213683436211,0.2821188287567685,0.03682318772354036,-0.13474116868077918,-0.02776473292678615,-0.005941661909355481,100.0,100.0,100.0,100.0,0.17028226424679394,0.1737764931598766,0.002963051664988392,0.013062645051311848,100.0,100.0,100.0,100.0,0.09798300656574715,-0.27100319941636136,0.15898404897058077,-0.4118058058803093,0.11049999008342148,0.007996274408211762,0.0756977592457774,0.12377408414060002,0.0257563623660511,-0.30605853310870723,0.08547800198378977,-0.08717706117052205,100.0,100.0,100.0,100.0,0.35971714141367545,-0.02618842457139304,-0.02618842457139304,-0.46094445463278083,0.20963550172369957,-0.19648933155208886,-0.07600862125553412,0.12352573778721837,0.2665690825712969,0.2119547169613199,0.2119547169613199,0.2119547169613199,0.12382113088715985,-0.28773699133757646,0.09025577938251297,0.24451245393565524,0.1911703448403424,0.04991132162758544,0.526983996662697,0.1911703448403424,0.14688407008297644,0.07657614694654241,0.02174232458246897,0.10679132187547609,0.09498105299535464,-0.3849935108085408,0.1279579190623953,-0.23172359569004133,100.0,100.0,100.0,100.0,0.0758277959900555,0.13627719611403866,0.09416203792576656,-0.3777589061672175,0.07277502500652591,0.1780066926033104,0.09495796520257505,-0.20120628079018366,100.0,100.0,100.0,100.0,100.0,100.0,100.0,100.0,0.0458784528662501,-0.15407879809490932,0.13490876411014624,0.04432600728992473,0.17008120151868572,0.17008120151868572,0.17008120151868572,0.06092449650159973,0.08259820791488151,-0.033615930787842196,0.06980897870768525,0.14370598913680438,0.20468851473725708,-0.18998027759061062,-0.04574845172563951,0.14973407367605746,0.1501505382882964,-0.04819676579584167,0.23900380388207693,-0.04173754187938786,100.0,100.0,100.0,100.0,0.1400493760471881,0.15316187840310863,-0.00011262439017225429,-0.2736305709152531,100.0,100.0,100.0,100.0,100.0,100.0,100.0,100.0,100.0,100.0,100.0,100.0,0.11901270595327645,-0.05864142222632901,-0.05453672970248581,0.17197862919218987,0.033412808428037004,-0.21833683699024112,0.008825421205476724,0.04703857030163343,-0.02423435451096676,-0.21283205671473243,-0.02100728416653007,-0.20913063345901922,0.24238044653318502,0.09141808822739174,-0.21439255468833984,-0.3487822479129694,0.2272005920162133,0.1462723289778333,0.19446841550974303,-0.3134969703760375,0.0713782113040782,-0.2385034727420633,-0.07411320862261164,0.008823689952178583,0.09344302025066148,-0.12450867980597795,0.07923983628419756,0.024006439624098486,0.10573668674726061,-0.02282365194596357,0.3666661644697281,0.15376471724611132
0.14368183947255167,0.08432593585511676,0.03722151164173093,-0.07077201128271299,0.10964884062263089,0.04182931801284653,0.08885553986251243,-0.5198756446211273,0.12759101799685346,-0.2979640445936307,0.21245077082272507,-0.20974080898273256,0.2402131347524761,-0.018676878850210403,0.1794638494130055,0.09773839652527268,100.0,100.0,100.0,100.0,0.12248475198302639,-0.06988758255948052,0.034384822010062904,0.18954364621783049,0.0915840101797841,-0.10123791266136468,0.03903791431046298,0.12257738734175244,0.06772790875759777,0.19720743169095845,0.14522926776884865,-0.04661378740269254,0.13587526845042186,0.32743748748024415,0.43281336229007494,0.08575082871120229,0.10074100200277472,-0.14591818442914814,0.1721647227423015,-0.16064569880265606,0.16874550508183822,0.19878588863192234,0.2582131614203441,-0.30552124616871634,-0.00042678812757586046,-0.01821768362947139,0.20452969153144737,0.13059067660542367,-0.056952825101957566,0.3142480585247214,0.08724426581067227,-0.0765942169221602,0.02075804049932378,0.047124716380047255,0.043260198692428656,0.1546952200041536,-0.03293121370690845,-0.3661208268286607,-0.07483021782543983,-0.16820445595910613,0.012041075025096474,-0.1840765715855417,0.178405588555754,0.09311255727016314,0.14349694764339935,-0.18871640714392146,0.12492785822222335,-0.22483123885499504,0.04821128770474295,0.08510702517085623,-0.1973770598452323,0.21251238195789612,0.06349605122225234,-0.283688325552876,0.16044623700413774,-0.2884629961613343,-0.20345507214744246,-0.2389851653004439,-0.011285649844028457,-0.20345507214744246,100.0,100.0,100.0,100.0,100.0,100.0,100.0,100.0,0.026796076235452,0.0244224336702195,-0.12970507790488295,0.10356784456399104,100.0,100.0,100.0,100.0,0.12299168180122669,-0.038190123287821495,0.16598559126987947,-0.06728694058983659,100.0,100.0,100.0,100.0,0.21466646016833976,-0.3818785690386669,-0.027353386253237827,0.1270034114530816,0.1539769304478259,-0.14242888701690049,0.060748666641245834,0.23025818125825437,100.0,100.0,100.0,100.0,0.017587025859138745,-0.16195272187040383,0.1614811937628399,-0.009264112401327934,0.1625609163544251,0.179730981314304,0.09361202916632326,0.22671092113437177,0.1320827134847948,0.30578651948045116,0.3193627923619886,-0.06594331195358535,100.0,100.0,100.0,100.0,0.2093575800336553,-0.16146153292133847,0.370347775513102,-0.08281425776429806,100.0,100.0,100.0,100.0,0.21973122008705187,0.12554573178538286,0.21973122008705187,-0.01916390747298883,0.19287606055057638,-0.3390068497933949,0.13543764342424114,-0.2312438440027388,0.07130934017477865,0.01564709650728592,-0.041720554907694496,0.1428748477107329,0.02649453152157373,-0.08470201273232489,0.5038161421313988,0.03955079667808521,0.2395687723283331,-0.18520363187968322,0.1643131925137232,-0.07721423003748008
0.28536442949202095,-0.12892237862044123,-0.026682836168324647,0.13610297845715771,0.10775445971328385,-0.3808827305749798,0.020252129039310618,0.20901659993130167,0.13958896335787388,-0.05620074976766714,0.10438852643474117,-0.1133555487166757,0.08397536998101213,-0.13833984790610165,-0.08120010482056582,-0.08120010482056582,-0.08149527355011821,-0.08149527355011821,-0.08149527355011821,-0.4194577374887032,0.09299215935346579,-0.12248374704330266,0.1389316007778493,0.11419713431631089,0.1504673959083539,-0.12503438848289797,0.29794846590334634,0.20048599252702934,0.19494683235880325,0.05564138572916051,0.04899569646096445,0.22621249055514658,100.0,100.0,100.0,100.0,0.063542509991306,-0.23497929752167346,0.17528213110605756,-0.12973924165469564,100.0,100.0,100.0,100.0,0.1408066329826246,0.12266890776061484,0.09679656430938184,-0.061376263239593526,0.005650315574465802,-0.04588437107717459,-0.0742698564691085,0.10649211649838765,0.08614180976420557,0.020900747024059606,-0.07386910235102304,0.3358138634769507,0.02988937131053588,-0.047647442152628464,0.01811134393280995,0.1250364251962257,0.1361884205481742,-0.1630744342147977,0.04774535085712715,-0.11599604735337261,0.05311918438201575,-0.20100227875067317,0.12569110265888256,-0.37778816003564164,0.08854401523114361,-0.21068958582407057,-0.08894327059408788,-0.06642644832378329,0.11826281296612783,-0.04345934208604531,0.04426554699068899,0.12000898182020162,0.1488393110690441,-0.1313858137299585,0.48872096199695714,0.011553983457044725,100.0,100.0,100.0,100.0,0.10659682925724571,-0.03272120011764595,0.0687819750316499,0.2044379746135042,0.0425814689759672,-0.004735311987883094,-0.045570073600126236,0.027357803087612688,0.25854881382358325,0.20939386238567242,0.10141950517616187,-0.08307986277394186,100.0,100.0,100.0,100.0,0.2644008625503246,0.09380623388946907,0.15481129975273986,-0.023813209262833368,0.10260437463693699,-0.21873808503311185,0.1465148892834123,-0.13166145823658276,0.1790935770639228,0.12029169800997222,0.062486549591800195,0.14936566820611583,-0.01268033745364075,0.0762799509904179,-0.13232053973325683,0.0762799509904179,0.18470641113702357,-0.22302911503895878,0.020532646456814185,0.28666504750864225,0.11374446961275288,-0.0712364712957892,0.078169290452306,-0.004512806561352018,0.13400771632188613,0.19100191500253594,-0.01843212935191227,-0.18765991770854307,0.1650404545622028,-0.09039957137339782,0.14478252520891743,-0.11721321693106942,0.19965069314335404,-0.09914952936717099,0.15053655013352374,-0.12246412835984918,0.19677284908062748,0.3915126078928754,0.0880224199276119,0.13976366924200448,-0.006078196410278597,0.457222721513135,-0.06575121549624456,-0.15906608620659626,0.1925888779278301,0.10421276911761881,0.08076959380158664,0.08076959380158664,100.0,100.0,100.0,100.0,0.052152191423623546,-0.1971054389603753,-0.036819276084940886,-0.13297809991663978,0.1457684953596627,0.05683836784583127,0.09417912678431672,0.05245701921081785
0.012910287330333052,0.2076330625631627,0.24394035783012993,0.2076330625631627,0.07745262563264463,0.17230137391349098,0.09815198292723194,0.0336241866817834,0.10839277414097756,-0.1257201701084995,0.17807459154524377,0.04916608911265249,0.007709577203831353,0.010458171176491865,0.08856568212689302,0.10730080300494532,0.004567817947163211,-0.0031930066079974423,-0.14478550007674815,0.10503658741634324,0.098139482755152,-0.10116578186105003,-0.02755962893050526,-0.1859441756303739,0.1780915447641726,-0.10283752149288675,-0.20093779135354398,0.22829435259546904,0.09240324761650007,-0.2612494990880428,0.08037654404921882,-0.12982613467396595,0.10515061035896509,0.1962993404355004,0.04971372432124499,-0.026956243029228194,100.0,100.0,100.0,100.0,0.12912677530051372,0.15562768577750863,0.3202686646522362,-0.0018881277220650014,0.0953572617452203,-0.3242693289519648,0.09684527246747014,0.13699407953419307,0.2257608068194809,-0.3696224755167811,0.5749694566361454,0.1450829082349796,100.0,100.0,100.0,100.0,0.11861119870487884,-0.008572875038350254,0.0888951147063522,0.19823795555294543,100.0,100.0,100.0,100.0,0.061432391353682156,-0.22657392345655533,0.14599793914849687,0.22456805135933539,100.0,100.0,100.0,100.0,0.238128099379103,-0.19002076603699714,0.133709126067795,-0.13524747240384807,0.1374623959668107,0.17142590350330772,0.21242959233663122,-0.07892702543673408,0.02493024837230106,-0.15757295082782588,0.11012452527609203,0.11012452527609203,0.07719532465833957,-0.2761229335997255,0.05933359396552771,0.20577060564002037,0.15212749790929692,0.1497821757651058,0.041911386856309706,0.12357623092527631,0.2684057218468147,0.06384395191176245,0.39985100909286997,-0.12446230870949299,0.1770775950474233,-0.30052128476495854,0.1770775950474233,-0.1221166505219187,0.0695617596088326,0.022792766455866843,0.03901303793081355,0.13956619373718138,0.007978038346481572,-0.5029715486927792,0.07941958620629574,-0.37637965878176405,0.19141274337445657,0.19839648008044075,0.13145121198275087,0.003244762828188752,0.21849133562618353,0.34718898815394367,0.21743569987084854,-0.15176668975792068,0.09027309222670273,-0.2881296851679031,0.15575651820964154,0.2494356419724738,-0.05018180679405168,0.4503344494563433,0.23298226523574733,0.25406783654710213,100.0,100.0,100.0,100.0,-0.009024214211268769,0.107530940666166,-0.2404598536249928,0.15984164274204896,0.11948245905299373,-0.22089936969515286,0.038117064475213444,0.10572890639242835,0.057609320313239926,-0.1540592409716882,0.05117621673956161,0.05117621673956161,0.03469614050647254,0.3914525785033902,-0.19351094986813744,0.19614873125590693,0.04386140981860106,-0.041143919985579216,-0.06021936599085423,0.22587286185319905,0.33692878342599797,0.09600592526022647,0.21245611238418327,0.25935508177046374,0.07678420649585746,0.0635164541789231,0.14304198594431905,-0.21699453305532682,0.0057245615762221355,0.1633950070601749,0.42058077867551474,0.19960624114018685
0.14343304261075016,0.2252069051268739,0.3653363726354776,0.09054508008007571,0.042286140701548736,-0.043865752094908395,0.1530950375451357,-0.05438577972528007,0.00035621199403877354,0.07993135721994857,0.00035621199403877354,-0.10598491227022992,0.12083005237442779,0.0871681202363855,0.06642279011900286,0.11217577747931065,0.226956341610265,-0.17283794230592595,0.13940173752037904,-0.15812962302227337,0.20467997700794577,0.016300819889455705,-0.03495984182253816,0.2688379114284679,0.2176132294904639,0.23268151599718617,0.14747562768133374,-0.08632577250460179,0.005773608482849343,0.08545816612115269,-0.10070842519492935,-0.13327795885382196,0.13854911301789039,-0.16334373100115723,0.05187402841064957,0.09383472524248487,0.19501037742797225,-0.012175317785042217,0.14208214997766677,0.03289185228500317,0.04209065350607314,-0.03761185062188646,-0.011650453937439235,0.22832740899231924,0.06632343878530478,-0.1094100183504651,0.29148755105910007,0.20854733919062393,0.20051283771676576,-0.2798535538334956,-0.010802044687634724,-0.2962107489090199,100.0,100.0,100.0,100.0,0.15484743111018123,0.11261061184122695,0.16308241410732255,0.09299473148349854,0.12912176918886759,-0.22173876816551996,0.10419455003698912,-0.0244489935516661,-0.0013995875100329958,0.406419644163624,-0.12754676801472423,-0.06257719595864901,0.1123777978419041,-0.21909632118417574,-0.03627974073640135,0.00213629938063125,100.0,100.0,100.0,100.0,0.08287504199535854,0.08287504199535854,0.08287504199535854,0.0327638075469431,0.06896040344537735,0.12302044479659827,0.3824588226368122,0.09382801230437547,100.0,100.0,100.0,100.0,0.08503661492957074,0.35186484854623234,0.027573254287069887,0.24191254930188316,0.10766182232242949,-0.15058180069173444,0.1785197512754238,0.23900205195076513,-0.034756376323252486,0.3343830842862807,0.13505717254613547,-0.10086156446434716,0.1715398995669451,0.03502548450394877,0.09063720302457384,0.1422775726310554,0.15911206105752534,0.007903662992509154,0.04943793702385646,-0.04189967973611088,100.0,100.0,100.0,100.0,0.13723393544895282,0.011469951786262401,0.13867508039573329,-0.3008546061884415,100.0,100.0,100.0,100.0,0.36123831507641463,-0.3749672816305533,0.19199730680690102,-0.1404188752203959,0.09165008081588594,0.07134095595491485,0.176522087832033,-0.12394755799973184,-0.023985406191562107,0.025888424020697333,-0.19258921473529952,0.3387736166988533,0.05759538426365177,0.4101500729183308,0.12173142396157355,0.2773593026920126,0.19493413538759966,0.00825682107757466,0.2501433696214273,0.08206394387948898,-0.04133636701178808,0.15467764618823135,0.0345915856519931,0.1640770331975095,100.0,100.0,100.0,100.0,0.10047618818389248,0.2023611523843889,0.20493240824133277,-0.003833577085076291,100.0,100.0,100.0,100.0,0.07420105145221098,-0.15354643613275232,-0.048542344246945694,0.17405580400193477
0.15689324084616363,-0.1614936571824619,-0.037912830820453006,0.1352126280225002,0.09299330184244485,-0.3313812108107779,0.3981721796240394,-0.1902235542858298,0.1842808848522772,0.16601651372397802,0.08797417521336176,-0.00497016988238878,0.17327892359627517,-0.40520826729200593,0.1558274048355906,-0.1687428633702505,0.1145758477780084,-0.19600247172585783,0.09071101019166672,-0.009030337474490648,0.17208445097702438,-0.22734265635515927,-0.0439052062902114,0.07494327260836028,100.0,100.0,100.0,100.0,0.0785596435082327,-0.23109470008288288,-0.07157307224626351,0.23998057639306536,100.0,100.0,100.0,100.0,0.23547250714879375,0.13041952772356213,-0.105312907398168,-0.2110154576987255,0.14127893996982616,-0.12877842588371222,-0.2242446698265321,0.09169414578333827,-0.027351357895505184,0.029808199909975616,-0.030302474133821602,-0.25806601198836643,-0.004783455991362007,0.09009821313838767,0.11459332725848043,0.0544251727569067,0.1704314785148681,-0.05404613756806927,0.11541281583430968,0.026616984874659418,0.1684314094268896,-0.1988414718669872,-0.0602311876202507,0.2503441697346081,0.22662380802547272,0.127286749506278,0.22143306238763452,-0.11384718372289583,0.06932281144181088,-0.02977328569026195,0.1154723089045313,0.1056407038755885,100.0,100.0,100.0,100.0,0.05533359304781045,0.2078159562808794,-0.18078348822033924,0.1362662392809908,0.11045396763277246,0.027745154387799086,0.10356218048343811,-0.3958301586517921,0.07181739089765721,-0.22674046960143693,0.16654676342730756,-0.26315855486109213,100.0,100.0,100.0,100.0,0.1300397234606269,0.36695886818378437,0.40520101897561,-0.17769643969931126,0.12764388232783214,0.390102403404207,0.12764388232783214,-0.2774354113577726,0.0011455884408658468,0.1518179089386835,-0.17529595757062305,-0.2216740935727774,0.16216671135886152,-0.24293281142439388,-0.17147107258489364,-0.3935373240936045,100.0,100.0,100.0,100.0,0.19755850485995252,0.15375752372754575,0.10578651401762498,-0.09955091960249296,0.168739245339814,-0.38185667957208347,0.19365542377135128,-0.1685104550826126,0.04457944588861007,0.02705379974012942,0.12754898774160003,0.1373766318318964,0.1524711999319249,-0.4181329823505165,0.11622011131367854,-0.19716351646327854,0.09668859304374412,-0.31001887876664186,0.11286434193236325,-0.1203632609820077,0.14589295886692719,-0.048986102255022757,0.19466279102065864,0.19180716522368046,0.14254589057336617,-0.3080502342085066,0.19176557378249365,-0.22206044877851444,0.09632578077081172,-0.07821961991419957,0.03176923888923871,0.1219269795090157,0.10491853323792899,-0.04256629898419465,-0.019745044611348253,0.08643949832696644,100.0,100.0,100.0,100.0,0.12005464470120965,0.44602728375808154,0.057446819704198945,-0.1615706879045785,100.0,100.0,100.0,100.0,0.11120443937808173,0.15965371455866584,0.3857227401204478,0.17524122380875373
0.08544373063623278,0.25366224531150317,-0.00625354733763793,0.019706443227074228,0.12481819999390532,-0.24305291695212394,0.1237997785653729,-0.3029505435554691,0.0765681818342401,-0.024370642750607602,-0.1161734979738576,0.1645371295050222,0.11369388783422626,-0.24201386700450908,0.07524952052148264,0.08412630010104559,-0.022456227815490774,0.17432142173040877,0.4788788108887382,-0.06489980167348786,0.105856369932748,0.11291990830207138,0.1721679964523912,-0.14527715950655423,-0.061525506947592706,-0.061525506947592706,-0.061525506947592706,-0.08446293444576153,0.13946428917326495,-0.022583630753313152,0.1284473770176015,0.014518393772192086,0.21793348671604507,0.06728927071489041,0.21560999045977391,-0.44021343385434614,0.07856471545061577,-0.059762359660010374,0.01974654145294066,0.20525253262535773,0.15175276977038937,-0.050736770741296525,0.005679348177544792,0.09434995246607827,0.10100111025667424,0.022941260336675047,-0.008946152076006162,0.08691014922005358,-0.012846125710380529,-0.21959991018330124,-0.14665546677694286,0.07358077686759841,0.042443012764278275,0.06896076872331816,0.06826545637864011,0.13242761680882084,0.13468437127502564,0.09885307935517869,0.09183395378289874,0.2132985161574728,0.19515105380070505,0.15348863086935058,0.07074876428536414,0.02112977856022598,100.0,100.0,100.0,100.0,0.1752620482370306,0.04208170699031648,0.04881537604110149,0.05824985092750855,0.19440580836050525,-0.09534044808095733,-0.09534044808095733,-0.09534044808095733,100.0,100.0,100.0,100.0,0.10497212508133026,-0.2950234874075987,0.11887725568198443,-0.3134462691017264,-0.001221305767033446,0.1699899287394152,-0.029693119184809172,0.034956424692646114,-0.007861061354952983,0.08792342159127291,0.3857824192442432,-0.04762863154353205,0.019780531215013226,0.2782530675147051,0.045928937333050535,0.1518170213983921,0.14044323853122964,0.3331186787259932,0.3120021177424359,-0.12326996153104987,0.2350107219005953,-0.5074483435734923,0.468582910999907,-0.00834478856505276,0.07791192313498257,-0.20519227241580373,0.5479403410080448,-0.2168604780488464,0.1811988309353862,0.13439642838866456,0.13439642838866456,0.13439642838866456,0.3290160393246283,-0.30149222550349847,-0.029052660176340506,-0.4056913741288572,100.0,100.0,100.0,100.0,0.09780430072887009,0.08018048871947753,0.08918354889631339,0.013062874128124083,0.08536585964269792,-0.2966645927762565,0.19142633243889629,-0.3173698172334191,-0.12105627821004439,0.1123609637201219,-0.12105627821004439,-0.14736431896032243,0.1850517207062804,0.07329992230725253,0.20531037002109742,0.041331354653009016,0.1345715562764048,0.2941739064957228,0.2944963911888415,0.07033734612599371,0.2476317863607935,0.13733029064863692,0.16765508805649745,-0.03103997358524886,0.18819593409918323,-0.3808082524913493,0.1636385544716021,0.2312945711093919,100.0,100.0,100.0,100.0,0.10685763228084359,0.0379759627878034,0.029557351318725666,0.1326666214348366,100.0,100.0,100.0,100.0
0.26181971503472035,0.09910771447362758,0.09910771447362758,-0.0903952553554331,0.03649845315626857,-0.151181508123936,0.41172867826678766,0.06890714587662494,100.0,100.0,100.0,100.0,0.08044349624803668,-0.018716699892236982,0.0811057420871385,0.08044349624803668,0.051783699863693904,0.41910725340091803,-0.056072515160623185,-0.040260754648527686,0.1471298348428868,0.21802429025808476,-0.006220148825614187,0.21802429025808476,100.0,100.0,100.0,100.0,0.11047567313005574,-0.11388034931608852,0.13755024944800615,-0.0696030125432511,0.02702421407368323,-0.07437133411088416,-0.04190465064135,-0.19433636096023402,0.16382756553348388,0.12228023790431208,-0.037027165623018714,-0.4647654983594921,0.0516990816623192,-0.022418316701575416,0.03780721389493358,-0.04603571188491376,0.17337908400155477,-0.42186717510852206,0.17277438692554659,-0.18730972040181693,0.06615514272013072,-0.004002773670638865,0.00620763449526892,0.00620763449526892,0.06349211567031228,-0.19165147421654644,0.479342804771501,-0.049229007278956266,0.013353392441924825,0.032582039450073055,0.10007369864921475,0.11044947109938787,100.0,100.0,100.0,100.0,0.42530916122940443,0.29071293699581363,0.13114267222503853,-0.009918698435235185,100.0,100.0,100.0,100.0,0.04293551693383399,0.23851464944418713,0.07874852598483331,-0.005230393732884947,0.0609737459744095,0.13134424156499286,-0.079796652326962,-0.10525396238757763,0.0015693051855213153,0.0660151871555056,0.4135552693250063,-0.05504033217891399,0.35402862229977633,0.14867214773736354,0.04357735517568186,-0.33533724894023076,0.08743070046184648,-0.31535232406136215,0.04791350162407708,-0.00593250641401042,0.045649837129763324,0.16052118450065792,-0.02143747657107827,0.11068275947990068,-0.1573311305123011,0.20407478195589351,-0.1573311305123011,0.21911614077119415,0.08933531715608801,0.03659178177964367,0.12001694599779038,0.06931883234584686,100.0,100.0,100.0,100.0,-0.007876571943308413,0.14397967611481738,0.0926831596275881,0.08066783862764007,0.21609939136763334,0.011537091996153187,0.21609939136763334,0.25898988283574226,0.10752867730591995,0.0789483812269472,0.10113337984950083,-0.3538734893818397,0.16178239874408878,-0.2996470762306061,0.23957520189574477,-0.144092879176344,0.27698523838136574,0.3596391725955123,0.07441764164827142,-0.00246539115949225,0.07802979289258655,0.12927142985921208,0.11551417123104904,0.1498430643251113,-0.014468880355841679,0.21555724402651769,-0.13272965846415513,0.04539647261503245,0.0829375889987535,-0.22069195382811668,-0.10927794384192918,0.2162778359628183,0.1326407719411966,-0.39942184959247207,0.191658000267199,-0.19188372458971434,0.1310421548937441,0.025544851798916957,0.027787031791127653,0.015417364287789139,0.11267388829986993,0.4570368998715766,0.015009452612576454,0.17287084457613067,0.18935787545994226,0.04338894205818658,0.38673013629016584,-0.08958807606016803,0.06994931353851742,-0.17526039612068905,0.0036480830314136944,0.1786315767782101
100.0,100.0,100.0,100.0,-0.03357959675355138,-0.33373609505442237,0.11784577504253727,-0.1935941114034872,0.01888862547536961,0.2722717644470441,0.09441337418648602,0.23127874312850924,-0.002899607437966599,-0.4241746940448858,0.2158745505886567,-0.25362018739913805,0.1814361419253007,-0.3267793092576936,0.15704599890200693,-0.29553413348613117,0.1348158710761239,-0.07332131863145627,0.11654862830721559,-0.12164915427540998,0.34738864147639575,0.2643811588829945,-0.061056220211800974,-0.40099748201528795,0.05395859832594523,-0.02879476033724413,0.08568578710649341,-0.024653673687350986,100.0,100.0,100.0,100.0,0.08489139316676154,-0.12003226238334476,-0.05492959815590535,0.05873339254239247,0.0800989957866165,-0.1640728942829254,0.008027683836332471,0.023177224335864686,0.035817270978801,-0.14414289867029917,-0.06190815334490921,-0.19489776711565912,0.03943535160699039,0.05083391195053773,-0.11056827380165166,0.05648623053835352,0.0863912544177558,-0.04994945433812535,0.1550603014947441,-0.2136011276178713,0.2557542753340329,-0.15851185033192702,0.07146190929340362,-0.21679860964604825,0.12394366971357879,0.12475227459081101,0.12729344392730732,-0.051122064009241755,100.0,100.0,100.0,100.0,0.13861565042706217,0.3607536010592628,0.3005735186889883,0.08039828883856742,0.12416370563307345,-0.0038258131163460413,0.5150608119819261,-0.044970257018393536,-0.014443145291887775,0.07702207671832076,-0.13101546342543957,0.13603674608999572,0.20311939800704715,-0.3307355563675385,0.18969501777897263,-0.021360949192449886,0.10505332777399223,-0.005058929605727437,0.06505033848620931,0.24422823036525337,0.11155725424058875,0.07036461771382191,0.16403345982007966,-0.2466023473053057,100.0,100.0,100.0,100.0,0.13779058091885943,-0.24210860763374992,-0.06961243592075031,0.22272424033179966,0.03958361155308323,0.3918781891398748,0.31376001156815786,-0.08451218090070843,0.23867801401814226,0.005180004459593088,0.03090270112669364,-0.38540484657345353,0.08253855691390787,-0.2532020117234546,0.3960649579453799,-0.12310548169030242,0.12965778141013518,-0.2909087538851299,0.4686657467418007,-0.11951184563440874,0.17229382433170642,0.3933177699265661,0.41889627809881325,-0.08164503136456179,0.12638252708970607,-0.010776804508651074,0.14017536846735304,0.000594757864802925,0.3171136935726562,0.0908054430946214,0.05882974950409581,-0.04275657560974536,0.1772562068037628,0.03283982344177444,0.13549881876785236,-0.13948253321047993,0.14947710418514337,-0.1942714189460855,0.17445203851199398,-0.11838615292289535,0.01531321981711321,-0.2697604228483552,0.022043688031818803,-0.26356604191382543,0.11730704402884076,0.08933281837263786,0.16929299630392214,-0.11550835921047364,0.26408977540223477,-0.14268877088875287,0.29365122946134714,-0.02606035778612853,-0.006391966220309277,0.22101621331717852,-0.15773036884105018,0.15441976569718455,100.0,100.0,100.0,100.0,0.14976631489584347,0.19096262583939483,0.05370526756806902,0.21297153361735932
0.0363812230861255,-0.45975400988479415,0.255371900752501,-0.13298534923796534,0.16857981482482018,0.06459510534300555,0.31832193258001223,-0.05588224058436774,-0.004626945215278733,0.07715497327014263,-0.23219865343280408,0.09698753780214235,0.27046684634335705,-0.09732327764192589,0.12079421919014921,-0.22371160089103825,0.06773039586037377,0.037242807617297397,0.3174917849864791,-0.22569851082669834,0.06450372212010774,-0.047302889606453416,0.09548071356072277,-0.18858482819191053,0.049685787862539896,0.2137025954283096,0.17868960155134742,0.10137907690044118,0.2104527644468096,-0.37203705820825694,0.10172508053440577,0.15386754814622522,-0.10589125583004413,-0.19171938485784246,-0.10589125583004413,-0.21599742572642,0.0061178756239621546,-0.40491713207294655,0.18668829546645072,0.09983060664949336,0.16773548963330961,0.20595325120831717,-0.004402720143325711,-0.05860057195557192,0.13084982409271154,-0.033269432941261126,0.10579386051156998,-0.007396735170753954,0.13931447291944343,0.019847294523909764,0.15455383834139702,-0.14755711413322542,-0.04823431718444514,0.5256678379340465,-0.04823431718444514,-0.2772532388546998,0.16569298168236327,0.02826669189892675,0.19452549001869854,0.05223508015035558,0.012128207058471618,-0.3584051869006353,0.3674124997649931,-0.16927450839695585,0.17380420962710047,0.003252596101362342,0.18177783700687,-0.18504195343774943,-0.14422966018810496,0.6590131357129402,-0.14422966018810496,-0.20632056954436662,-0.019956074428792436,-0.15317298788047576,0.08635415388524996,0.06306891749930629,0.08017462118974397,0.11445743611986083,0.17709609683954014,0.3492988537337188,100.0,100.0,100.0,100.0,0.053966620680847684,-0.34038283049435814,0.18479557500668703,-0.29671732729890726,0.0868403095926478,-0.037245634004182765,0.06045606360524418,-0.1910990817564291,0.029665858455796917,-0.19365498780426177,-0.01462688692286928,-0.05285980463858526,0.07018883607624823,-0.020334629542593977,-0.16119882470401606,0.11690272100114038,0.040955606208340586,-0.011795191646592935,0.11065410271126468,0.06695694196983541,0.17384724829866566,0.19825001135840192,0.16852222921060736,0.05689840982495334,0.138945120022366,-0.08402973748030146,0.14483634439815327,0.1783567337745316,0.22125289827845956,0.19789815677986006,0.1121293711067329,-0.28256727241681123,0.16730791011839263,0.043230736350734905,0.3217680537745792,0.15737482445855433,0.17022376641509135,0.04147848119528879,0.03913590880200184,-0.40145206838802333,0.07741342454451362,-0.11368947039783621,0.14802587016063012,0.15603916630885117,0.09610084431149447,0.010352726814370009,0.04829977716476733,-0.04446094914551047,0.0021144646230235667,-0.256399491905282,-0.09775795757492498,0.1246127686117382,0.151659890575418,-0.07321737719108504,0.059062074898890704,-0.10467706129574576,0.1693802620664231,-0.07660386688238463,0.2131101143420987,-0.18330101533927123,0.06174651505285299,0.06174651505285299,0.06174651505285299,0.18880020132937314,0.06317416596296481,-0.15400481078719314,0.11346524418199488,-0.36920411871109027,0.2559041809239029,0.016246802103262493,0.12126937670592568,-0.29082396518014775,0.048229643881533446,-0.05268512395384677,0.07242181656852172,-0.1917657856131749
-0.016261705507939823,0.10901838411446574,-0.1450672670867107,0.14782942008045905,0.23735087136479166,0.06479251898331118,0.23571423392416563,-0.11998670855543399,0.3997562496753035,-0.1469825014835835,-0.08995487751728345,-0.05531039104749883,100.0,100.0,100.0,100.0,0.15231332152414712,0.05901688755768548,0.06748221678957564,-0.18267334531433696,0.06656991433242487,-0.21052752066883504,-0.1226880482634854,0.06276054681620721,100.0,100.0,100.0,100.0,0.14083616424920997,0.012932152592355889,-0.15263154118901961,0.07031689023456456,0.15540379446688413,0.03440617146483023,-0.06813938428436939,0.1729647080526797,0.16611800593022585,0.26510245263446736,-0.10157441916178214,-0.513179736662242,0.13694083625869213,0.18306018304966828,0.005319851050644961,0.005319851050644961,0.07432174581480547,0.16590775715315884,0.3590543063765306,-0.07935140919653258,0.10638843034961776,-0.17144922047981218,0.10333674865885983,-0.2239379593212318,0.09117314971263102,-0.08268048079685601,0.12060332327221945,-0.4154246310451294,0.08351538742080675,-0.34674779701862146,0.11231557827416541,-0.094032711794741,0.029303651540936886,-0.22829136654099375,0.04370294459533318,0.031252412816134154,0.10378641368265099,0.008753902930976762,0.06420736947191306,0.1122881771040356,0.3082302024389567,0.16513840722665316,0.10853308140765697,-0.19101077239698083,0.30601860009992093,0.29419030055271567,0.08920687489250312,-0.010014856898078704,0.38828255909596515,0.10326660050702227,-0.07862394231468411,-0.1392572639849484,0.20092850396684042,0.17066734387176824,0.16516985285167254,0.21730467708567633,100.0,100.0,100.0,100.0,0.06465006728392303,-0.133118056494199,-0.08405620930662386,0.052869983319068406,0.058718227878519866,-0.3661885066729459,0.0949875088065156,-0.18499503200144385,0.05257192395429741,0.14290450778126276,0.4675317950408352,0.0976253076452953,0.13234946311921666,-0.09442828220203218,0.22098245289106846,-0.26660585057957786,0.10293539631222001,-0.08711978087838496,0.06534250184681918,-0.017937135132256962,0.056302188599666944,-0.23928169186868,0.10922422341050997,-0.1617617927823774,0.08895111948377844,0.3176293496625056,0.5319433493452788,-0.12256301785281565,0.12165579329336874,-0.06969366032237133,0.11093935287786474,0.2498442053855596,0.1247778495482192,0.17912862831008355,0.20177222711975956,0.1038669965372161,-0.002049335099327417,0.20070095697075635,0.06011132309314707,0.12054429420032994,0.14942908395094517,-0.06845296994735665,0.02567862604636076,-0.0828982965057656,0.07277536050185501,0.07277536050185501,0.07277536050185501,0.09862048166757548,0.09497288417846321,0.21159601242973744,0.08995471454049589,0.10878260375086307,0.06139977209282323,-0.10165031762396595,0.4542132719854074,-0.03696440153060032,0.04818424587828356,-0.2784475981898941,0.1283364024667312,-0.37265720510707284,0.046405663711306944,0.06993697154435491,0.07625821187663118,-0.08545770307169073,0.19201034909627132,0.014577155491453817,0.1652781507004568,0.14601563653575328,0.17884422512996104,0.1659072478763955,-0.00883822600289054,0.075561739159983
0.051289359590976046,-0.05582028197250426,0.10283119650731921,-0.22973757347422386,0.11504838053747461,0.2872277627142661,0.2669894350872222,0.015333653035910957,0.1820079750726782,0.1368162428418429,0.14139377619414442,-0.3577090634721797,0.2867639127030905,0.14771089712926627,0.2549059936080127,-0.14034407156826523,0.1312898891341192,-0.26247903535442335,0.14121905968282322,0.0036085572592962564,0.07647196447486994,0.07647196447486994,0.07647196447486994,-0.13601541187422797,0.010338707487912883,-0.08275991611773266,-0.05800777520005544,0.13813859266667283,0.3326137146669768,0.07339754602019527,0.0946417897669201,-0.06721057068293268,0.26488234109698083,-0.0282067148169187,0.0806389929377403,0.0035777565823755797,0.3950602363047761,0.2384324420444393,-0.05097326581244987,-9.874040603135431e-05,0.13333960812134532,-0.031223211592104436,0.30507476014931145,-0.23066358297377457,0.06093605150025165,-0.2515403816557098,-0.08942749651047202,-0.028509821093456005,0.10525739382241601,-0.1730701427548857,0.17657287110631428,-0.4051950637277764,0.04285849035362556,-0.06922360222917426,0.1563556132720838,0.22304126488912937,0.11119440125419146,0.08151288544265478,-0.12311978043536508,0.16036212535708194,0.10846050677116079,0.37292275229894184,0.005125328023998149,0.1885457147915499,0.2760507845987675,-0.10008791067447555,-0.1861095953564801,-0.40715783593821775,0.08239476111232562,0.026858276162021584,0.06326070464660924,-0.053926649221368826,0.08476718224134656,-0.09701164499221547,-0.10808309993984466,0.07664324106941135,0.1396395648506603,-0.2751629068803029,0.2724166941389793,0.1398492555484912,0.23614200554424364,0.11998056092073742,0.1477965420318651,0.004882722614178034,0.1831154047081911,-0.23497868051372234,-0.12210541662492212,0.12661067741643567,-0.02592857321757517,0.0992051339411534,-0.19528941917221107,0.12451128292280185,0.11440910281729434,-0.29025059618009,0.11375567379971963,-0.3351230580491273,0.06967495474936422,-0.3374198901573013,0.04569773580729926,-0.17975907393224888,100.0,100.0,100.0,100.0,0.32825874844292896,0.1538583036556927,0.12737185773274554,-0.20809701213628187,0.18323254707734232,0.10893536352845264,0.3302333673112819,-0.2828611612777899,0.1513254298259409,-0.15301052225829928,0.1178534486679769,-0.2653453568809704,0.07791772654079643,-0.054762723886528204,0.1196786926491,-0.1464940552168636,0.13455644175170187,-0.014041980313866276,-0.06095058444972422,0.2067449605093546,-0.03456039445241822,-0.06812917479357054,0.1585645429303681,-0.22332637837696728,0.06455946148192519,-0.19570775401251672,0.43611498731329634,0.015922760832638605,0.16094290637100833,-0.42431218238607915,0.125406526719958,-0.2028607979536968,0.3226413327671253,0.07746561289588233,0.13737110156312543,0.03224036525018634,0.23376300676755493,-0.025005166679849578,0.23835822102214152,-0.36318290724772523,0.06506467797538662,-0.44956386660549585,0.16722017779054252,-0.08303626750838453,0.14937445629970608,0.07202070831273201,0.3371158947043643,0.2840410188083455,0.2678452078977633,0.12909149535672837,-0.15552864032811758,0.12909149535672837,100.0,100.0,100.0,100.0
0.16733475840292603,0.13105809617196248,0.12653928092135994,0.09487599306983627,0.27744541241780535,0.0357927697557623,-0.043951636308102615,0.16165855695196268,0.04060708641196742,-0.13738887407538597,0.2969672307174586,-0.24255354893891123,0.3783591828420778,0.35821944318146176,0.07980098851793424,0.03423250074187836,0.14826946497905072,-0.2958366421176443,0.09334534052247104,0.11834492091294602,0.15551704659107968,0.04620021460563482,-0.21251675705733597,0.04620021460563482,0.10876540761362605,0.09005987188885886,0.12571557952681667,-0.15400145629601328,100.0,100.0,100.0,100.0,0.39401600173915874,-0.18335911246372802,-0.09559588205603027,-0.1920484307474417,0.14982451697521315,0.06508184787181348,0.050511133832562394,-0.22859836487242843,0.23358631907418287,0.05454098769260289,0.3097020861138907,0.2083706538591502,0.23815950029858424,-0.2578658260848107,0.2312074766225628,-0.16085629056139736,0.13907469380320261,-0.3083024993359955,0.3655423326446926,-0.24595828752386784,0.19785766137774788,-0.03512264671109605,0.48841467568023894,0.15552024800624073,-0.057121236233380106,-0.41435914785565875,0.1824489420720297,-0.25040474351199693,0.21376137004218831,-0.03408959442162095,0.11333319757114715,-0.10283383766680972,-0.015398615611321755,0.43720235338146574,-0.12130773249325662,-0.15711432958034002,0.09622418915896942,-0.2877727819423367,0.1735707181001272,-0.17556253492762086,0.2945688649899964,0.42622635889435634,0.3228038781743271,0.036725262257166644,100.0,100.0,100.0,100.0,-0.0013004369421266097,-0.32494875902513287,0.08034646735067881,-0.11113575004310317,0.16836915513588654,-0.4250752868602651,0.17029842372103055,-0.19102191467297044,0.08560864075224403,0.08560864075224403,0.08560864075224403,0.05446693006286937,0.08009213696845503,0.10229296876784702,0.22903635666589245,0.11514311918244553,0.09973650532810573,0.13548643122736892,0.05931136872236187,0.02342344243785284,0.21242102654742714,0.15116722618706485,0.09869761364410067,-0.0800725364076762,100.0,100.0,100.0,100.0,0.10374274955349957,0.06400319602922398,-0.18725958236853432,0.07511050903586844,0.1191279167355159,0.024812233264889086,0.12996884838043632,0.09239951868569127,0.14924473954114087,0.05100080301314714,0.07951690841233516,0.0609525349807149,100.0,100.0,100.0,100.0,100.0,100.0,100.0,100.0,0.10924079816763421,-0.057513526055672864,0.11315449495843843,-0.3000267257555118,0.12063271379337076,0.14078230661019364,0.031212034229299863,-0.1598554604823056,100.0,100.0,100.0,100.0,0.2379013346977101,-0.4411916919770023,0.24845821785955063,-0.2530867955010322,0.13692525802610883,0.08846860673291655,0.42056125081781226,0.04430695169016078,0.09999819867189332,-0.06769283354714956,0.1583987064819678,-0.39965783712960345,0.19463205031611386,-0.1824808811993378,0.005111175596628284,-0.17460970745391002,100.0,100.0,100.0,100.0
0.3226102657537834,0.24530583907404113,0.0838287363209344,-0.2672700889996013,0.19027283854868726,0.27913328213451544,0.10405780754584054,0.06034560180504292,0.0851927853934313,0.0012406339999266984,0.10704963314793665,-0.04581022853422518,0.05622518274096702,-0.2077657215945327,0.31178045609795424,-0.33088023926898114,0.12274744410997271,0.18543225003191402,-0.03834308039151009,0.3239419301580399,0.10394039640629572,0.15379247498668863,-0.11322352087009589,0.2564117465855901,0.07499393284311995,-0.2442505261310182,0.10309234224945978,0.04264500309672925,0.21035014393122226,-0.015193560920407953,0.24678000411938564,0.072747731896566,0.04654094663204892,0.13337664710425368,0.11561262953990817,0.14794681113000685,0.09328670764017225,-0.10485765900548964,0.049924986491293705,0.0959585139782628,0.07349858912034088,-0.036073865850467166,0.17515129731969634,-0.30262956508258393,0.20694472166319197,0.11745556362506922,0.22675989035716304,-0.06471932548294716,0.0710847115662052,-0.0029708126565495523,0.2514274708915647,-0.09716723041410591,0.04223994449721322,-0.13075595353306046,0.2773730552515402,-0.2569762665512297,0.04002624749541729,-0.014390557178936253,-0.1029966835831213,0.11668141576298048,0.06455576451327022,0.05941163720142626,0.12274776314599362,-0.19490920181525534,0.09441414879296087,0.5426073539119212,0.479420607924028,-0.005647120117545555,0.017305684961221368,0.2116691754942069,-0.039289949743550046,0.041716575933060746,0.025117252563843454,0.09635967189630552,-0.20344120165633992,0.11650136788753589,0.20365479702969558,0.3830013856169934,0.3074254250124046,0.13251190450697403,0.18397195020660723,-0.024513079144683925,0.5300715387280982,0.0008624398320903519,-0.047233638215880634,0.1589265948286373,-0.047233638215880634,0.14016416491809155,0.1194223481137027,-0.03413704450141215,0.13799504412627459,-0.25609682869052597,100.0,100.0,100.0,100.0,0.18276518886672682,0.036942451554488595,0.19847505273885824,0.19847505273885824,0.15511700399365347,0.2100852229695911,0.08641631524525653,-0.23790592711824937,-0.06003584587567318,-0.30471213509832246,0.018767155988107038,0.1807081324139585,-0.03158253003655294,0.14033360388709706,0.06294907262320176,0.16701047390654705,-0.012897319040406984,-0.29567855848285357,0.07811067464124002,-0.14990715781824585,0.17131882677712404,0.05636278940216495,0.024886849394698346,0.23033182343121536,0.15616287823878822,-0.03627486724815342,-0.013862067642797932,0.042007368011570234,0.1545286876981111,-0.06786826126583265,0.016287946835593023,0.19591025398209408,-0.01229380765652408,-0.4069375593457943,0.16874277078013183,-0.19710968365682685,0.025380437221248456,-0.3147295782100749,-0.017972266345325505,-0.053425056960953426,0.18987369827546838,0.019354702533427415,0.07001041634792915,-0.1267832624489188,0.30708421338030595,0.22336371843220176,0.2088228543550078,0.03010616855072864,0.05158083720777491,-0.298615741943215,0.3657658968874745,-0.031767418383781616,0.12415742615567649,-0.18210256803142483,0.16503998705206235,-0.15121939354494202,0.12602687001093116,0.008664873232580847,0.17142415027172586,-0.23881618046560787,0.2489173365832837,0.046310271875824344,0.2836925342884608,0.0149720720966302
0.017834556832137225,0.060967828962285225,-0.02143680574974309,0.10952269579530803,0.22433322368021222,0.1544553065192199,0.12860054620695388,-0.055682969256180756,0.11506162819563885,0.04202990700724111,0.13740024429910208,0.04266199550763408,0.04149970347231879,0.12069105717811959,-0.1595085958936458,0.16162664876386243,0.20723592483386136,0.22314143478511345,0.1297990948165778,-0.07572759042188927,0.2647089456542377,0.08561009549569168,0.08374516703025252,-0.17006736312389575,0.08357333552792204,-0.33124153051591465,0.08715185803456048,-0.22860499479903268,0.17300921500528574,-0.38060974639033307,0.1563962616477876,-0.2144500560498983,0.17295651924785654,0.29186880774909174,0.0583359275269881,-0.0466946172777761,0.13521914321623238,-0.17670068011023254,0.13521914321623238,0.01740090804652082,0.30718027814752946,0.12035395322215992,0.11108061963671584,-0.08452486021137204,0.13332078749417095,0.15262255806813205,0.11298623177163686,-0.04547435258753901,0.04214596226902353,0.3526675623903636,0.04214596226902353,0.05876704449411721,0.1762356896203824,-0.3343337594331177,-0.04427413323848467,0.0006574015525857395,0.2599856008872573,-0.25756898766714226,0.07725736395884654,-0.047567794406686834,0.1995933759358903,-0.27832566449953267,0.07511301907280485,-0.2001563854325796,0.13065133606044682,-0.1014763791071574,0.15516071784085123,0.1958317061522077,0.16247028923428483,0.20944967773425274,0.04932089648123392,0.03493398891774966,0.24843927422445172,-0.08768110009816275,0.26672114769421507,-0.10533699383646276,0.14816265377220733,-0.38545284863861307,0.1588092402341676,-0.24200506430169005,-0.02613239658410165,-0.2588896788258598,0.017367535174133447,-0.134977089180304,0.15013631408564015,0.3072971814964257,0.11243508457239745,-0.08343156335871971,0.0027879980404177905,0.14664893877903126,-0.07386810782536793,-0.07942854564248811,0.07015888456648861,-0.35017780311776375,0.10370588949194563,-0.149538328727159,0.2792309316746575,-0.1611676061132958,0.4552266626647548,-0.0431565395679413,-0.027473817605473547,0.1411812546686026,0.08774419575463076,0.15165404948102046,0.08074646663033756,-0.2990271317707988,0.08893367620855852,-0.16313456229324952,0.12178171019433849,-0.12850097165741325,0.09742231916552971,0.2270235935026111,100.0,100.0,100.0,100.0,-0.07301539474461811,-0.1169075152050084,0.4127743151824043,0.12815397554393387,0.2245968364775509,-0.02470105246523184,0.1371520761334294,-0.18421339804561893,0.13297373805344415,0.15255881465823795,0.13636929256223884,-0.11000762755031389,100.0,100.0,100.0,100.0,100.0,100.0,100.0,100.0,0.11613364469399952,0.33370300724480056,0.3926906332080935,-0.08686043148245201,0.12947608754674353,-0.03790325474770306,0.2803344136573221,0.09394539368799472,0.04471865411403323,-0.15825135604059065,0.30058109967085134,-0.2539817621398494,0.048275886242114215,-0.1501979658313753,0.0834078691613761,0.10753707035223456,0.17626879432127818,0.27654438766927225,0.09043296356257237,0.1669643012995568,0.05447131576767991,-0.035682324340066976,0.14378402446344654,0.04722851651340632
0.1292866079394952,-0.06899845783879667,0.07264807532233211,0.18376344231626435,0.07574418474164586,-0.0017173317174142264,0.19147138060453706,0.12523718326590563,0.09630678496320358,0.19556074692863482,-0.013859900327753444,0.03073271951882542,0.11319817853129416,-0.3671307652414001,0.10055104020856231,-0.06061379708038911,0.10831697389339848,-0.4376153133643267,0.01202709362401174,0.19582333843612387,-0.04247307621616598,0.461370233249729,0.08158465552566238,0.11343663396589433,0.2473326735796256,-0.0707714351363661,0.10919482857621936,-0.41170975795038106,0.043140135916921556,0.4123092573704137,0.032277415272518886,0.1993458866649377,0.09115942295231524,0.17126353124236338,0.21512156791389042,0.035151238148546204,0.3695825384215498,-0.31423808964151917,-0.09472031859566889,0.051752578778193885,0.19566084457747895,-0.09313805877662906,-0.06551197210755572,0.044683351573532204,-0.1000966167124995,-0.1000966167124995,-0.1000966167124995,0.4408192658902477,0.17747654376345678,-0.16325592762641328,0.13208914104029668,-0.12850463210016813,-0.016359935968992545,-0.016359935968992545,-0.016359935968992545,0.49282461174774056,0.012939722717952639,-0.03275953754291153,0.4157293786069469,0.05830351794948842,0.1826400241064311,0.02514239920138326,0.15022626110022036,-0.12557204572593447,0.1597183773265621,0.07243840103367372,0.14222133031738482,0.10636895961224646,0.17487627428736502,-0.35775083127664653,0.2448243053930695,-0.11690749112452503,0.22952420097349294,-0.4665589950167865,0.22929817289458726,-0.20476953515953703,0.09629622231299444,-0.13785358115150356,0.08492269765634655,-0.07399346506500498,0.16850099388299575,-0.4525262282712309,0.16850099388299575,0.15423374363823664,0.11875687040648214,-0.2530895953904507,0.16147881431286573,-0.18385444868011255,0.31387473285074363,-0.17676927009413168,0.009344235287083433,-0.04645763762073156,0.059119711403363015,-0.3032028765098424,0.17179458469398667,-0.2552626859609241,0.022366886033975464,0.3139746501124117,-0.10231964272276195,-0.10064459133896417,100.0,100.0,100.0,100.0,0.17765548807774,-0.16008886068176012,0.32675475103332496,-0.11088313234066927,0.06988837106009838,-0.06366246422952404,0.10976919701423545,-0.25862568758276566,-0.012815399854244777,0.14863619686177437,-0.012815399854244777,0.36960284186546055,0.06898731265937778,0.43008017182535163,0.40877907017001935,0.036415975292987145,0.01507834562348101,-0.29288382920859785,0.3564807583224294,-0.1178294201942103,0.03035672384204402,0.16757712498785962,-0.02944168253500533,-0.07073473988382525,0.059459627448931074,-0.36277689580044514,0.16270681890274874,-0.25636210902985224,100.0,100.0,100.0,100.0,0.01534777484687472,-0.406716517652869,0.11833986957164724,-0.24599521036367808,0.162499037654011,0.14758421515351966,0.1326473580929546,-0.05259319570259765,0.1800432634544588,0.00107284176263929,-0.09682127560785549,0.00107284176263929,-0.0023446027722097314,-0.1388894748112832,0.06429294025120491,-0.07948576217698042,0.0555070550748897,0.20246021690795601,0.028504784970491956,0.04177572078166361,0.04622153948135081,-0.3544364906705253,0.12471937205451453,-0.24577131593695872
0.009832278379790484,0.17599661966650607,-0.1370642655135477,0.014046659098217687,0.3155041222881487,-0.005526923757124096,0.30562685412922774,-0.3164128467001334,0.16714802924304017,0.03338953210569369,-0.06336490772709216,-0.1780884845102041,-0.013334518581964605,-0.3228069251065329,0.1670236312765168,-0.253356268564234,0.1373415005169775,-0.30598581693251925,-0.13595885659301768,-0.08460597013427175,0.14019763266135937,0.2274025581178526,0.42084036162366545,-0.14644351356887358,0.08634202996252618,0.021327440097314687,0.19189201390084365,0.10921782074473767,0.06632119929134593,-0.049417098571307445,-0.02783594979734831,-0.09499310536258249,0.07937658219613386,-0.20555984093480428,0.13027568394529812,-0.11199166186987006,0.16592386842088092,0.01947465259084384,0.13830328273978693,0.13342709411651302,0.01144040153653312,0.0936039761713982,-0.05084905769534333,0.09164573499261316,0.2856240900370426,-0.06418414299658143,0.4046937580535395,-0.04401945660374692,0.0973148498568293,0.005523504533964382,-0.09687099078181927,0.17912365860618112,0.08192667653624583,0.05747126824701232,0.05283381690802366,0.06836036707699983,0.15204828570655007,0.12673972551453103,0.04814973349276623,0.1341332795903545,0.1664968963092719,-0.02283425136189985,0.23256679063859548,-0.17393374884419244,0.273097678374648,-0.1820718215666448,0.2589571228493168,-0.3929562416430629,0.018779615896268573,-0.18615330376206918,0.08428906155612909,-0.018402055178145638,0.07565548022227483,-0.3792831663355232,0.1462173415291394,-0.1548530779935119,0.23857148810552317,0.09429234753294634,0.1895670522731405,-0.19328792959537688,0.00017328199185222617,-0.382821229642511,0.025715707844694978,-0.313484129976314,0.14697523287620212,-0.22662599697033167,-0.058700584129886796,0.15219538343591868,-0.042388284104606544,-0.042388284104606544,-0.042388284104606544,0.000873726617664914,0.11131889942727077,-0.22906704854460636,0.14493558256808378,-0.40101969022432915,-0.0006703479370655241,0.08136992195799457,-0.19990328944944086,0.19867150971142236,0.09355978016344545,0.14909280162068742,0.03153082873990794,0.3361049614412848,0.15204907557192895,0.23070887050790007,0.03754507840181534,0.09471541864925431,0.34075738955263896,0.18646076345134455,0.3866842526589894,0.18646076345134455,0.060872971074271635,-0.31383636861844244,0.11457607219812646,0.1867785410654794,100.0,100.0,100.0,100.0,0.24422847591060062,0.09738829908822912,0.23586979732508317,-0.11905745656660327,0.2896463231562667,0.3294810255516539,0.2444874573511595,-0.031718562695162475,0.02095889117187032,-0.022051835180741355,0.10018049729670135,0.13774309564506793,0.20523110426163804,0.1677117466891983,0.1212871091405811,-0.03588187292058122,0.09113457887976861,0.07429967190530419,0.17287309584009383,-0.07121646626459982,0.17303155554608046,-0.08567597892605468,0.21281989118961364,-0.1545244236971161,0.029483352876395717,0.03785709688332856,0.06477403805290077,0.24641917152804713,0.06946016828443224,-0.1369783392437121,0.22113911856949253,0.08377814101618666,-0.015502723427385798,-0.31935836428785647,-0.04181726215940666,-0.14687034015037356,0.0011129393529121165,0.2332155498266043,-0.09707974015999313,0.13125678366159765
0.23080696928898592,-0.01723337748642753,0.2085376443622776,-0.3574098127058791,0.0685730497121319,0.057732394807265615,0.270844933376554,-0.01912391800901872,100.0,100.0,100.0,100.0,0.27069286610728166,0.05550115066891345,-0.0003094001250526224,0.06343249179505644,-0.07691066249222119,-0.4386524835063207,0.11940582043100652,-0.2724063348950703,-0.19943984257448155,-0.19943984257448155,-0.19943984257448155,0.06115313736265601,0.20891457616153114,-0.10853737277779371,0.010544559192191789,-0.049079391381472465,0.17799682616241697,0.3680525157173133,0.18331638676793469,0.055438085794839775,0.14069980571103854,-0.13235925919993302,0.10775552614825454,0.1507077212633452,0.02366045435629647,0.03283334522384266,-0.08605440223150977,0.21339605323906094,0.08899059477596508,0.18247860609127364,0.03994363494148456,-0.013649271324626802,0.2099474908337769,0.04153286779682741,0.40358502432523813,0.1780301653732269,0.09686128860447646,-0.21784466685612214,0.07151902788749905,-0.06327090385913653,-0.002267111338503821,-0.3824462805156132,0.07508000548678063,-0.20662138113119577,0.12185914350304736,0.25316505838405273,0.11766333977398588,0.1492992842011194,0.09054086602550757,0.04684449206517318,0.18341501590165465,-0.015884139868543062,0.04629371037379219,-0.46417180445992456,0.12752418832784645,-0.2676006199311942,0.136432739460989,0.4267480369608772,0.2429168563697779,0.14431628995927967,0.06589146373286825,-0.014051823352308639,-0.1587942393081386,0.08844647707870293,0.14780761992629385,-0.061643261642733316,0.10887408649921718,-0.05741794494987498,0.17533120057444912,0.24388652866115565,0.051100750766393144,-0.005811725801260385,0.18336711070895842,0.03744348594836121,-0.15396195852422395,0.03744348594836121,0.07239467654916176,0.02592973518824149,0.09123189782947255,0.19461627986572405,0.15547645863768658,-0.265780740355322,0.12301913438687505,0.2154894475488091,0.09897288307278691,-0.017298720754882937,0.09392177076288272,0.09120809003420435,0.0968132317378736,-0.04030547088642159,-0.04305001746240862,-0.2100996705955172,0.09204911812036902,0.17144600357223463,0.3538305454685662,0.018638462273108163,0.20700170698961162,-0.34288600440979017,0.05452202284025984,-0.22379789187021532,0.14938694928820676,-0.06126684754169095,-0.009908817819142357,0.0654899738303304,0.03773421794912818,0.3851103202236878,0.30269599315033213,-0.08048816917363735,100.0,100.0,100.0,100.0,0.13018440014646482,0.008947406340495553,-0.016194745976436345,0.010009306067199884,0.1956713380912362,-0.130024055630436,0.1956713380912362,-0.3551305390663985,0.3436686156791186,0.28798205279973654,0.2929263327012397,-0.3821284886524867,0.24074125043034728,-0.22015711521583972,0.2916409732108318,-0.07596032241550357,-0.04091525080974737,0.4111118724145347,-0.04091525080974737,-0.08979771168188169,100.0,100.0,100.0,100.0,0.17111636576074063,-0.005163846403306388,0.06458544725724272,-0.20550503665679615,0.1931715631384943,-0.22818851766276732,0.184962152594834,-0.17121742392049039,0.2088253968748027,0.03704819050035421,0.2088253968748027,-0.016468857129789904
0.19039513846243752,0.08674061170389198,0.06207862229704443,0.08865287666208399,0.08477485182935719,0.06948069090309435,0.08477485182935719,0.01588867583200114,0.09597577719550862,-0.1278109780593652,0.08306170946432567,-0.08668719148614537,0.05995035245593383,-0.1918089195028385,0.2644030202185452,-0.31169744729885096,0.24306388947449167,-0.13589158712175284,0.4267305564854409,0.14857203027586716,0.17667050135803325,0.038942353333493995,-0.0482861999782756,0.09866592760820385,0.1495846025998117,-0.1605874120467479,0.3099245115368554,-0.10414448778272707,0.07133761662780094,-0.13591519868632987,-0.045274603680936484,0.1450840420325502,0.0517521179241847,0.11755052355199369,0.10681606010748074,-0.03956046590367579,0.1813908477032093,0.420868234943674,0.10301167084501071,-0.08976839879329376,-0.020046447259742806,-0.31105676410579464,-0.020046447259742806,-0.2498336917845792,0.17995891145763487,-0.03183076494538385,0.05718435046529351,0.1147116206030932,0.13075836023856197,0.11289998637753058,0.10289395698245032,-0.11932589627644764,0.021478663313796484,0.2498861752901126,-0.13731891718705008,0.047160832046608675,0.11775181965597097,-0.20626995633012019,0.2924678342865618,-0.15614946997374496,0.12179311441744509,0.2759646867443191,0.03580447409349918,0.054779472844830326,-0.04071480480777476,-0.3856996420114152,0.10256718274535509,-0.21942827120347932,100.0,100.0,100.0,100.0,0.12516040072455764,0.015251493506172865,0.15664204250293817,-0.14923088714703822,0.0906203317878499,-0.34576493806490544,0.2095931289762765,0.2083269269841764,0.3220997573830923,0.12024399206368115,0.12024399206368115,0.1979958401687219,0.027815096377588205,-0.08064527175256442,-0.014281450523029857,-0.05543159347974954,0.1848003415735712,-0.10747492865342398,0.1848003415735712,-0.3695399834795215,0.13021759967364652,0.16144760836046856,0.048331924693515785,0.16144760836046856,0.11653823023546744,-0.008441940239211607,0.07237224151320426,0.2322852206527517,100.0,100.0,100.0,100.0,0.19599336674719176,-0.20825576968964488,0.005257899366690091,-0.057380464904840306,0.11584296257454627,-0.253764635914705,0.3181588714139991,-0.2528809484998372,100.0,100.0,100.0,100.0,0.03869435408058471,0.08144365553013719,-0.17008338530876665,0.18761768735552573,0.059324561932102726,-0.2505303545214964,0.08593646495349566,-0.3218966760664183,0.16225144449983747,-0.11286177485107993,-0.0651108165708431,-0.04235314170451884,0.03568780939658609,-0.4057232269264821,0.1724553261925414,-0.3760338513297478,0.13259474741861144,0.09730302402621471,0.14878684373757173,-0.2257435536898526,0.143619322651234,0.039639074181786194,0.143619322651234,0.35319744802305697,-0.002139844562291153,0.08123143868129683,-0.07126177148383112,0.05762496581171812,0.17984656175510583,-0.343221429286146,0.16832060293146306,-0.27491721261779345,0.19856324150152233,-0.0785668514600764,0.18214214547869037,0.01884616557023403,0.16829681841866015,-0.41805605850715005,0.14757707453603613,-0.1535832397479608,0.11406984121527931,0.010012327024047307,-0.010440517139598662,0.03436119223767714
0.09985400986160105,-0.17337934827615414,0.012276421096853778,0.09770333679794602,0.094430249531953,-0.14530443313197017,0.08190382448973171,0.06684724271954,0.08943793747542167,-0.4407485278164832,0.157925873595525,0.17202429545281628,0.06288664963307372,0.25253083059664133,0.1288463714733538,-0.029505620032975924,0.18660190799469156,-0.16564539134232842,0.14610418572261774,-0.3602621059368898,0.17875146491558438,-0.07728785941809561,0.1993082518806778,-0.21428805317153377,-0.0611203507437786,-0.4215278835780625,0.05816391762653565,-0.26601334735489757,0.007104362767696229,-0.2294361730131761,-0.09849705785362443,0.1696279978754877,0.21787026874618226,0.15242806372234097,0.1507752741600016,-0.04109673567648066,0.11900149661394846,0.21806556811693725,0.3085765749170849,0.09119652027297193,0.12117605680003883,-0.26567060756512856,0.16456777021141322,-0.28965830167288514,0.1722870263790834,0.09271890773966891,0.08066796474848495,0.1334246275150178,100.0,100.0,100.0,100.0,0.02996376665296568,0.17260601777146106,-0.028757221557785352,0.025660234960762744,0.0901119458574819,-0.24441053999455706,0.33731031495087965,-0.23781078668323763,0.32113389546341353,0.08527579399743927,0.07602682160555718,0.12780390225339272,0.07918759987190982,0.09199344016428829,-0.15821720211833457,0.15446412448971208,0.02888094871830794,-0.3855755825968438,0.20699432736373005,-0.3081791455275245,0.1462648378676839,0.1627640799986625,0.1351651400659995,0.061892748005926916,0.030118284589181865,-0.3679730540754449,0.26607841250120645,-0.2713717478785487,0.15713116894310222,-0.2924776928046651,0.11170801602047034,-0.17645838996431426,0.13855206326409925,-0.12631846662215254,0.11193774514457965,0.23145246442301814,0.10500183092147664,0.11881323273376239,-0.03939206028537341,0.025285045570090422,0.022911577571385743,-0.011694165092321317,-0.1829265259468262,0.1533009397326986,0.2475684507402881,-0.047672482100389754,-0.03688513749644563,0.1046429516969308,0.16463904284328396,0.016779838584928024,0.30362515697107784,0.16486437904904852,0.12955424504709637,0.02371660076634204,-0.13967796323301862,0.20467671220198574,0.28384315582647635,-0.17424118263556582,-0.16266136500417144,-0.4486039128548751,0.11873372617829067,-0.32306577108816903,0.20550043762136233,-0.21693346362227328,0.11762984352502069,0.22811337972237036,0.22589809209308068,-0.02767454434699687,0.16011648125141947,0.11847850563619307,0.08727978149120019,-0.2985766827636924,100.0,100.0,100.0,100.0,0.24779297577911463,0.10144718948997844,0.20455711593570136,0.25018142208142946,0.22165289414153805,-0.05710626962325181,0.2933823857295555,-0.08557906843932055,0.09618769183233074,-0.16285056206201154,0.17107107956116535,-0.09214459738670477,-0.05171329028505756,-0.2733047983531952,0.16663624855557738,-0.24106428812838132,-0.028569784311318083,0.3184755375530591,-0.14737150335443755,0.268325032447301,0.12787630824409824,0.015816792365219885,0.05005214520577743,-0.16524580211730927,0.08414281356420925,0.12025555076239994,-0.044977583408353866,0.0452367602355921,0.11092595296533364,-0.030532582090350868,-0.07056517473108428,0.2374575558837799
