ChristianCella/workcell_optimization/results/data/screwing/turbo_bioik2/complete_beta_trend_wide.csv
piece1_joint1,piece1_joint2,piece1_joint3,piece1_joint4,piece2_joint1,piece2_joint2,piece2_joint3,piece2_joint4,piece3_joint1,piece3_joint2,piece3_joint3,piece3_joint4,piece4_joint1,piece4_joint2,piece4_joint3,piece4_joint4,piece5_joint1,piece5_joint2,piece5_joint3,piece5_joint4,piece6_joint1,piece6_joint2,piece6_joint3,piece6_joint4,piece7_joint1,piece7_joint2,piece7_joint3,piece7_joint4,piece8_joint1,piece8_joint2,piece8_joint3,piece8_joint4,piece9_joint1,piece9_joint2,piece9_joint3,piece9_joint4,piece10_joint1,piece10_joint2,piece10_joint3,piece10_joint4,piece11_joint1,piece11_joint2,piece11_joint3,piece11_joint4,piece12_joint1,piece12_joint2,piece12_joint3,piece12_joint4,piece13_joint1,piece13_joint2,piece13_joint3,piece13_joint4,piece14_joint1,piece14_joint2,piece14_joint3,piece14_joint4,piece15_joint1,piece15_joint2,piece15_joint3,piece15_joint4,piece16_joint1,piece16_joint2,piece16_joint3,piece16_joint4,piece17_joint1,piece17_joint2,piece17_joint3,piece17_joint4,piece18_joint1,piece18_joint2,piece18_joint3,piece18_joint4,piece19_joint1,piece19_joint2,piece19_joint3,piece19_joint4,piece20_joint1,piece20_joint2,piece20_joint3,piece20_joint4,piece21_joint1,piece21_joint2,piece21_joint3,piece21_joint4,piece22_joint1,piece22_joint2,piece22_joint3,piece22_joint4,piece23_joint1,piece23_joint2,piece23_joint3,piece23_joint4,piece24_joint1,piece24_joint2,piece24_joint3,piece24_joint4,piece25_joint1,piece25_joint2,piece25_joint3,piece25_joint4,piece26_joint1,piece26_joint2,piece26_joint3,piece26_joint4,piece27_joint1,piece27_joint2,piece27_joint3,piece27_joint4,piece28_joint1,piece28_joint2,piece28_joint3,piece28_joint4,piece29_joint1,piece29_joint2,piece29_joint3,piece29_joint4,piece30_joint1,piece30_joint2,piece30_joint3,piece30_joint4,piece31_joint1,piece31_joint2,piece31_joint3,piece31_joint4,piece32_joint1,piece32_joint2,piece32_joint3,piece32_joint4,piece33_joint1,piece33_joint2,piece33_joint3,piece33_joint4,piece34_joint1,piece34_joint2,piece34_joint3,piece34_joint4,piece35_joint1,piece35_joint2,piece35_joint3,piece35_joint4,piece36_joint1,piece36_joint2,piece36_joint3,piece36_joint4,piece37_joint1,piece37_joint2,piece37_joint3,piece37_joint4,piece38_joint1,piece38_joint2,piece38_joint3,piece38_joint4,piece39_joint1,piece39_joint2,piece39_joint3,piece39_joint4,piece40_joint1,piece40_joint2,piece40_joint3,piece40_joint4
0.22076991630523357,-0.14900891187544665,0.3345472498097697,-0.12022418534512831,0.09370655632965544,-0.48508216038672725,0.5364021758000804,-0.05690397344332282,0.04703130855188847,0.09721872823912198,0.24191613320453265,-0.06251065201305044,0.1295286934841489,-0.14751062324691974,0.07534881481268914,-0.14751062324691974,0.17587122883697257,-0.4381438961664808,-0.007422167566755879,-0.5746106571783816,0.07318109025250492,0.07485876389669935,0.35223277953595117,0.009886270353856225,100.0,100.0,100.0,100.0,0.21003709374229754,0.07774836750336994,0.07774836750336994,-0.16570584711584158,0.09937875272083782,0.0011296561914843906,0.1648065488797961,0.0011296561914843906,0.09539473909677824,0.2766961675217447,0.33405968402830205,0.09719644680345797,0.12114540406756212,-0.06033053036707022,0.30028985590762114,0.006239359468667924,0.14727241871499192,-0.28205984218975494,-0.07675164606866883,-0.4584759531958728,0.07257330194960986,-0.06731932390361423,0.2970079952951882,0.05103924289815177,100.0,100.0,100.0,100.0,0.23399335251786132,0.2709707918195434,0.2571152380981305,0.09510005112998214,100.0,100.0,100.0,100.0,0.13262752992379867,-0.10349881488851026,0.05306215673873832,0.21662700932946488,0.20568048896255803,0.19376771962714956,0.20568048896255803,0.10301990563533364,0.22482761948895796,-0.12461834030042526,0.012264930548323963,-0.05356422082812459,0.04652025468782533,0.14298431055597058,0.04652025468782533,0.005411581833824144,0.0857175248155821,0.15830576979764338,0.015875952531466397,0.4360398577011562,0.1801782866117994,0.013541238429763632,-0.12758986400641553,-0.12758986400641553,-0.04397917977692253,-0.268755976747572,0.12086430455013608,0.09655855569246842,0.15875964662600095,0.13232818464510238,0.39453764163157723,0.24901294057175946,0.1770212185643116,-0.09131367057242362,0.04327595762995967,0.16992158628379384,0.22046314350777158,-0.3168224081039581,-0.04809117710928321,0.029211064221762575,0.15135709676766387,8.83306235427983e-05,0.8435732679738351,0.07607050158238637,0.2688116338701807,0.11598810441966184,-0.03456312794840153,-0.21400238505194658,0.1794249993243467,-0.2549653752489391,0.15273330724573386,0.08089138460759836,0.14311670400453447,0.01535004719807484,-0.024740866338195427,-0.1130066115861425,0.06505547959159595,0.46522642996076163,0.008340149108764017,0.010097968219406006,100.0,100.0,100.0,100.0,0.08646657986847818,-0.18628756854527045,0.4171394111664649,-0.06463074458090892,100.0,100.0,100.0,100.0,0.09033540238318524,0.06118551355112552,0.244676670601283,0.18684538160656122,0.169911237715753,-0.07886654300956605,-0.11551459292083952,-0.3577295507447068,0.19118262062615365,0.13870630687724778,0.19118262062615365,0.4712215456315864,0.3246602006464941,-0.06113950104802168,-0.06799996189015706,-0.06799996189015706,0.23613481463575337,0.04243843058507772,-0.033631127614338334,-0.033631127614338334,100.0,100.0,100.0,100.0
0.12975353548987528,0.0346612607915471,-0.0011238405400163728,-0.07945146339815179,0.10180268974880236,-0.14362937713268922,0.04777452239526045,-0.02353660146780251,0.03948328146763792,-0.18994246649000895,0.2381728649204869,0.09417470012291897,0.09651073241752854,0.2785884354640376,0.47392994682506046,-0.001179817685666315,100.0,100.0,100.0,100.0,100.0,100.0,100.0,100.0,0.1421805440784608,-0.37388640676673823,-0.12809926284008522,0.28706738549909905,0.16884226603995844,-0.035068929436001775,0.03140306002101008,0.1584816856175948,0.0743280901753684,0.0710975783484076,0.368731675398543,0.14559418458362994,100.0,100.0,100.0,100.0,0.21636634773123684,-0.33829415337805757,-0.18692901120352634,-0.06295662146828669,0.11286509330239708,0.001646360551655783,0.07919714914774341,0.001646360551655783,0.16336666257375645,0.11609494557437522,0.13425773605803007,-0.19939530246607637,0.13594964236220966,0.0756104287663623,0.11863063082754072,0.10361801412770441,0.20079514794100545,0.08703219414707386,0.390158450183649,0.08703219414707386,0.05025875758895371,-0.033805977450697466,0.4400643463985171,0.33726686669014977,0.15911390711591913,-0.5406718680923656,-0.022425171823466473,0.12988984644803186,0.23075426675219457,0.1070464479698537,0.14005075253069055,-0.4292448210651891,0.0966756813111199,0.1283862124510624,0.09025152904602007,-0.003019162936633426,0.0883520865628517,-0.2922577061366158,-0.13903868758571175,0.14001948331166772,-0.023212432712693458,-0.05401332837756383,0.1472688700851655,0.04055906132286011,-0.22036195171220815,0.625227253749152,-0.22036195171220815,0.0517238510265599,0.025429145901067804,-0.21962207942348208,-0.03423058375673241,-0.0681667279069064,100.0,100.0,100.0,100.0,-0.1350001695467413,-0.1350001695467413,-0.1350001695467413,-0.3191794525389432,0.35844919794659263,-0.2370723173765245,0.09896098419544248,0.4311569862925855,0.0830092513582841,-0.06750681206119197,0.07064189413267272,-0.058634364083702574,0.07303317442409576,-0.42604480853612625,-0.020000328573947943,0.10245493960937233,0.08730720451876267,-0.034240740079925176,0.41252626259606473,0.10125347820324644,-0.04567770417000068,0.09258050475227844,0.18478121876570802,0.038986485918400635,100.0,100.0,100.0,100.0,100.0,100.0,100.0,100.0,100.0,100.0,100.0,100.0,0.1542645743912103,-0.04936450149525895,0.4743126471325241,-0.04936450149525895,0.026043380605111816,0.15500758506521756,0.07033046725383851,0.16163360457043785,0.1802013023910381,-0.12585531679756326,-0.014391704513802773,0.18267192642576988,0.03548165517094108,-0.2230676379458283,0.5639197996290105,0.12160862298640249,0.13839974913445974,0.09856822745346037,0.02099175415893869,-0.030183177149936152,0.125656125295032,0.07931198874322609,-0.11503511057273513,-0.11503511057273513,-0.018575658110393578,0.16231846526852411,0.1837072890612409,-0.007932833652434745
-0.005445458165211862,-0.20074049786800996,0.06976190805360806,0.004413178255161673,0.12455994063226454,0.1424629442259292,0.3253249092523253,0.11152655289914248,0.2197167257084635,-0.16979857272470375,0.6039821890271441,0.06532845857917206,0.13150184294434664,0.044829346846620856,-0.08548463412986607,0.1920702692557627,0.38369999204156213,0.25617595146253175,0.2119405263971127,-0.1663959809307663,100.0,100.0,100.0,100.0,100.0,100.0,100.0,100.0,100.0,100.0,100.0,100.0,100.0,100.0,100.0,100.0,100.0,100.0,100.0,100.0,0.05510539602115259,-0.13405471077998166,0.3918906254165815,-0.11112132183513738,0.1379294338246822,-0.24538133758363367,0.39008135759512663,-0.0012920325913664613,0.06144687239145796,0.07978527429583994,0.14252235026960958,-0.04904294409976672,0.06606561878814067,0.32785886433397243,0.06504918610233418,0.20009490136922464,0.09979512891586519,-0.20617072574709566,-0.10750994601157904,0.08421418496321834,0.3626263741500478,0.09718956298309298,0.06475267288104443,-0.30610919086530675,0.10045620009035863,-0.14754301215324583,0.3593253834180771,0.18165700855004677,0.13299123226537263,0.34327890593317034,-0.004138949972305135,0.2610670595791214,0.09555624103613868,-0.0007888515223762535,-0.024903483102645625,0.13907323432681765,0.14332513329726243,0.34222525267261855,0.542291085940255,0.06139238969939895,0.2318748713746795,0.062873065674691,0.1393603629916279,0.10584127406184513,100.0,100.0,100.0,100.0,0.023199413511851688,-0.2144475424174358,0.3579612875796936,0.01273770246136488,0.024001173659318496,-0.24860734392437978,0.10702707317847339,-0.056566663925230666,-0.06393473105986307,0.1526563460564408,0.19318276275163154,0.2918208684604718,0.16203176088872856,0.12183259357038462,0.18595364113718982,0.02322892520803129,0.09850232639324415,-0.1432503069385558,0.09850232639324415,0.4884623229991998,0.11366917198470354,0.37757396826897965,0.0029680892747372747,0.08872796097498428,0.04665922916096624,0.12051543318965563,0.04418321101431,0.04418321101431,0.08222826814492931,0.1035088965232563,-0.053352999890668336,0.1656041419473077,0.24476879102359644,-0.2368479074301249,0.01210192035265923,0.043427949971945046,0.014237000478692504,-0.018346743893692716,0.514665566524136,0.10730067703074485,0.14386122545939287,-0.41020375108315354,0.3281406811650104,0.009883975873287085,0.0872694529959614,-0.179687197420016,0.08703546815379203,-0.02084310710116799,0.05073743346260913,-0.051234939879718805,0.017091394336720328,-0.08670850778665609,0.07352425215919592,-0.16110026246338352,0.1610045117192571,0.004641814295894275,100.0,100.0,100.0,100.0,0.061961125899100966,0.06636202328012138,0.0853713064880389,0.06636202328012138,0.08182355978831155,-0.010498167480405673,-0.008854594128216611,0.1181308477458217,0.1236281940640816,0.15151517237442275,-0.13398306104749663,0.046357855245902496
0.03627542916184212,-0.35309834289709674,0.4631946906629735,-0.14910953861758924,-0.004302365995189555,0.07934284176218982,-0.10762353530939019,0.17367315573186423,100.0,100.0,100.0,100.0,0.353217992254686,0.20870264412540293,0.12523465215817706,0.4884538540049745,0.08669601557398085,-0.06352355312139574,-0.08139085384495223,-0.06352355312139574,0.13823484179538204,-0.1250163675891568,0.05062214645186179,0.010247953111697856,0.1382518239991066,0.02617247920315578,-0.1658720587487963,0.18151841400122037,0.2063057266899964,-0.15864591380428342,0.2063057266899964,-0.22318078011638764,0.125383435146549,-0.046823859026747516,0.4126593359219292,-0.14771401241705231,-0.18551271412438597,-0.18551271412438597,-0.18551271412438597,0.007411403159959057,0.08356605254604162,-0.38861620421212156,0.5398461613247842,0.03977963349935705,0.08539502822956338,-0.019190703506121107,0.03839958853126617,-0.1954398313017947,0.15259446818310068,0.1944159850194917,0.15265137214898233,-0.2435741851490281,0.04666409279324364,0.09359700868041014,-0.1118216621278517,0.26663245220062387,0.09570600902790523,-0.006087622515574376,0.09570600902790523,0.06752686029437163,0.07120138414333407,0.045693042732176295,0.11861505400914213,0.0797925062102831,-0.021938164514672176,0.05128470275505319,-0.045576434879515224,-0.023662323777105688,0.10388357082250092,0.11735229424869772,0.06643501152270473,0.11959536255694839,0.17310913696655728,-0.07649612678735622,0.29971493300144375,-0.19112964683171807,0.08675949737011991,0.12690602317956715,-0.07265294977838602,-0.2165809989006545,0.08003250885350995,0.13557741438926793,0.14344713660203218,-0.18267392675205027,0.11108746288049876,-0.15298111865142533,0.4920177600252602,0.14502380238881807,0.25913497610447306,-0.27583904755764954,-0.012652477844408892,-0.2417654323540819,100.0,100.0,100.0,100.0,0.05932992832425861,-0.07621984593857085,0.37370131565258713,0.13492739818795774,0.11807885458557937,-0.005488497705041229,0.014361204498254617,0.11337227935623638,0.04249707006433556,-0.3351710491724561,0.3366308520179912,-0.039835670909619106,0.111698873870818,-0.05481814770281736,0.111698873870818,0.2946626256070666,0.08708457344441949,-0.11458851703956023,0.10920492214471884,-0.028542290322328762,0.1766886995390868,-0.06529464772454716,0.11211515313019943,-0.1095864626322746,0.10384969224531257,-0.007003564207095518,0.06939467578617342,-0.04188115233409362,-0.053980721261861486,0.08704032719841588,-0.08719465123343151,-0.013785126110649268,0.2238484059800573,-0.2089798012774193,0.011627737054170764,0.011627737054170764,0.06594564327287217,-0.24140812315027987,-0.002272788117270101,0.18666484417274226,0.14797167629299374,0.000969679052103059,0.09923013997572297,0.10897139454383264,100.0,100.0,100.0,100.0,0.15061916185610708,-0.018089911713857734,-0.027325537770013494,-0.16559568396953983,0.15846823746346972,-0.08756793755432886,-0.009118849646172315,-0.08756793755432886,0.14766416213952274,0.3719220396330193,0.02421352149484611,-0.0928898991801929,0.07134648113058001,0.07045602412120056,0.12445377904640463,0.08374947913715888
100.0,100.0,100.0,100.0,0.297826495414134,-0.1704520967903083,-0.02851885280288978,-0.18103725975338564,0.06537854142528418,0.0852909441476202,0.18615105812697372,0.16675800361376408,0.08701965587865797,0.3734101079803853,0.2012589623048064,0.16226308858562177,0.02549861006007479,0.01027644093346134,-0.09267422380958062,0.12320280614250889,0.010690168628541,-0.1534422796193149,0.13344912636680648,-0.1558536372613069,0.0984136700043565,0.15347175246708555,0.032022368582097976,0.23122452422572023,100.0,100.0,100.0,100.0,0.013742980607921666,0.31102393240057136,-0.07964409094762384,0.05296752966586379,0.10284151795452254,0.15006396627056365,0.07223633145541009,0.04862929282697173,0.0844506412137043,0.1573244681717772,0.012846426111224957,-0.23387778966259115,0.14793469686873884,-0.292534494908833,0.20740628840328007,-0.21303768571286097,0.15977936753334884,0.3436579425025563,0.15977936753334884,-0.4656832812928716,0.27214116960254353,-0.605266784923008,-0.07202077846324123,-0.015698969786837866,0.1397020026687238,-0.21730402507815835,0.12115783309968642,0.10459513360672089,0.1477824812425503,0.23669331364696772,0.2015110495130061,-0.12771119529667824,0.04675778839701558,0.2010805581577547,0.3457835397901292,-0.018038780368318026,0.15387164193314182,-0.0689592322631755,-0.0028866136843189866,-0.10474722545758933,0.03681665043915173,-0.059486509995476104,0.13376457088478347,-0.10735103757669553,0.12681659087863795,0.12588456895201589,0.07565013201947395,-0.26097926411022654,0.05483917359521374,0.022505238758120383,0.2878600386492868,-0.12429920777580514,0.04034148711911352,-0.15678832228375333,-0.06632959076390163,-0.12466753439618633,0.019653470237514396,0.18749128186486225,-0.021584646572064776,-0.2444891935411718,100.0,100.0,100.0,100.0,0.15588080664646053,0.023583440015382484,0.2437327004767083,-0.11863882203632134,0.1823034820963557,-0.48656899720084335,0.03546977581070192,-0.36619485964830106,0.003840422167994833,-0.09647923678526019,-0.19973898412662366,-0.043853526708950666,0.009330727963868909,-0.0064558265618797905,0.4735445332227688,0.15348668122690995,0.0641318863184745,0.2473704821676546,0.03857389746451026,-0.15609791528031353,0.06613850719154205,0.01830933447249357,0.49662251753514663,-0.16290836134586278,0.02684940362093257,-0.05243977682526874,-0.21898899881466494,0.029531444848779592,0.08171581422582408,-0.1577132462650651,-0.12237618326865934,-0.040710714623068876,0.016009502685996574,-0.09917925461280304,-0.08736702729948123,-0.08800636403786812,0.21838946153334882,-0.33674344223548247,-0.14440580290293725,-0.3740954092254167,0.052495840870928276,0.2362856310797673,-0.16043919865006295,-0.033743495920260186,0.10210237115629098,0.4690154145542079,0.25596745075811256,-0.13476896997377735,0.13292993159979832,0.010539960868146021,-0.0694941793587141,-0.012232180561902652,100.0,100.0,100.0,100.0,100.0,100.0,100.0,100.0,0.12248531300100968,-0.06524705612864941,0.11865845118793986,0.23407435159141324
100.0,100.0,100.0,100.0,-0.013963357851306937,0.1748845009426448,0.3515874102010958,-0.17102048459370478,100.0,100.0,100.0,100.0,0.1294491909963782,-0.2621746087942642,0.24122778698231373,-0.05827331861671585,100.0,100.0,100.0,100.0,0.09259760494051861,-0.3162547248263233,0.27709184969003653,0.27138833906039106,0.20293211335725442,-0.023593566365797583,0.1306485765696535,0.0057783708937507,100.0,100.0,100.0,100.0,0.29133149906400857,0.19998006554087078,-0.13250986787776423,-0.4184425194152259,0.17176504216908386,0.015111302296479473,-0.025394700822542984,-0.2912854840549609,0.13685972891385229,-0.1475403339263795,0.014808721973300895,0.3152138270938367,0.0724276066579113,0.13520976079094132,0.15103096159062618,0.19603291231819214,-0.025508029316634366,-0.21801139652963766,-0.025508029316634366,0.3482671571475454,100.0,100.0,100.0,100.0,0.07883403757671492,-0.11864387021958628,0.3530505618834926,0.047018671485944914,0.08199888587087217,-0.05636553247975006,0.0840057547463911,-0.17796159500433778,0.07832735432266996,-0.11466533502003634,-0.0552972917666512,-0.06238815956536388,0.20610695070882112,-0.25355760758339435,0.22583321213553456,-0.12047676465004395,0.06523481276801728,0.10140187933101429,0.07156459479739717,0.10834339972083527,100.0,100.0,100.0,100.0,0.2135324765907815,0.07312544018330558,-0.11849417100974352,0.27182983513753417,0.3485428203093104,0.051971052981859805,-0.1707182340384658,0.09310464759999038,0.12366480521683552,-0.4691314338954368,-0.06014223765939729,-0.08830666606413551,-0.05148589347084558,-0.1408908665038387,-0.05148589347084558,-0.28159467055060117,0.328657499477001,0.5439903999139946,-0.12451488725861129,0.007415508919596817,100.0,100.0,100.0,100.0,0.051397613428709216,-0.10039967023241306,-0.002104906593828698,0.2764340324930465,100.0,100.0,100.0,100.0,0.014504065736974703,-0.369009563659533,-0.08987679467497756,0.10736612072145348,0.1830680785435368,-0.1508270258425743,0.28239011018555893,0.21492191458018609,0.03565178704962077,-0.06578508949084536,0.3208959670067232,-0.05515410205619779,100.0,100.0,100.0,100.0,0.30349631557827794,0.3522337806346694,-0.12987262137114983,0.32476734234273025,0.044530967334745875,0.03723444046695694,0.3250681215550618,-0.007415252029617391,0.110576100194008,-0.07468687453900061,0.03989522430106991,0.2808158238322933,100.0,100.0,100.0,100.0,0.1447613348241247,-0.21943454645187138,-0.023616356155901394,-0.19861855528884592,0.21311053485581166,-0.3334606241974622,0.013932503966297381,-0.14122749500130327,0.28524274851605413,-0.12080456229235106,-0.075240553080072,0.1746195913197837,0.22937263566527166,-0.10190001532931456,-0.060140004355586696,-0.11443660953597531
0.028975756283036388,-0.14200619798745945,0.30850744908647926,0.08907057274924797,0.03876074452228961,-0.26568234532784296,-0.117557020895646,-0.08897638404235284,0.06218894873127125,0.22468082879656626,-0.06058462373088312,0.12347631816921291,0.02761013510111499,0.10854702440210448,0.36397915809938397,0.20607439160493338,0.143367828054158,0.0249162100682421,-0.026932376987188297,0.27141744288269987,0.15947969792804295,0.09630795630113503,0.14982791508281382,-0.20275654960783518,-0.13604914048859748,0.3241169666485226,-0.13604914048859748,-0.13604914048859748,0.1339594807387134,-0.2492839536477342,0.0014682722272134283,0.01948545566207085,0.19556954571660584,-0.06486292246414292,-0.027723846075883102,-0.3369644363571105,0.26751805421406916,-0.08546969376723675,-0.07248453668628707,-0.2873958491428591,0.05334587135318417,0.29090277436320544,-0.1309198852581968,0.09381132281133517,0.18055529281697003,-0.25759805473857855,0.03371167987748493,0.3204279314178942,100.0,100.0,100.0,100.0,100.0,100.0,100.0,100.0,0.013928354920212611,-0.32839892014072175,-0.048537906057782035,-0.1580959004153773,100.0,100.0,100.0,100.0,0.07601288351158053,0.1847085961084783,0.5042422852880144,-0.610725592274893,0.21244529823838557,-0.07135970758180087,-0.08643434577946645,-0.017710368431551438,0.07128664183592438,0.32979093597218073,0.13031578749811148,0.13031578749811148,0.08636058327258178,-0.30209527672427633,-0.06925281613882783,-0.08784813884825163,0.14033363740398122,0.018812085180738458,0.08534154961260665,-0.0915639971644794,0.21479227328320916,0.14335360382760914,0.17508814937759276,-0.13563018731665014,0.19791427848775606,-0.2626740696446377,0.12906366342103973,-0.09999304702057007,100.0,100.0,100.0,100.0,0.13309165416652557,-0.15712863212736755,0.4749851254366585,-0.13599041578950402,0.100303450052147,-0.37408902875682665,-0.11688452261536339,0.2863866558163849,0.059529036102500765,0.0644730781976002,-0.119476792492557,0.18605793776742385,0.011815676194554946,0.2278467597811129,-0.16739886916887375,-0.09939558680735622,0.1250962134515011,0.4514222130401933,-0.028294061823430146,-0.4344744068520443,0.18989341985577338,-0.33231549997821697,0.033083178466702334,0.1982671129097639,0.1257456698890425,0.21096437129025858,0.1859447493606416,-0.12926957843345285,100.0,100.0,100.0,100.0,0.14052974472008609,-0.21095751266565596,0.010690504004634373,-0.41503654687229163,0.1973211462987094,0.3642990913093639,0.17225790074731018,-0.17932158222104763,0.08734459031852723,-0.039501744665863044,-0.1096606817552655,-0.11633935767490161,0.004979367893178967,-0.13796185950383882,0.20198037943220304,-0.13796185950383882,0.2839452963018796,-0.18925590043064516,-0.03768376890608852,0.23372606071186403,0.17587730636841142,-0.03743357531856785,0.1761776961981077,-0.03295977749105952,0.08331509678215455,-0.5214517617615062,0.012595415133266417,-0.6135229244499036,0.07624405203478252,-0.07091484947728918,-0.02468220967733821,0.12055296835698612
0.1372010558406393,-0.2859011000566189,0.04235249617300354,-0.1498757229231622,0.0817608366860838,-0.1817354639237037,0.10005517689978226,-0.5477660485513248,0.09939373325412183,-0.38066409098550796,-0.01411180557829713,0.17729207224934246,0.25806297553887103,0.253947816746927,-0.18174566956926055,-0.8939583588796043,0.15819619492294204,0.09746365068103419,0.4245351388321227,0.26819938410220423,0.30552462211179904,-0.291383882655916,0.06725073450762399,0.1749010022209341,100.0,100.0,100.0,100.0,100.0,100.0,100.0,100.0,0.09259248829559635,0.2907714085025242,0.10437510997064317,0.11574010834984508,0.036932056145885114,-0.07014301666870541,-0.20806039685393016,-0.08754774247602568,0.042795631373993545,0.143698693342059,-0.0058706922917232465,0.08224096242665566,0.10498130431904458,-0.021897808666249644,0.13282002395011835,-0.06121205099208693,0.22879142760999083,0.23492278885100312,0.03925417351543106,-0.21084833931752014,0.3682924363390879,-0.2599412738414102,-0.17762910951950403,-0.34223975590306016,100.0,100.0,100.0,100.0,0.1324668067571233,-0.1043568446828573,0.44932832130037315,-0.11053707420120283,0.08294715059868185,-0.09201865943156984,-0.03467949170612067,-0.07755259003740247,0.04834821156353947,-0.15728367335830806,0.43031278633766223,-0.029881820194955597,0.06182341196342767,-0.03507621408302631,0.13671970415099854,0.21365571432455488,0.15928990250076644,-0.14601318662201396,0.17959416435495373,-0.14601318662201396,0.14764561607376425,-0.2630021923272746,-0.0486154339891528,0.1219190623411312,0.14307788108108754,0.034729191379947316,0.27129155103986885,0.0535968893166926,0.18848346015231954,-0.29208747771463106,-0.13156271837694564,-0.13156271837694564,0.24832066202156186,-0.2961779703972305,-0.12303900115202564,-0.4195123743761197,0.19690337166704014,-0.11975316069787215,0.08211127023648282,-0.17129449299790703,-0.02535803218107198,-0.2413843808164638,0.402668355757461,-0.07251217785412715,0.10463466746125857,0.16980539594372684,-0.03535173760512192,0.2635625338727573,0.1424005202396334,-0.15301421502842577,0.02430308706778955,0.11245676133640675,-0.0015258707887702595,-0.10553078225035623,0.0005049589428385362,-0.0799233817762417,0.1670669794693753,-0.17780884851447176,0.06868574147807448,0.09873935263852927,0.08944560124305878,0.007060173568252882,0.050534711343078326,-0.044545577988428696,0.2107987882863887,-0.135162638891983,0.38561809056720464,0.33586918035950164,100.0,100.0,100.0,100.0,0.1385360494489019,-0.15748711586846387,0.06754706305304124,-0.1703359560369842,100.0,100.0,100.0,100.0,0.12929613093501113,-0.03310521426603884,0.07882955702991563,0.1497790647492981,0.17236756724523986,-0.159026227955576,-0.159026227955576,-0.159026227955576,0.059687107091160686,0.10640053597986568,0.02884926951031135,0.18354016122368122,0.09794251898517657,-0.018153895206653493,0.1390455205398126,-0.06218549071839158,0.04591816313458988,0.37778336048089106,-0.040554037960701,0.12144819905739218
100.0,100.0,100.0,100.0,0.10073181575645766,-0.2113666575393941,0.02591052920768487,-0.018382393205281122,0.11659179137267069,0.2612209183107425,0.30078117674027216,0.27471239321098606,0.06359395888782651,0.3257056596293191,-0.02154617424419497,-0.3703044987207177,0.1287044992895895,-0.2843138385180377,-0.02263103149858305,-0.05623529417562475,100.0,100.0,100.0,100.0,100.0,100.0,100.0,100.0,100.0,100.0,100.0,100.0,0.06611640919318913,-0.3454448642526883,0.20553870149779857,-0.3000087653427105,0.10560362807323753,-0.3711687143237239,0.25813016498838204,-0.1610329241743882,100.0,100.0,100.0,100.0,0.09774548476216718,-0.34703859813199667,0.18809607430960978,-0.15280893505949722,0.0867172854959903,0.06357262134964059,0.09761131549196578,0.21759059790361326,0.13648699376391166,0.07997695985443373,-0.14241394076397623,0.14297106481726657,100.0,100.0,100.0,100.0,0.04875670718189716,0.15863912728845853,0.05874638251037387,-0.4494766257612318,0.15804629872589077,-0.4186333258494866,-0.14937931674920535,-0.14937931674920535,0.18186756203574972,-0.3251503014944224,0.18279438369140744,-0.06101952428284782,0.28624858251194,-0.09554308062918129,-0.15044598753942315,-0.6197717961572787,0.15417307303777275,-0.21291405506533054,-0.11246064578076724,-0.2188706876428852,0.09603558738536933,-0.23614257500345068,0.005048004943350738,-0.18673716933117024,0.1216363303224346,-0.1990207319659337,0.13133912349539684,0.40458523740297686,0.11943648208697163,-0.14113131601922924,0.1296209134287976,0.13495465382808325,0.16087439317041813,-0.08563548685639108,-0.009117888250319086,-0.15857224752578794,0.1597268528781475,-0.37718001685202324,0.15669562907447288,0.0487638327384455,0.2852535774459776,-0.10830376248064533,0.06884267136867317,-0.18432532702604326,0.16162083653131581,-0.5833605636192851,0.31460928279522565,0.10713340862667173,0.12665206334355772,-0.195221232006759,0.13480191595728705,-0.18528129658664919,0.1408298962319102,-0.16869927942019147,0.13353530099555969,-0.18935855614939456,0.0932581156595687,-0.38737504230156455,-0.004573163148278037,0.05831587764046164,0.06806932536488035,-0.34404825851897497,-0.021001349834150425,0.03398432084110255,0.10352725759654006,-0.3277869481067617,-0.09841977410007588,-0.17981567064326076,0.10230160443819156,-0.6328457624439424,-0.004738997032444112,0.05454550905586909,0.13744980888878255,0.38067031810484087,-0.20847675863096493,-0.08265601049340371,0.07829313866768477,0.1034064766626095,0.3553454170605097,-0.06799955313585884,0.17847402743312474,-0.1848145369917613,0.023017069362088742,-0.7182716108206357,0.07915131967980328,-0.03594757610923831,0.682017181375307,-0.18963421506938277,0.2015441904543599,-0.5126314316033099,0.03949056790191319,-0.16085599065372613,0.1352973568630408,-0.2581597274639562,0.04980046812711547,-0.1901964454389455,0.1150712078189271,-0.18171725119987298,-0.18627838117432116,-0.009143780600343702
0.1716450417688814,-0.1279758074330789,0.6306737224990678,-0.1279758074330789,0.11156377415642728,0.31866649236828254,0.35907908229532676,-0.08444155854723145,0.170193224565944,-0.04450087911008291,0.08082429265177925,-0.05295456692526265,0.1504127092539745,0.133221171881376,0.08304676590205193,-0.17681323413877756,0.18433398810077095,0.10727959281453579,0.131688499099753,-0.6127100717506511,0.09902913116514099,-0.1596561672583925,0.16169618022280943,-0.5671348745732944,0.20876003663335924,-0.4486819067402619,0.04765321159070555,0.13263735560519493,0.02955821403306235,0.22334945651314975,0.27072328827913295,0.40604471028325795,0.010843689577081622,-0.1329968329697983,-0.06277215210588878,-0.24481725994516576,0.14635553610382213,-0.132633035858237,0.02668771235994081,-0.17730431190970464,0.13002984850819274,0.10621811790301179,0.36588479044228117,-0.5562695083072444,0.1034851784401132,-0.30128595452610496,-0.011725708847510372,-0.12111092185597058,100.0,100.0,100.0,100.0,0.19830638225485592,0.11745420811015758,0.002005134250392209,-0.347058874632423,0.008834108132473782,-0.3731588158424931,0.035181071662636794,0.09815490431978427,0.21660752932412788,-0.08454691356849972,0.090908345260025,0.12955432053684035,0.19014025959422828,-0.3486197847650834,0.3382354006042888,-0.5054860744682603,0.10714089263762709,-0.16996508660007326,0.11746725579242373,0.05106880420473714,0.23333793015915447,-0.144151237329566,0.5320963796245866,-0.1197210909514411,100.0,100.0,100.0,100.0,0.026445544276799404,-0.2561368651691692,0.04008160096071371,-0.03557740967333763,-0.044142601336179935,-0.1089086019158498,0.053185465644663366,0.07825606251931841,0.07894614157943548,-0.13861872986823562,0.16238867008573454,-0.09461140959289437,0.133164509537743,0.13537648103858824,0.21079769732516423,-0.2219599871710138,0.04652634192278569,0.31798506474785754,0.0192546792908621,-0.13013241037106937,0.08001705782820116,0.18819978400345005,0.10391277894381623,0.16888193076478727,0.12381191234616712,0.03354744445163527,0.025713417510779463,-0.3214149024668163,100.0,100.0,100.0,100.0,0.04518948585134598,0.03103363311581874,0.06938839259848055,-0.047104064017051285,0.16703604544003153,-0.3080874836012936,0.04765558688987688,-0.30283600043477726,0.12772686990659898,0.3338461199395955,-7.174809811887062e-05,-0.12137393581950688,0.001985872836100192,-0.1399441809494813,0.43980250498229206,0.294459843114963,-0.020746534079700882,0.23697327956193198,0.08097318844988412,-0.08336937477558207,0.12013017506333294,-0.22620148452073083,0.0955065932244779,-0.12243875675544022,0.055147843484665005,0.11218491367515776,0.10802827927954346,0.1177020070515166,0.2384409674036092,-0.13964495477264185,0.18552853086010632,-0.3839189766462786,0.0854897959113765,0.20640151378150684,0.017032330866751877,-0.03477943983194463,-0.01276980270245235,-0.1522318393573967,-0.040673422802839455,-0.2919531313745025,0.06788796694977184,0.04238193250522237,0.05987807280098152,0.13077757215142152,-0.02569676733867704,-0.03826634203672829,-0.06770367731489838,-0.16548718627760756
100.0,100.0,100.0,100.0,0.027095327321842187,-0.2342171760455531,0.22002642582969348,-0.12491836189022285,0.06073181958012845,0.09190292427186075,0.014306608842694635,0.07484203780890329,0.06836532363861816,0.2767696647849658,0.3929062200546938,-0.04250432122634571,100.0,100.0,100.0,100.0,0.2835102472808054,-0.10002122930204908,0.22565651929918235,0.10733113855028403,0.12939873847098918,-0.19696842862858388,-0.053157398408143354,0.16784482679153803,0.050720691085435254,0.08266506268726391,0.11137390898252233,-0.007845402822876456,0.09547273627963292,-0.25260764639930505,0.36858724776273394,0.14889567889344427,0.045023510883390114,-0.2815754373294139,-0.021569624676869164,0.2170400533284279,0.0575058813291784,-0.4244288442202593,0.0910906673824339,0.12760663000627673,0.037886375240613265,0.06804879923397705,-0.0776138015950012,0.21385576427916497,0.07489900751097191,0.0698819885969938,-0.125687233454168,0.1014690969511509,0.04537076958730203,-0.22616388340099922,-0.0029789036951834227,0.15670640088615254,0.09189055877980268,-0.08400660916353553,0.21151180724644383,-0.08879350548566646,0.054165605991917776,0.0582258921664089,0.34807279150150394,-0.0841245211359161,0.11991900936265104,0.09360416607569046,0.1206168979478539,-0.1293907315961382,0.25641020609948745,-0.10214085083711588,0.41464756160733013,0.06846346869175744,0.0012327018135938062,-0.16671713209166097,-0.16671713209166097,-0.0033771980253528844,0.10343764040289281,0.2113161590245505,0.14741221100109253,0.1032885281757594,0.02001304029035497,-0.07244298645269459,0.15264222707738379,-0.19379180614668795,0.22823358909609867,0.05106384072635865,0.12624142708815778,-0.2800078258555477,0.15789715813325209,-0.17354605463161343,0.21278208311734648,-0.42532728504822254,100.0,100.0,100.0,100.0,0.021843011723423192,-0.18289230506790632,0.1300604216941793,0.17874285284059857,0.07053401252168633,-0.07858367705902686,0.10280785319317456,-0.07858367705902686,-0.008945879626965775,-0.13450039859762253,0.4723725515398008,-0.14568261075206765,0.04863804666048986,0.18866399418896806,0.134063420623262,-0.0701135209518681,0.06555831851850827,0.06559886518681773,0.10112083560383098,0.17724674031416757,100.0,100.0,100.0,100.0,0.3791072491078784,-0.12085969032154877,0.29864149808402335,0.41920985918996106,-0.02184693924032788,-0.14014076945337278,0.19889534711510476,-0.04241103521606883,0.14804348698514175,0.22083568421569855,0.10422939133196013,-0.09626356118380289,100.0,100.0,100.0,100.0,0.13788242930039593,-0.21825892479113682,0.1882437697799511,-0.1791707352336519,0.1198536327361209,0.12943476395509254,0.07995722019068495,-0.14844115494250273,0.13658845149423524,-0.05975444217924995,0.2975709097464445,0.11136174100861476,0.13809333174923596,-0.32612735816604294,0.19934012300148857,-0.22765568333532196,0.09398428355800997,0.01644798382773184,0.11273805199795987,-0.045071611965624744,0.00717071423555969,-0.13449337435914532,0.10297453526072031,-0.07395044536005269
0.03766780983384328,-0.3154854552787685,0.23582780355616972,-0.08875766681152443,0.0702278390791909,-0.34644672728212983,-0.13970857821837526,0.15686526176394955,0.020790275781388895,0.33243971676215306,0.270320019014861,-0.009776345813711895,0.00742398509753836,-0.1708510721508577,-0.09016787656423297,0.0498650631968577,0.214547501248846,0.018726458634385566,-0.03830162327942259,0.024947327069661317,0.06687450307892064,-0.2395721664257627,0.0025339370439946135,0.1866409853002355,0.06638538414107675,-0.3422007621261476,0.5139147184019062,0.2932282859107691,0.10344503237126025,-0.12590042556423536,-0.00960502201779033,-0.018741784725786914,0.001004403118519917,-0.15174145491432067,-0.13916776435913647,0.06371740312954652,0.030578309523527032,-0.13445742385377835,0.19510865754287127,0.09399849456043458,0.07154219035932013,0.2806972500484173,0.13907644182427864,0.16486647884282618,0.2088796034506532,-0.12873948659722462,0.096531933485693,-0.030820027964296327,0.13875207284771462,-0.2990778402268502,0.04827307748154707,0.3258347196654952,0.028127791723627154,-0.02362896593598085,-0.01627007437508144,0.13504551575754317,0.08121937624119463,0.17118081111475691,0.14592708035134752,0.2685503528330987,0.016304773458701682,-0.09557637174249359,0.4376292361241208,0.2403080897526332,0.2253848554710844,-0.12754859529823764,0.3724072862907707,0.215663299230379,0.2323500677217164,-0.05734607540802318,0.22259053541366608,-0.41478516678193,0.13664244642699264,-0.13192019864888582,0.12315118548480596,-0.06640167638630534,0.058124234861387014,-0.2833443682408792,0.2203777697172557,0.37161973478320937,0.10085751272979984,0.23332151766363857,0.14011161447769796,-0.16892886304261456,0.05172446070644564,0.18762606027650572,0.30360456698302124,-0.013325304983332599,0.03026732673492001,-0.10170098812968208,0.46913939425055556,-0.11864719064568158,0.17047057578609304,0.3086584336986457,0.10186121468067898,-0.1463830103487846,0.04563513032093611,-0.43182350013068765,0.10619060439486669,-0.0327038439783259,0.05019385837247367,-0.37550460372087824,0.571762264508731,0.1861299032376396,0.060937997932301036,0.3324835117787425,0.12759054641104944,0.1464494866711033,0.08447648487444633,0.284242329445456,-0.04952738789377661,-0.08556888936664686,0.08758140459351417,0.021428467861793393,0.11472060641559037,0.07299628153458565,0.02995581686087263,-0.05322309406793655,0.3123392576661488,-0.34328641190870923,0.018637440412679392,-0.1305530807012719,0.3549298363806086,-0.15860236347484835,0.10984903869768123,-0.4116247044824764,0.20326677061156523,-0.11202878547404797,0.012517659178577688,-0.12652192704545942,0.011309443400094203,-0.31166425977181333,0.06060494103518784,-0.26513871704538133,0.1486473454761132,0.2678001014570866,0.1899046701877692,0.00456907627685961,0.0873054514731024,-0.31324659162726864,0.13243912819220116,0.3695910900761312,0.3317448468218268,0.23909358638583256,0.16471619661250336,0.22864041098259377,-0.005422075811108332,-0.20345385438349983,0.11701533436329865,-0.38297587758112045,0.2236227205859146,-0.24479969642026045,0.03638741526403101,-0.18740458650921896,0.14267373776157827,0.1654165416215053,0.20673257009547194,-0.48170857423424085,0.12356822278359339,0.09927893733123772
0.16872860823711208,-0.16322465913140852,0.4558832444810282,-0.12151882454271906,0.06010095695084919,0.10670138986760024,0.12288650843217325,0.0524115617397119,0.049609332584256705,0.0976872600527377,0.16098496552821717,0.2060160253962251,0.1385423371752881,0.10599923649204707,-0.09736014283065783,0.14375154458822756,0.08906691893635542,-0.1809968401204495,0.13428065896150057,0.216848956879192,0.03106349723032553,0.20918592008492626,0.16558844457019525,0.14244228995675315,0.0975943053427852,0.23777100148666463,0.22962633774347238,-0.019097360116242065,0.04978318377939017,-0.1022796820381087,-0.07035270633158613,0.007593278367637152,0.04136251421667338,-0.08421198159369596,0.14758527754872908,0.09231569248926245,0.02986672395455739,-0.08957860817476755,-0.059631279830077585,0.03321181685391887,0.24626894399050456,-0.4108554603692751,0.13690006071509478,0.3334004583682231,0.10745526866962439,0.05186470587824259,0.09662683277357853,-0.4570106262932656,0.05850545851768944,0.16263130954607702,0.062356438976305176,-0.05107605942798439,0.07481253249985384,0.2032933197077666,0.10196525719655819,-0.0500289086884876,0.08323013146269083,-0.3858618728412623,-0.06715858586694558,-0.33498220085800273,0.06044924253498677,0.15629174272773438,0.257798008361379,-0.3605819177249126,0.052431912226917704,0.19189593971956243,0.10668890530441648,-0.30300264204209904,0.15378162409512058,-0.38868545047429937,0.0026854451021288,0.030276362403615024,0.22574894039116833,-0.36265940461919177,0.08644666456882018,-0.30610466544859205,0.09698113330741587,-0.24350221483209886,0.09180155253402589,0.09068923823583772,0.37210506921273856,-0.2502811960420227,0.0869851961579751,0.009970798859445074,0.08712026058318896,0.11419159969275208,0.21603115591552702,-0.2708204678062246,0.14255931482432876,-0.07935368932492334,0.13717090954787833,-0.07935368932492334,0.12503711179460147,-0.3872460947916419,-0.04848310020078315,0.07631939880998044,0.19605428584958856,-0.146473876766431,-0.07212400497486214,0.3203119268759295,0.21151949120641567,0.12877132699872204,0.07310988810762764,-0.1780762282543891,0.12033060624336832,-0.2256579292076239,-0.054408476923536245,0.17601448485049623,0.11812495846227515,-0.023718660653735832,0.043565708610531405,-0.002981519170801722,0.2719512079195512,-0.281270873776278,0.16219107967356616,0.11563374035448716,0.11813828161313583,-0.30877408684200397,0.21469437569184951,-0.2982664908489314,0.08587683594160692,-0.05730973518042394,0.161756060122451,-0.34120333265214,0.16801750745072425,0.5380412246057524,-0.012680401227590052,-0.007771873940156451,0.115032894138028,-0.139485166492684,0.10438999954778425,0.0863699693026343,0.17192679456463733,-0.44473010866924223,0.317072884598999,0.24540856118848697,0.11101058760423164,-0.2793511502609876,0.2575028486227781,-0.1674289984749666,0.06359207051067031,0.06717897417089913,0.19961881663826217,0.30351639775442735,0.15769897912817282,-0.3084359164902776,0.08872814111237716,-0.08497947011054754,0.10245927842005917,-0.12126377598564414,0.20706068984919387,-0.5617709245418959,0.07470268241905685,-0.3803539660086629,0.10086163268438257,-0.5301356154198766,0.17926295463489686,-0.258175635522329,0.06204063288757711,-0.11241019052871708
0.09765622857100034,-0.16790086286852016,0.08168750421174309,-0.004074581921838155,0.06181224400674855,-0.36221497104949807,0.1602650498721522,0.014365196202648802,0.10602086882209694,0.16639990671962085,0.11898770093318226,-0.10511861155724457,0.19355599893281727,-0.22660770696924362,0.035231810019693346,0.04499681040455984,0.29958353943454424,-0.5323675182563569,0.0824127771075818,0.2406501452005968,0.11493590575747453,-0.3373893267130482,0.2319599994793734,-0.29922466531952635,0.09738027241394195,0.12585060611281473,0.1365609251193044,-0.0846886668706398,0.11874437501907688,-0.15818735214616486,-0.0860402324036171,-0.2895351588984748,0.07784404643599202,-0.0868651725501256,-0.025602262919751456,0.2834033245918783,0.16651546943758308,-0.5467826386511357,-0.05311708663481453,-0.03777932206020919,0.16089024597262047,-0.17533418059854666,0.08729002409170529,-0.1727779916216967,0.10289294482530026,-0.3836931570538077,0.08815668410745138,0.10933911739417188,0.10789545698116221,-0.16645165363597608,-0.06190433901041607,-0.2646579953430109,0.06552156843531919,-0.26087919539841786,0.16980741241139607,-0.04381695481904854,0.18647230856255242,0.21255285880062016,0.007906376384505816,-0.16624254596307264,0.2297520159691289,-0.06300142223675137,0.07395079454361021,0.040835491493126326,0.07249159808661171,-0.14331867180211016,0.08161477862516583,0.22400349854495416,0.09188112416354612,0.2982982091799088,0.22178070802282518,-0.07086468979182278,0.10642661348341181,-0.3624183979222063,0.004461973963624272,0.1955376809438325,0.1431501309252424,0.1614738771980533,0.12489459022515842,-0.39811249561703843,0.17350143071254107,-0.06578272516051141,-0.06823731419376697,0.09703954206376049,0.1198878919004891,-0.36734616162744166,-0.0028903463610519195,-0.37244166396203393,0.11760143882760496,0.14090477070708746,0.11807021635735383,-0.133815547411143,0.057356082822142336,0.07444002379504062,0.27432183630409174,0.14739563639499337,0.28770544065096626,-0.31535205794439214,0.15976838241128644,-0.4772126457351281,0.14282513624576798,-0.029026407467874757,-0.020772129844363114,0.10103024648844566,0.1545286874349055,-0.08682848099600943,0.1662794556981247,-0.2224206411501291,0.09192753018147437,0.10253204931294371,0.11568864933836204,-0.5563850713596418,0.11038427362382766,0.009392817380848361,0.16916157500213908,0.12902628476089772,0.22825122774590112,0.09283825624848047,0.17637357548430183,-0.3061511461315652,0.11806526275582609,0.3009863109480247,0.038874298722371664,0.0016171100448491987,0.1326655654241143,0.18156407550734358,0.13770380764899595,0.295894243542307,0.05761337330705847,-0.39131070793165196,0.48805756937822975,0.26086014295612836,0.07042326065803411,-0.057604546731098855,0.4150410345338977,0.26681528394167703,0.12514473807004878,-0.35621463889775545,0.17795629273857488,0.26677483147776304,0.13470111130241733,0.13343924300180768,0.284938609121621,0.08757982853086385,0.0796381244689016,0.12968421015860038,0.010202199053462181,-0.058490915643569105,0.16643088391900407,0.3455582937519954,0.33050456944428014,0.003357963395798103,0.1040481597511504,0.36696197944776876,0.14219351954721635,-0.07560590866195224,0.14538949419517194,-0.18177071090618874,0.16513026161739275,0.23002146948371294
0.04469659682658095,-0.35324248006963455,0.17190171147689756,-0.06421115473976162,0.24032522533465459,0.10599786430519696,0.1327640381826268,-0.20835248032959594,0.05841770319615535,0.017555515536836513,0.0988654605039576,0.09306433982202195,0.08981647246834219,0.22836814076732342,0.20282360834248622,-0.43460588997736543,0.13228208618371606,-0.36936117427611403,0.08849155874266108,-0.2805232190874739,0.29044258516052224,-0.3242347019718044,0.15663754320411585,-0.41599715848051466,0.10338680543883416,-0.2657738305982253,0.16642485052965011,-0.119578637225982,0.0753480290739279,0.09901536485593243,0.18084641168490473,-0.3361187596783126,0.09666598215564454,0.20037008803067285,0.18843829001556084,-0.5358942569844763,0.10691454809961812,-0.39283833186425865,0.08997875831643731,-0.327672878381993,0.05734473192571893,-0.3188550864357073,0.13483808613507156,0.051656457164550994,0.09027324120440461,0.1825115651828104,0.10999640395763369,0.20881788647003233,0.07465078334947885,-0.26726332682341125,-0.07963833710241837,-0.3425956235931385,100.0,100.0,100.0,100.0,0.1105462158020014,0.09450852568261031,0.21048287015318662,-0.07919531916507871,0.05103965782737488,0.2652516760186848,0.1217757139259433,0.13917723669838528,0.0980438500680021,0.11787355219114021,0.11638276891635171,-0.2044864153178953,0.23667770647997566,-0.09822024940515207,0.17734744425332521,-0.3283226825303007,0.07842286175895613,-0.15925441759594397,0.16206169357891576,0.1164368491311484,0.13045995315296316,0.06432266714196323,0.0583143550594748,0.1517600546848687,0.05689479875381407,0.3635237109782555,0.1941507757264479,-0.31685222866126306,0.11342696835509981,-0.016927029740477127,0.17851154255190022,0.2668879672431635,0.12176825056357843,-0.1039613645530677,0.13172693260389423,0.1362158322496324,0.12825087064027513,0.04517053931964836,0.08789000237729667,-0.15058991660462392,0.1603637029706041,0.03905193602187431,0.12706402698042857,-0.02830787804599757,0.1291810693130213,-0.17344396578355692,0.04414719995111409,-0.022771743288132543,0.1050138179929391,-0.16144004363357323,0.2086245422881826,-0.03598484282505904,0.09632046603433758,0.21970896420768973,0.10533733922872474,0.27068368025704326,0.10631880766203461,0.2135768843134931,0.12237792434510146,0.33186433757880224,0.08452659560145696,-0.17212716960202598,0.03309244727444825,0.14728379984897252,0.10228273102475155,0.18421050289731267,0.14743395520631686,0.010650335025548525,0.13521572173757707,-0.04926203478373736,0.015587713413280989,0.058971236382602564,0.09023412102438749,0.15046677864196192,0.162993733187045,0.1451397310720098,0.05938838456292832,0.17925552973104888,0.07471731057710151,0.18346792447682458,0.11948080150520035,0.1639860197710002,0.3359703864152292,-0.12233119425968818,0.10018610640325967,-0.0352029713146158,0.14302701499367118,-0.12807137672962912,0.09442606760993733,0.1940922686268184,0.0678873283811374,-0.061445781774586664,0.08091490101337716,0.07812175840688593,0.04882374314771959,-0.027896257304738006,0.1411085982628448,-0.21612535651744078,0.12597391133954458,0.016127661713401593,0.12298034028534861,0.05020115871158316,0.08983582864345518,-0.006016363864452125
0.0998935119038748,0.08981342963792285,0.1265122352056855,-0.12784814149089585,0.1269842539058599,-0.11606441689405754,0.1028719221834114,0.20713381191744845,0.10745165174662,-0.27613589551755857,0.10614451777969844,0.255334912332404,0.10525164527392203,0.1518830305428982,-0.009637292371616767,0.34594599677528454,0.09649330754565648,0.129394308962577,0.2748722277430275,-0.15909490207516205,0.07428512636234581,-0.02586111405337147,0.14071280619436546,-0.08559021328165028,0.09364750421421096,-0.3100532207750688,0.06859937764097285,0.04213502456687156,0.06116871075650092,0.17912984870056353,0.03707809505113538,-0.11465150995072149,0.10936236942945121,0.06553528064403276,0.1495536794422652,0.22994534421127621,0.14586602964975803,-0.05048288288069055,0.1511436485642274,0.0026578114999862568,0.11029564656830732,0.11685916313191523,0.1428285654845267,0.24837186694459906,0.1347254655120833,-0.20896075887161472,0.11908497723842093,-0.11153660597711028,0.09967143284728223,0.1573206842472818,0.16867646923997243,-0.2448741758066243,0.1248866862367532,-0.11875104476946005,0.147835471360041,0.01578563304201436,0.05448797229285716,0.20707385211713628,0.08682898944254146,-0.055130499567704556,0.0762254841518785,0.07962381089410456,0.14836656164053255,0.148779888543851,0.08759852674243063,0.09357125033039615,0.04724109251657904,0.21494441130380462,0.09784124300961528,0.16725921400249819,0.12829403348052343,0.18435577191089458,0.11884155824699595,0.17052436968640564,0.1220350618145061,-0.0990031943823919,0.11702722769463846,0.20195372717013715,0.2662102610344788,0.13050065995218077,0.13957778485208197,0.1000144264675202,0.03421146111589235,0.20852691409790103,0.17728037218025178,0.13798744750067501,0.11684386210109673,0.08400440944076284,0.12943530452935542,-0.0024406457877719917,0.06468605365885909,-0.20846552080042885,0.04779225439092448,0.045349426385067865,0.13414118105642134,0.2381210890131068,0.12399736683251102,0.1146713750017007,0.14036180308774143,-0.016317827670413218,0.13568577986217967,-0.2867045957066368,0.2874229273080401,-0.12619877945188968,0.09103038272530144,0.11594377372326217,0.06075503447330059,0.22511649219974988,0.06256017759384655,0.06142097509004059,0.014578282546897317,0.22399294588442048,0.05150992872853347,-0.3179878770133559,0.09262450947063383,-0.10875219459530583,0.05519186336271113,0.22333801932157035,0.109756008005193,0.0015261878511687883,0.08536317318939379,-0.09007156723917399,0.15125087256401434,-0.13984172455700888,0.06889013974351932,0.294108627638878,0.13348225783139253,0.24653609899393134,0.10282159812989067,0.1761788172276842,0.05243412217843297,-0.11494799836279354,0.14178186611022084,-0.10359933010485563,0.09069434333380269,0.20454285752400153,0.07921652937241547,0.0722995668151873,0.09256556384732262,0.20813743221496128,0.06896705743429393,-0.061338611826490336,0.06843214860738991,-0.14154848298583717,0.107444784644281,0.08911559908980983,0.15781035577962615,0.24903594162660522,0.12644060165355417,-0.12245355660016854,0.057374825400120955,-0.14199584552901168,0.09813421679924833,0.1476959896293813,0.10973677808294305,-0.02332740988097315,0.1045747089583898,0.024274748629943707,0.033764806383583326,0.2147535677689728
0.1852227149312059,-0.11217355071716381,0.20664192812689408,0.2304397524662127,0.13637837751357745,0.10779818802913056,0.03851342310680805,-0.10382574206913,0.16347162351791897,0.1554850222790812,0.15729089504154836,-0.09892555850749542,0.10957868096178543,0.1433199079623905,0.007413628921185963,0.38035625390690975,0.10585417653329579,0.19417123554679944,0.0722405761140531,0.15401780875273585,0.09115577520875143,0.08279965317183285,0.029490700697036305,0.05658531996538175,0.040960189751808804,-0.10901712550038503,0.3903019932286524,0.04478256470711087,0.07055214016598135,0.1096315070815212,0.20096875973148676,0.09315113739123976,0.15675706899527966,0.08371301614292925,0.14827628225666545,-0.17712764152652827,0.15962003560438504,-0.010722642803101631,0.1243753068438194,0.2177472223130778,0.16570899112239854,-0.14919045550871585,0.20769805597870233,-0.031164437166600237,0.049564263633266374,0.2867065392301372,-0.0048683045704007305,0.2352560055412184,0.1446161498476583,-0.056736630368217196,0.17350193231608918,0.18397728708478903,0.15094142517596268,0.15587655554887847,0.09947869695702741,0.22349093570802198,0.03940701350791368,0.1469913854324124,0.17604477487687326,0.20267277481231755,0.08552251438321068,0.12679738912216237,0.13672868888324066,0.24568469631289522,0.10153480666123535,0.11264596727528689,0.1448887709542747,0.21284171428913132,0.15700364647633178,0.10401217381039007,0.12568541802439243,-0.08374729450879956,0.11136662517283069,0.15466010314059372,0.13323349286441916,0.1504569907105017,0.12016476806705911,0.2118004317848494,0.22346155597975323,-0.10763053725255181,0.09104833184452815,0.17841153134676943,-0.004914870010484424,0.2618737902482854,0.09727819278401098,0.02013819806396078,0.07693820014329825,-0.2132199437032951,0.11569065943136064,0.17351607983938422,0.11575009129118977,0.158938578522786,0.1857371970478328,0.11338957595642715,0.07475992181521277,0.02876602304851216,0.13250575988916197,-0.20035609676764488,0.07423424588892526,0.07055912377937154,0.1042519933562182,0.19856843155223147,0.03888896087620869,0.20455189223393433,0.11426195393500435,-0.038038273444008966,0.12166348877237805,0.19158910913744517,0.1218778617042744,0.1280047652047718,0.09724814310240804,-0.07015536626155222,0.02889782523365458,-0.117082575895361,0.40561117455905094,0.3982746747552849,0.06167242621412446,0.1731452860135934,0.11896452423836246,0.3172333713099282,0.03712634987190585,-0.12335265111814389,0.35496541501474244,0.28925405517448083,0.08851102438195214,0.2520583168565796,0.15544648288604995,-0.11271666578705138,0.13594530879576072,-0.016307852027466097,0.15078914169343544,-0.0069477363617018945,0.13681579912596079,-0.02009636215693051,0.12232273267981539,0.12076627766093251,0.07786832099251012,0.1122711466771501,0.12103451726991553,0.05006470291094613,0.09602081163749063,-0.192736242197887,0.04820373119153605,-0.03526514309317859,0.10550505456180696,0.17487686303813257,0.09596528778373055,0.06251995156285492,0.09913459665226586,-0.11397287286927751,0.11851179645439605,0.2144761419972134,0.10127253279895748,-0.26682872767192084,0.2353725092195208,0.16464567626454832,0.0892541995620669,0.13530939740404868,0.019368995848386004,0.01608844527383181
0.13008917066477774,0.025860091105374933,0.12592942935082685,0.04254499342047732,0.0996089674620859,0.23738523759404587,0.08540385571727438,-0.1609918238846364,0.10673191413096823,0.1680494738178465,0.05420925397390888,-0.17729469194674927,0.16996770514522844,-0.022892069881684823,0.078269202154498,0.15247903150582534,0.10678196108402478,-0.17635171623752852,0.09363051758047691,-0.16156485165804588,0.09906654525964328,-0.13661289912934743,0.13043446370289435,-0.11180250064310651,0.07085247450041991,0.22658873856194678,0.13457327351937176,-0.32316392304655467,0.11784365142650309,-0.0023836362163112655,0.07886690250647971,0.3596047448833798,0.1655878934549998,0.12749336255022564,0.0646870287536285,0.19757072732976289,0.1206619851084294,0.25360618514606675,0.12968159077110689,0.48381095525134976,0.14342792435770196,-0.2039510829338356,0.06539579435905951,0.197688626497875,0.13833544131844783,0.09086944685321016,0.36456559977601016,-0.13428754058522,0.11624527106082674,0.12152534157352565,0.05189016976293013,0.2272619213015069,0.19286830716468373,0.29209221932884033,0.1220960193697287,-0.11890700483752467,0.08335118820074874,-0.13953751191288735,0.372345938170042,-0.19321978683440472,0.09753133322677485,0.22208591997000365,0.40318808858886734,-0.1529740022328335,0.1173441537460664,0.13877530781423644,0.1765043602627413,-0.10427324272883093,0.11241411292103293,-0.1722282410220673,0.21315848401193366,-0.15695653501414575,0.11210039096893085,-0.04084302741444265,0.05955893715446624,-0.07190152251497467,0.07488198588585111,-0.005649759707808913,0.23044163569277226,-0.09998261087261989,0.18531860290369895,-0.5213466805727849,0.04208841349791631,0.2627226746889716,0.07718779822731778,-0.26470826965231314,-0.01788698371070647,-0.0014424083096797463,0.12065356542689525,-0.05659723467102229,0.3707652537055499,0.22404748824002507,0.08689197307013215,-0.3269496799896929,0.05733264862859494,-0.26668544103211633,0.05894776655816563,0.12263729443338693,0.06162563911062483,0.0919674828133138,0.11185367188693515,-0.2273719363351559,0.12538999629458175,-0.02132808408202575,0.06710963359008448,-0.121338816592616,0.12743907711056213,0.20694437631758159,0.17209298390063332,-0.30418700493828676,-0.08254033837066922,-0.09413118942990947,0.14129311015918236,-0.16994859248325592,-0.05880503511852028,-0.1284514002423114,0.07388017188901748,-0.23973876364558602,0.34741447723981905,0.0027393138723826073,0.04869117922484427,0.017173436774903683,-0.0852397112205828,-0.3947443670936142,0.12174015782920256,-0.30227187850946213,0.17114402602973974,0.28131927078686786,0.06728841302151005,0.21935338192513082,0.05971552192151719,-0.04819119984857924,0.1246055352718701,-0.13953462029207264,0.26965995681037563,0.2893877027465697,0.16161535828437476,-0.1513679204421912,0.07299914467163446,-0.4147910702156748,0.0675256193737877,0.2991697829430388,-0.16989561601264253,0.18424594250538595,0.11757827424015042,-0.24174380246744484,0.1551999935837914,-0.38541921648724553,0.1731448716117444,0.11112151332879294,-0.011000401933268608,-0.722136001560403,0.06679194913098371,-0.033983315222336774,0.16618089253614562,-0.1666715603463804,0.09639715138864315,0.13087326336408814,0.11474661902949292,-0.026945177984871893
0.0700945824663298,-0.13142270954489785,0.024168053877962645,-0.11205668306058844,0.23037347753435083,-0.2205926023667837,-0.02402542780624859,-0.4413695607053129,0.032918769911369314,-0.15767955633429206,0.11815990395288703,-0.02775541918877368,0.06287473641342248,-0.005643791509522572,0.06789582074880557,0.19514417907970813,0.09885250703250544,-0.1896430909318922,0.04365197136428746,0.17254750234963995,0.0881742786387058,-0.19664076409580442,0.11911065651375094,-0.3568766949481236,0.13432127140686018,0.0010662836047370741,0.3021798195352313,-0.1328691956540245,0.15297206520824316,0.007649075353368979,0.17775475893569237,-0.04624780220854299,0.1185239116244165,-0.14631849634016858,-0.06405247063733885,-0.4224004664099967,0.09427462526371005,0.11537364258448964,0.09469354653126905,0.36947841424077915,0.03987115543406868,-0.16282101365012497,-0.08072865298842086,-0.26681684072997475,0.10773824816988473,0.32142927295223767,0.16751657211288234,-0.08993995799924337,0.10089960968746207,-0.5060766772928429,0.01500738373741698,0.11402884702115368,0.05122103012078803,-0.06803008287861605,0.1042866886966945,-0.13897577720957016,0.051954449680950004,-0.12278433531591494,-0.00997399694274587,0.12016711132224367,0.05803083781805395,0.37094768589589366,0.42774490772301726,-0.02790585411393222,0.10562128486857733,0.22449404200491518,0.13159686686430455,0.3462169677498319,0.2278923980467714,-0.17361613624285901,0.5574834099942412,-0.14935887611055376,0.13843663409950263,-0.09717410582715041,0.06180006341594019,0.21897007156414988,0.09417966699139693,-0.5216152603259636,0.08164261446642801,0.11086300604837644,0.18130914823125815,-0.10021290738056696,0.32089336884957537,-0.1187532299534481,0.11894660845780396,-0.19145418300750408,0.05603084211529746,-0.20306106442853128,0.16506395668375645,-0.4098925580530644,-0.07232361305979829,0.16955938831390907,0.26881179963850094,-0.16365208816749338,0.12431289586214844,-0.1617234186904346,0.12219955032853858,-0.5982133198304564,0.1910770715590713,-0.15113543691526313,0.10147083687594559,-0.13945686447551975,-0.09403994862618686,-0.15085564258759737,0.11049428408770626,-0.24211597812993735,0.012436964257708003,-0.09163670365599587,0.11822683221803426,-0.22963586616447673,-0.09129537137336471,-0.018571966917193247,0.12183332631834368,-0.13701619595139505,-0.12099608628898244,0.029222720336125205,0.15436023161222182,-0.15180320743000708,0.09339016186322219,0.12099991500185157,0.06251969853673248,0.18032565535557707,0.18653297385616424,0.004431682193054027,0.22492107697567287,-0.34342301209983206,0.06299159391751981,-0.07277928535742145,0.06293346774093309,0.11769863083656451,0.07435313872992635,0.4043009560903422,0.2224082390340571,-0.2687497627508572,0.06053711474543241,-0.1522260930432644,0.11132217275321263,-0.26139343402560355,0.1490233185093491,-0.040448860821757755,0.051807913074094075,0.14117049475380722,0.1322732755197139,0.2294431070501961,0.1004688951142141,-0.3218543270051599,-0.11405439215910675,-0.0892499566253618,0.1551718927609884,-0.0028130069761267973,0.4443362489970792,-0.06333457867949319,0.14026732285022994,-0.15590658114816067,0.032283000121876605,-0.026309718078987993,0.07499830037257393,0.22171909736459772,0.0749589304548776,-0.07767222680489835
0.05280103699851309,-0.11840031483118171,0.016971301015150472,0.3564104035047469,0.10960155914015383,-0.08277119090811587,0.3583717617324193,-0.09842374690307115,0.08193709979783376,-0.15704436949987027,-0.17259634002357901,-0.2514612976352622,0.22574955994331244,-0.14304301384092868,0.17175909941234072,-0.10772957860589057,0.20287892441596134,-0.6241915520127206,-0.04413279656299572,-0.1938413796482541,0.2431641277837243,-0.6203791181709029,0.39515119716899877,-0.10440432479512077,0.07876700787898444,-0.142082440125898,-0.07869213759079025,0.21647524253223766,0.2649001379611244,-0.03761348327638041,-0.09302814243202406,-0.32240434045797584,0.21515424069794517,-0.18096727780579025,0.07039820690245749,0.0607055499409003,0.0650380600502308,-0.09983163221567859,0.26720004318904916,-0.02783445150847836,0.15726437911031055,-0.14652832078850178,0.26306075239155713,0.026826907984232165,0.11834698088364988,-0.2579130455266315,0.23739450323169237,-0.47871795049585614,0.06492099580474371,0.28888259522992665,0.19932741912451604,0.035936754355965744,0.1828476613264491,-0.5092065189552264,-0.06439885077424043,-0.2085501084196852,0.11290826892759978,-0.6151670118619076,-0.020881477594654196,-0.035157527113890155,0.11976142046101776,0.12143849239216667,0.3926180869091915,-0.1626486965708077,0.14120870977741007,-0.15409572007873304,0.2130385565618899,0.09597924999292878,0.13573594027440483,-0.36967722609165427,0.2650288145369654,-0.0678770967852031,0.11909172913344483,-0.28951899814177107,-0.022104880409117345,0.027979023671248188,0.13808378690939543,-0.1705601273424389,0.2743624231805873,0.14746481619494628,0.1129168736924315,-0.15528905778287821,-0.08248251994029021,-0.03612956442882308,0.1163222420523803,-0.16265421506859495,-0.04889473876914608,0.18966512596885388,0.22169071674535135,-0.3901269740528084,0.18243766469218908,-0.14131064941216914,0.16642142318203149,0.004612663462969416,0.1027711117428695,-0.21881820890783818,0.1290064321678261,-0.157962085708151,-0.09938908734116662,-0.21110813008798376,0.1960259552826222,-0.5365244753998422,-0.04147845533825507,0.04363959817196826,0.11344963022720353,-0.16486587539313757,0.13191626931716116,0.151534169969166,0.09908334731662038,-0.35813661484648995,0.012811709421095725,-0.6952532491151214,0.21514778148419741,-0.17047499121621415,-0.08025955159241076,-0.035083988137686074,0.10816416855075739,-0.28147249192241186,0.28150601101228506,-0.08545773272487207,0.0949061295043101,0.14547583560015379,0.05782160824339709,0.07548990662741048,0.0645978719887533,0.29658916292088555,0.1694257779465269,0.0755336781442182,0.1283876104884964,0.0380633681254873,0.19805096432327318,-0.12656454011957424,0.11164475782184147,-0.39725283619432217,0.03097730068601849,-0.5111309762053654,0.12334208676606927,-0.3317237755850373,0.17235864726295608,-0.03636602646498416,0.14697710083215443,-0.1699752246552515,0.0038162612324037642,-0.23781996712180567,0.19196258541212002,-0.15595949861281624,0.5134756171279261,0.01827542808279109,0.10169732548016464,-0.15691155617475794,0.08659250196320237,0.020576821075774243,0.07084409139855222,-0.05436625262078332,0.15900958088156664,-0.037819387900569865,0.1601405430392976,-0.1567722299130902,0.0030558216760461776,-0.13944977729309144
0.08549539038589682,0.1354142528149501,0.16936818171765117,0.07659251895842825,0.14426264760489593,0.07717181308050156,0.4925156533851046,-0.09502363517163105,0.1561515505437575,-0.15421346550158602,0.14411723733348017,-0.25396602125694523,0.10826407499476823,-0.4247544474210123,0.24647271680539257,0.17296949434363615,0.110925344663661,-0.5828473072785237,0.07588711996673969,-0.02008336072351946,0.1334351171901817,-0.16826333617435021,-0.07214965390578049,0.18074452165355323,0.13426980114426337,-0.6064610905232612,0.21223227831081445,0.25508071330863014,0.10739459484057261,-0.14511519243073592,0.021416038379701942,0.03521039747078124,0.23323656282916527,-0.1682014659566413,0.1704459456103576,-0.02635165557685746,0.21398325474708296,-0.14141758793217227,-0.09469716878934932,-0.011576464829794506,0.2059775105223643,-0.10711871535037373,0.1199704264540854,-0.21760985347028944,0.11036636634087067,-0.15704933534692436,0.09786628566249264,0.298300306492704,0.11145340479960178,-0.12114999057862455,-0.0058729233878784225,-0.029772717478641214,0.16606659212722685,-0.08955820741834761,0.1094823727837023,-0.2733785177278677,0.16649108306844532,-0.1563290898957496,0.46742470913033274,-0.044840049435016766,0.1414935981239684,-0.13865609939030019,-0.022801616255833886,0.2807885491865332,0.10776089186505089,-0.18815599235752678,0.22896805018191826,-0.11724615972835295,0.10036265991843286,-0.5480580299305805,-0.07181275175033208,0.20461029531594246,0.1820719934853098,-0.29459385639376245,0.09806582957324952,-0.15928972268533548,0.12828259695735345,-0.4490628459960953,0.1858849499671256,0.24756629925888352,0.29668762243298674,-0.00838637608855422,0.12339636177491364,-0.07572656938300469,0.051583515356342445,0.030194652103709224,0.3366887088040514,-0.15465001978095952,0.23206846936123,0.04523017942491944,0.051118285674873046,-0.05037104961668587,0.14989019229838146,-0.11000810359664534,0.0917280405496054,-0.2569126999682813,0.16155440856290182,-0.1067582066551658,0.06400222034854691,-0.05780350504861476,0.236247023056205,-0.014655020654765372,0.11931623122416897,0.28085705632308133,0.13043347670898628,0.10078573013056566,0.1168630508571541,-0.4538291411045573,0.1467701137046481,0.24522530756526206,0.14986069173957828,-0.20386553494664086,0.261025543840744,-0.568400167639392,-0.11295019602607531,0.014350074053921039,0.23458756062422817,0.19994842102747248,0.17938680141162655,0.08780720093977797,0.07094410090829231,-0.2217387489413558,0.008217888781922082,-0.16923042286674014,0.09643428133864002,0.20785065307726633,0.09534853657348899,0.015811849305743184,0.14522838265537122,-0.15849059068055527,-0.06886787239760328,-0.12146757962172669,0.2683275774217356,0.15792283725500716,0.39397777496825104,0.07360114856092348,0.18368040425901047,-0.3821043760336834,0.21508520976696446,0.26223971425513415,0.051495983563226204,-0.3699146188339659,0.19463508410935704,0.17163589148563485,0.16249302813902788,0.1498105388284524,0.14406204694186647,0.22366103760245556,0.13483797482183893,-0.14472306057059434,-0.06766876101623939,0.16446394518111396,0.06699878195453252,0.21053123181742628,0.2890497385425791,0.08387560609145801,0.05163060333337618,0.23570339034503757,0.11183458436438207,-0.33591768460271076
0.23730217010034466,0.26135687851744743,-0.07084862643691761,-0.4643266705678377,0.106032796145037,0.04236311533846548,0.1643636689032139,-0.11484606914689488,0.2099184171739776,0.16184259342436758,0.16378549510733362,0.08094073162126754,0.27785021396904236,-0.0013245097731314354,0.09984000132527468,0.332968227720576,0.14764078479047418,0.09114731616380745,0.20703685492755178,-0.47057315029740404,0.07207455851147236,0.20536084243348185,0.12154980338507151,-0.19633179344475893,0.13652262825273226,-0.15520885707073606,-0.026890017141496705,-0.08820443123540801,0.14113707476206067,-0.03357805962580769,-0.018456551085070577,0.2714948967164946,0.0811550804043327,0.22010046773058783,0.009622773057337573,0.12078524932865733,0.09411045792085132,-0.3529231961887519,0.19024075212752498,0.06960836149531734,0.12210121594126963,-0.27766328136617136,0.1792551854302246,0.15428596695761831,0.15547028784445882,-0.15663181950939642,-0.0708873114689652,0.12285425319798829,0.1082607819699172,0.3191436287689766,0.40886693895287585,-0.23920614667185172,0.06366822095878942,-0.38339212129242634,0.17288914305089903,0.022029095381790834,0.06434227156570192,-0.3882127883263191,0.09586490101058032,-0.34177978452365526,0.1177259901513059,0.28439991172569046,0.15795887071723827,0.025273952274008624,0.06468840088076278,0.31628414818798,-0.0657372015175495,0.08095867596181361,0.20711407880005653,-0.11568185412682254,0.09374301335468313,-0.00539573451170846,0.2072122348755441,0.1042212612391007,0.16461813832573816,0.30486635595510114,0.06939595505687021,-0.149095002363537,0.06246348519055039,-0.05083139850410927,0.08417195659296377,-0.15519931308352972,0.12864020824797687,-0.030658397533751214,0.09560331067474169,-0.14943577471887895,0.18147174971295393,-0.3103874852934631,0.06175576167446288,0.14098657586944197,0.08799491904900725,0.23403371016249955,0.09986499513051884,-0.15443247047059325,0.06660224216810792,-0.0057660005760859015,0.20961325886484028,-0.15383771651736478,-0.10567131066185934,-0.01512043845803629,0.22133470050573234,-0.1447738882795988,-0.07193758506287848,0.11397962120960321,0.1348383819854836,-0.15033540478183433,-0.052788649263804645,-0.01932396231115769,0.10701144987611566,-0.13991940562449023,0.20651290256807225,0.03201494934026036,0.09581478906710188,-0.14461923929071407,0.03656473263149558,-0.23122231778275054,0.1648489196856919,-0.15599243659285986,0.5174847634567227,-0.23965780943804482,0.22355966497386487,-0.13759642136098094,0.09345320601925335,-0.07298112719691877,0.13691114164090645,-0.1526473699347642,0.20821484295626586,-0.10376707458784068,0.221530469499981,-0.14866221287382406,0.05318245515682252,0.2543638237828356,0.10716572598460498,-0.1489654255794899,0.1055474599257185,-0.17092902581574204,0.10786797841611694,-0.1550568680382918,-0.022815501090415025,-0.2469243758345963,0.10893975549216962,-0.1540715537761836,0.19326287937654932,-0.05176932748197366,0.08791518991506514,-0.15361472513977664,0.021677281147398877,-0.016018640469820825,0.09929902480629427,-0.1491856312140561,-0.013695275834395372,-0.017761541985213,0.08819580916417417,-0.15032941407663022,0.1742897422765461,-0.18426249201109443,0.1734432547265108,0.14933086255322653,0.17181471816828395,-0.2193379327109992
0.11203932650908266,0.09358740057450123,0.6634847269813055,-0.5461165558157669,0.2172789547141479,0.026484601884334658,0.10653269538424341,-0.016727672861066897,0.12362445906943129,-0.5053396391547308,0.16593649964627538,-0.061300217457490785,0.11622306975846819,-0.15656434795726262,0.26047403755533827,-0.22151313727822278,0.13561747174659977,-0.45930332687599207,0.18448645648480722,0.03390392730204586,0.09200166849270804,-0.1639113296580159,-0.028639268848335373,-0.09971146169794208,0.17923531989008462,-0.15186827529354605,0.20072260823400356,-0.05682121525731369,0.18967753334314763,-0.27535205648410976,0.3507304693106118,0.30663555411628834,0.17627295712038993,0.029850001063640552,-0.055546284903410535,-0.0617129060204218,0.06945691762313957,-0.27516953011724904,0.007055211367827351,-0.027355371262033926,0.21043075524362606,-0.1627171358577239,0.17021376393626025,-0.09760819448439667,0.11678666074153923,-0.15298286161503893,-0.0572945862824991,-0.06816730245427383,0.09632736176309739,-0.15739434233843286,0.3957915366081893,0.17669307127889014,0.10067068338240898,-0.4581221970666502,-0.02372174842997931,-0.11364473804784848,0.23859754504075176,-0.1571397025382913,-0.07940420192239817,-0.38531154499070663,0.1569853659809313,-0.1444758796993913,0.05153503739647439,0.1996837443452723,0.11525291583431561,-0.14613593240434658,-0.018469325658749945,-0.07464513700381878,0.10739088942930755,-0.15180818969110313,0.01123066613276244,-0.1656218493806716,0.10433609370100143,0.3054968670134667,0.10483755053256955,0.13342834979727475,0.11878290510413082,-0.4617074110044208,0.00649761214111097,-0.187281876460611,0.14175236642791805,-0.15350370581352252,0.15368205157284723,-0.046916793238910695,0.08705799249025668,-0.42814222889015235,0.2365845239786096,0.2537576947141388,0.05598988619267119,-0.3860513460742309,-0.0400508539435241,-0.060016338784204745,0.10325510092983324,-0.1471584862623697,0.13808800498148777,0.1885477272754542,0.16814232293903972,-0.15754000137366908,0.22364255435140135,-0.42573340092204937,0.10983760406542223,-0.11934221287558344,0.25334980839675636,-0.3087153241313873,0.09204733934323095,-0.37869537856168956,0.20375706482629508,-0.3654261158172695,0.16382888368991305,-0.17079577450433048,0.05562892525455324,-0.011221778688690058,0.23088568333317927,-0.15487339455464383,-0.03067309347415692,-0.14042261889518115,0.1274454154791464,-0.15202150892107572,0.010680652330822896,-0.08983952205599817,0.10937346884276454,0.1607848694618581,0.1030096326580024,0.21907601897495108,0.05219109089331665,-0.35338493278617744,0.07616511340913748,0.2934834339538909,0.1837445018953881,0.26579971018680565,0.11161617048231809,-0.09724262907881782,0.1129976257287102,-0.1511826731876471,-0.09167215195543518,0.15913397915884434,0.09255844889231254,0.10058425859740552,-0.015576563455015967,-0.6749766590011429,0.10356963465995422,-0.20129092209328106,-0.011158526410667231,0.06319749238822431,0.19664829479658522,-0.15238179768436755,0.024303010567632885,0.11933916977785594,0.12962807367881898,-0.15168453511706945,0.12846935245857188,-0.08832999923430677,0.22317237680894825,-0.15219070346842709,-0.098785963550019,0.1988355380689912,0.1297396340887388,-0.5879238102763868,-0.08366881396538738,-0.07414536725024548
0.15304558113353273,-0.16767686165358855,-0.0012724947435408113,-0.011167246135760957,0.11915754546412514,-0.15033176054609904,0.022459623701803134,0.02012666720953167,0.11073309076717446,-0.15088199141520964,0.43743397291945696,-0.21767737474894944,0.1419889243102369,-0.15623663667999654,0.34107296917670216,-0.24640578569282656,0.10544875941418486,-0.15356415622060915,0.17312177923103136,0.14579299538367144,0.14810113223167778,-0.15210410892983753,0.22698384506276262,0.2090478501832316,0.11664508079546623,-0.281728130548727,-0.02124476099644419,-0.3986647589501444,0.09343816268606911,-0.1562293075005905,0.062157863585129994,0.2191128098792755,0.08014029039425298,0.12057998415017257,0.09302556457988488,-0.2122592111012985,0.1441746487785015,-0.1497742379419232,0.056964633123918626,-0.08389097435102441,0.19990130021269192,-0.15759162300117224,0.207197916744367,-0.49816628522258544,0.13347581877479006,-0.3556643139796708,0.10070923861196102,0.042511683788751566,0.10967142457260931,-0.15518004029099977,0.05054536416708852,0.20780332420771205,0.12114018233053128,-0.2921996511313224,0.16416395749810167,-0.1320420146019291,0.09742666263543302,-0.2808435631452599,-0.016510561334531552,0.2827982958354445,0.11022977883638325,0.3137377186210493,0.01127762103543184,-0.14730040209256845,0.10328878929323357,-0.10854395078706872,-0.0761248862585219,-0.49587519341827085,0.13588140925803122,0.14183203656966903,0.04986021520590825,-0.0376577545585915,0.1341049687828846,-0.15364502736113184,-0.058755740086075856,-0.254209303162844,0.10396566616240495,-0.23882766191346122,0.1857780978425266,-0.15631921783662864,0.10818831633318274,-0.14467166284068808,0.29683705390327814,-0.48735906847422905,0.15313497834756223,-0.12979316444418926,0.06713954491075626,0.14924448736810567,0.08624320496980172,-0.1505596815142356,-0.06319727369373122,-0.504940880035936,0.09861152323806789,-0.14922528411869132,0.018683491347283546,-0.1300118582977759,0.2170821211310477,-0.15154846710997516,-0.12885805791934815,-0.24557282385637566,0.08687953524887473,0.026135380734860533,0.18895281958113552,0.08578561348320657,0.09609237198326373,-0.14923702787337773,-0.05929397175174143,-0.11710834039961932,0.12868865202208407,-0.5480409964781436,-0.0888391683590381,0.022325072775547017,0.133925894263798,-0.14839976282980472,0.20133046724201664,0.21140522565884567,0.10733794080583496,-0.3531499624074117,0.09887202689380734,-0.16061653038335919,0.11342691845613423,0.052307159110050974,-0.05540441442029571,-0.0205912595796046,0.2935856661450599,0.052272789171063,0.11486237797852589,0.05355029586601742,0.1270819316913806,-0.156183842204637,0.18196159294673592,-0.01740964940543961,0.04244677128154509,-0.03585942613933791,0.307207433983985,-0.21265979990238337,0.08665754878119261,-0.11392177422096492,-0.0477875041449124,-0.02025132526472493,0.12237707133754103,-0.2978609797803094,0.3328552921112351,-0.5741596401927732,0.11575261971189649,-0.14795799091773437,0.08855799849836876,-0.3783647806469302,0.16517186326530764,-0.15568004584324174,0.1243413979266802,-0.05872718349176226,0.12459928247099747,-0.15085956696756853,0.12035160382378539,0.26611761170712844,0.05273909070943547,0.2458664564859178,0.10739142696034837,-0.05255120293950197
0.15173535402432842,-0.15505423902627455,0.06555191306306925,-0.1644064880946398,0.12093828530236488,-0.1517196585149686,0.010648660563059215,0.08540412351808672,0.12720187356178894,-0.15282187196914065,0.0017813165372038975,-0.20034627585790055,0.09849975386996308,-0.1484229857029388,0.1953614046770821,0.1413091106567686,0.1862206823056665,-0.3704699359376445,0.005105657943677455,0.1776057018450719,0.2434629813875881,-0.15210393617061935,0.29535769532719525,-0.25218915435217093,0.23339678783763318,-0.12243120532349021,0.38267324780217377,0.12892729802492403,0.10734450152008757,-0.1508829461669161,-0.0599186834329615,-0.4832643318975445,0.18740694614334585,-0.15167254511706355,0.039533914934404044,0.1744531040703911,0.20976329031688873,-0.15042689692471434,0.009327665610085904,-0.5151622489180973,0.21533935104935822,-0.14744738893429654,-0.10385301317391046,0.018358079684782744,0.18244497677704039,-0.008836347518081,0.09811377043475195,-0.479545619160425,0.12211390390429955,-0.15162599467497279,0.27085519294609517,-0.1106620583460953,0.22770507807081708,-0.15006351406518362,-0.09653989712253183,0.16502391467138694,0.1726532629504654,-0.24797159543259384,-0.01851376199394763,-0.3836526206166449,0.1271276155397615,-0.17047165190570712,0.13247970808883003,0.2101877945328133,0.1758497796373801,-0.1525765204627344,0.2579386420746083,0.19637534274778276,0.12754195317397676,-0.14695366605324384,0.193560591119967,0.1581422176816196,0.09511595286894187,-0.15275462523037397,0.20685195172103935,0.04652824352960881,0.09512925648544956,-0.15119109325899016,0.0730921454979218,0.06885044322112854,0.09896605416926138,-0.08901010012131896,0.2965799903286648,-0.15686992899149063,0.13496020421084176,-0.37781074225685424,0.1839090197979758,-0.2060423374234227,0.11319814951829082,-0.3868479499696278,0.5891507146523169,0.07599211898661781,0.15439464563361807,-0.20658848874429792,-0.01939295858320738,0.1459234479979917,0.12589099209515495,-0.15284707740871561,0.007075238752924595,-0.10758211257794584,0.1965543957532947,-0.18302770455841372,0.047515313305265997,-0.49323191746150036,0.07983969269996694,-0.4126590352869938,0.1078864371207576,0.035290678104668544,0.12921535870447476,-0.14907804705491798,0.12002391837802912,0.2704556523119226,0.13800752883590414,-0.1492793440954936,-0.06385460929601029,-0.12408265143827474,0.18294397917843047,-0.1521394877846119,0.037798036632881074,0.1091433093394884,0.11878256786520544,-0.46728480044875986,0.1968565313176287,-0.10251906642020438,0.204391144399653,-0.15440053049385624,-0.033246541187958896,-0.3553089572549701,0.075916521374496,0.19301696990829692,0.20319804255292861,-0.144920139561384,0.17284085516930422,-0.222274314540913,0.3512229489616475,-0.16165141902298458,0.16790066249702398,-0.15123272713704417,0.020408205588268308,0.14361091168749848,0.12102853950741277,0.06309160456143163,0.09698011987514765,0.2519377724322665,0.09825298457497167,-0.05427417154756137,-0.014487394219821679,0.22729627295461965,0.15193978894163018,0.2843777699031238,0.1437531642828314,-0.4503160071174797,0.09197240645088195,-0.15212702727382404,-0.08599946354964975,0.18818519644991835,0.11462296388846403,-0.1476957215263768,0.1196269207406626,-0.0066907588615969515
0.1505302173162093,0.11868102667527536,-0.07456929090770384,0.19286308831701238,0.09463974384286568,-0.20937899494425372,0.24304018081172624,0.24577438199329604,0.11787497651441625,-0.4886881437239225,-0.011613712563990533,-0.25739948027133885,0.10875054038919875,-0.42469840775700607,-0.06600628216563523,0.30321036324502376,0.10835055443289575,-0.22724763884841334,-0.017841404076972746,0.2535839710849903,0.18621178869143493,-0.16078258068271206,-0.03357987571351686,0.278166950143549,0.18063621446151237,-0.5096730796645444,0.4908825875385379,-0.011277680917531702,0.10024700477659573,-0.4870548590866386,0.02085343662565814,-0.27519617013495745,0.11077400760209323,-0.35554735255880365,-0.011839711351946766,0.1090380113106523,0.11753773474324493,-0.28197486768787716,-0.025184720974663663,-0.655288362200366,0.1932566812902359,-0.6022364435600801,-0.03979011914425672,0.1515012633356851,0.09684537781467509,-0.15246045630316402,0.06647900845490984,-0.13690439464592702,0.10386199883020197,-0.39976056561630235,0.16690326190150398,-0.1579185249117994,0.0757250822912388,-0.20774083374325336,-0.021022039211422018,-0.15864788131850618,0.13644192525812826,-0.1503099521994177,0.04664741383514993,-0.3739898822299741,0.09737890552847378,-0.03138432158326486,-0.09008442763201464,0.047433129719843196,0.12967824238396075,-0.14948958683385374,-0.09245299888797448,0.2030744382191139,0.15430860103783656,-0.15009564172128295,0.04791251784577253,0.001725512533294192,0.09457963653879349,-0.530983780976423,-0.009071175870913856,-0.07427770911260473,0.09087720777721334,-0.6215814596196729,0.10340659866978089,-0.1609786607049743,0.10460845058343081,0.24497288818092033,0.1617730945354912,0.16383759679277993,0.020990602427511953,-0.13147161992143008,0.45345530750292906,-0.12327308647101963,0.024881365112307048,0.26054516911145376,0.1409374688560858,-0.26584595095506774,100.0,100.0,100.0,100.0,100.0,100.0,100.0,100.0,100.0,100.0,100.0,100.0,0.1520948961390829,-0.016389465811078127,0.21292653003145787,-0.016389465811078127,0.024414092885754444,9.771931517459087e-05,0.1631551272377074,-0.100963667715828,0.046128439819143996,0.07740498355887507,-0.03654508642275025,0.07740498355887507,0.07143142317278993,0.13210492304898042,0.09747780262856459,0.023144176720440772,0.1687510132835485,0.040635814610447324,-0.018984145673339836,-0.015433563829092795,-0.002491865756648358,-0.4081130104400096,0.3110693255982322,0.036466575961870876,0.08607608000847772,0.16521352825990163,0.37499009523573024,0.00809250919728352,0.1708245314721915,-0.17844566702832376,0.0264485217544648,-0.0042260428413481085,0.12518950722916,0.13448124574303905,0.13505878271797223,0.058995126331949276,-0.01991694531124686,-0.04293960440167584,0.0938273822899417,0.14821262448492495,0.1704661813308914,0.0819282241663415,0.4252102350095657,-0.038734053400995574,0.11118578849926689,0.055005830479724085,0.021708911258645398,0.11917837448329112,0.0725018394408797,0.39103476302447476,-0.03997518034075864,-0.06023299730362368,0.023367532588209488,0.13753542569356447,-0.04487599179005557,-0.643361099106207
0.25219522576563924,0.08403911833121239,0.08403911833121239,0.08403911833121239,0.15611140723940714,-0.01630056902332397,0.022355840449959734,-0.01630056902332397,0.16799445823325915,-0.009318330125827494,-0.009318330125827494,-0.009318330125827494,0.09765696068398329,0.14173440911117358,-0.048793442276265336,0.14173440911117358,-0.012302656288598217,0.042792722260931476,-0.05961250398191071,0.3094445264332325,100.0,100.0,100.0,100.0,-0.004499212430284475,-0.015399525339167407,-0.22753162663191728,-0.015399525339167407,-0.05515562622502898,-0.05515562622502898,-0.05515562622502898,-0.31538910175931184,100.0,100.0,100.0,100.0,0.23870805437198905,-0.10345501903823104,0.20963309001089717,-0.14360994659676057,100.0,100.0,100.0,100.0,100.0,100.0,100.0,100.0,0.1459346883753887,-0.32893166664916157,0.14923183604821966,0.09028256588193967,100.0,100.0,100.0,100.0,100.0,100.0,100.0,100.0,100.0,100.0,100.0,100.0,-0.05104919871549823,0.2790115716643165,0.11400577369651752,-0.25128260276063585,0.06860923250121774,0.32848918411139616,0.18652138380974226,-0.012592157877489208,0.07709759387911506,-0.24638553675621583,-0.1564889748969298,-0.1328900462692794,0.1472659509174266,-0.3684688094312002,0.021790406069986272,-0.06410029549284058,0.26614301922205186,-0.21081620357633535,0.08969607760204314,0.11076374257693608,0.0712396674623641,0.09701333547812603,0.14131541078374615,-0.2831783340334255,100.0,100.0,100.0,100.0,0.08305021774823548,0.24184766786013118,0.0994880555034908,0.07892672846105261,-0.03770831474097025,-0.11688632512943672,-0.03770831474097025,-0.03770831474097025,0.24611255738654433,-0.04876648714318817,0.2814093559671528,0.0031290810806839653,0.15102701935591945,-0.029442100473575886,0.15273936511876052,-0.029442100473575886,0.004154412556791245,0.1988405469886112,0.1268656252049446,0.1988405469886112,0.30818283207140096,-0.1743560641559062,0.0727928167494307,0.36233696326115683,0.023627808064670672,-0.3149422942507519,0.023627808064670672,0.2719558606431283,0.19046884435800937,0.06745799620358525,0.06896674540130751,-0.14502109752462783,0.07412229500313537,-0.07369557612034311,-0.0435753169956303,-0.07369557612034311,0.12288939992364571,0.33085273367866586,0.057933381196329695,0.13549395630809993,100.0,100.0,100.0,100.0,0.007685527975156984,0.020365999532274248,0.271510549098999,-0.1017396714212555,0.053807932181256776,0.19804090105094388,0.1945452755134679,-0.0779275532218597,0.10151034233378334,-0.389278084426192,0.5381503414083555,-0.4653026371544673,0.28837997954323324,0.04668021007947079,-0.02870751916242728,0.2438240822029945,0.07147602685860563,-0.3446975952527971,0.19329919482566352,-0.01936603796426473,0.2651823596272822,-0.17697305037724007,0.46526522694766215,0.08370701652619762
0.02794871430784131,-0.19364824033682926,0.07841602744051991,-0.15620716111755606,100.0,100.0,100.0,100.0,0.28675618208644316,0.08933396501238453,-0.16093157142726594,-0.16374894512059862,0.22826231491145707,-0.07318585429322556,0.007724613223989152,0.1183776865837009,0.22964618198109485,-0.14755463394139567,0.25032927404561167,0.12116618934797807,0.1320337657876466,-0.12260669872690996,0.14377405548949537,0.01233516376652985,0.013758323513446602,-0.12089489004959608,0.13022336332624676,0.05531315282563207,0.0658226790039865,0.1047423596439725,0.22798921054716445,0.17618675062824177,0.16715415954885515,0.04260977210780094,-0.09776403418096472,-0.04494112863592829,-0.02477900067587565,0.1999058846457656,-0.01651764652734891,-0.288262900747877,0.2684428827233491,-0.3653637703053748,-0.06646461600072795,-0.17048474347571516,0.09778897427496422,-0.02015623282865711,0.0023403161926092604,-0.08516891938953061,0.07827855867260441,-0.05694411696965901,-0.07396236200393566,0.355576708459891,0.04138535465565424,-0.10914816661228179,0.1676823665499538,0.2274495393472924,0.19965411957607943,0.2549000816991208,-0.08188389985235373,-0.03132693229611597,100.0,100.0,100.0,100.0,0.2227291195739974,-0.23216936374450828,-0.1238392581419352,-0.1238392581419352,0.0770971971964973,-0.24867567807321567,0.030556571751296557,-0.036419100973062335,0.1010231325635965,-0.05953807040130826,0.1837491130474131,0.23823523332361293,0.1544994767275384,-0.1995167685027687,0.282214750427464,-0.04656607421148609,0.07842866485485638,-0.20234944784451503,0.07656842665132284,-0.060195230583112214,0.16253352357966747,-0.5273468024512039,0.14169824407020262,-0.1504333089744257,-0.10603888905929612,-0.10603888905929612,-0.10603888905929612,-0.3293962847930463,100.0,100.0,100.0,100.0,0.16460501802185334,0.04296888647704522,0.12809086173919937,-0.24963455916414923,0.19998261803607278,0.09913030808599986,-0.07932897446016945,-0.07932897446016945,0.04650527998159959,0.24406304819284413,0.2922659649450809,0.06936491581189112,0.05333275420041067,0.1216861847389449,-0.06699837312468453,0.1216861847389449,0.13548645244650825,-0.13771571731499338,0.1439501432473898,-0.01823077540194644,0.268811138304864,0.1309425917370105,-0.03737596662860948,-0.3780105540992771,0.07403298828833013,-0.0075683358385597,0.46533624579239036,-0.1601403989528987,0.13512433245076483,-0.0017565891228873698,0.03146395648741272,0.11836074342643152,0.0710998993362276,-0.19963640648853556,0.3103366287910264,-0.19963640648853556,0.15075531810629428,-0.2833517391871925,-0.0749529860935944,0.26295929233573717,0.07471134035717177,-0.23717023558769584,0.35310097837426035,-0.09591886508110835,0.08868836743661809,-0.3047918313887393,-0.08957270740574957,-0.25375385334090306,0.033905071749948515,0.08209481849683388,0.06987182837163787,-0.1522511196949344,0.03804607402574731,-0.1281693432534256,0.4158508394718925,-0.04559568734191401,0.05434658975447267,0.07933925403331696,-0.17332266181718706,0.026351823496642134,0.23675728088135142,-0.05556034282466754,-0.031329180711321805,0.04506864191960059
0.187026297918869,-0.27276830062724905,0.05923035934267645,-0.14939310088322377,0.0918721431142892,-0.0753897014348067,0.36171023609056746,-0.2694754876008977,0.1604358722557913,-0.19597679244106858,0.012252931554956107,0.18057850355006314,0.20416146946007666,-0.2789307444869844,-0.09072563160996598,-0.2438254239667217,0.14726844444569284,0.3880010931269383,-0.06047282046647742,0.026696209537805483,0.058627276997799016,-0.10538070731247048,-0.10190635049876345,0.18450809526443926,0.15040357838311222,0.12595711831956755,0.07237620412107307,-0.05282768501764737,-0.03197518553839497,-0.02085118944672925,-0.016175347613722486,-0.144810508697772,0.12376116799228083,-0.12304660503008631,0.19795974680639655,-0.14344631847667222,0.08257185454883838,-0.013969444672914187,0.20854558071077123,-0.2849666137887878,0.04301676102002318,-0.17872541975075307,0.15657012397562384,-0.19457558980249723,0.09544038032156187,0.015757180884916247,0.08961265059589704,-0.2521698335198149,0.06632207307067872,0.4331497465731782,0.26831051069485923,-0.05152479446202076,100.0,100.0,100.0,100.0,0.139153867673373,-0.22439082446692163,-0.09672015532800388,-0.2812692363988817,0.08425217585866784,0.07225638269010512,0.389931307010439,0.014745126486234467,0.04788502341537447,-0.13720534766702153,0.11810441358349498,0.09784619362274066,100.0,100.0,100.0,100.0,0.08956971548872394,-0.412950208951052,0.26446824721020323,0.008028444378147565,0.08913665721905387,-0.16901819439442478,0.11140971736366946,0.23241023329761631,0.09753559348541817,0.12449998834449226,-0.0412852869664377,-0.375647023735029,0.14808922494476576,0.0394418662339152,0.13571878323984896,-0.2059658617530443,0.1428875018059328,0.2303984537761487,-0.11382499161661294,-0.39231120534640496,0.11506915924522668,0.39652022265587467,0.284975691751973,0.18852961793196785,0.19916143994382432,-0.1092385153194626,-0.13359686450636177,-0.15759025094201665,0.180233185621581,-0.011303479311391272,0.0452462100840622,0.019512156018341973,0.05651229594003995,-0.08621804469846649,0.01554457829362195,-0.15133957829868538,-0.058724924058910485,-0.13297629595572347,-0.20275301170761498,-0.06975354091159108,0.06421840339464102,-0.051935411062316056,-0.06697772678536042,0.1374187757314085,0.08793656073878553,0.18325571481204406,0.12859007258892446,-0.2705927011255402,0.15354566000320322,0.017815589092322975,0.04571968769351879,0.04571968769351879,0.16377848366470657,-0.06902043425586399,-0.005847200790847468,0.10491309946116893,0.13193836930224173,0.07913033613812107,-0.024872574604923585,0.17608294770082653,0.03667934134290805,-0.4441642532754483,-0.011253767482186185,0.35344469548720336,0.06418879818732409,0.015160474328046306,0.4562253018177156,0.3579579777971348,0.21909356687205434,-0.02779650959267249,-0.035131254615842225,-0.035131254615842225,0.12019539536967767,-0.12372589548971333,0.23721856031233426,-0.08931194036052909,-0.07918157115774335,-0.09204951328625167,0.1297227212452582,-0.26875162174729716,0.04482683416112926,-0.1245357504649619,0.1369542960287859,-0.00011496904758379056,0.06514733303230558,-0.2842271389968057,-0.07393865008665813,0.3552905090692938
0.14651725525692402,-0.058250956396412555,-0.039208533225202576,0.0007908203013104464,100.0,100.0,100.0,100.0,0.13625665094059133,-0.40452888462168657,0.2532425660222408,-0.33452911307880573,0.15093123378013354,0.15794221328950864,0.26871206552065957,0.29098967402993925,0.07037155076028928,-0.13121550362956808,0.12909615095091623,0.24805304145940055,-0.0355273270874978,-0.42828107103987023,0.13757759215952792,0.112662203029507,0.2584543996530964,-0.19269200452575813,-0.1136885841586964,-0.17039067447179815,0.11465346815872035,0.2825431749707335,0.1344681765030503,0.11413617454243374,0.16295313175713672,-0.1089076300529537,-0.011796323518190086,-0.09435458947299624,0.054586245326692456,-0.17854805476205773,0.08497026656669443,-0.1281782695819455,0.1338676197887813,-0.1453757971122451,0.005248689963408083,0.024144539926086374,-0.02212901052829353,0.013237944462236695,0.4389501465968444,0.019433484195524722,0.04968148590898598,0.38302859957363533,0.43624181714640486,0.20933914101085163,-0.006574525698094684,-0.15630130027311223,0.003359323466946451,-0.33041810942471384,0.1575770820871091,-0.2443629563293901,0.11232682768478389,-0.274890843476459,0.07327667861806075,-0.3023842763937216,0.28070625074362543,0.25012948993053585,0.030230940191616665,-0.05345812196203033,0.11079928643917404,0.04915906434885667,0.19328207819283957,-0.4081355342638173,-0.005497374874909172,0.09474108765771419,0.27659347412734375,0.15419089215246878,-0.025863555519595405,0.18563235933366007,0.18126689970185966,0.08435969707379445,0.22720800671066002,0.30883918628396234,-0.0064632239125347705,-0.10849058681098966,0.12536480715788337,-0.14520606574430728,0.15560468371266867,0.05292729391591605,-0.011781089418946712,-0.2502295650588888,0.129075148844079,0.055644499086789125,0.22318309453732407,0.4377048880462267,0.28458844403227207,-0.15904932792790905,-0.14818489186295503,-0.2575243749363634,0.1539811508455744,0.20145146944819198,-0.045281099971099095,-0.2353548609048569,0.23390948772896947,-0.07422569960243097,-0.08933928181810662,-0.6459144862569512,0.1640283786876645,0.10732957755216574,0.18342595426560757,-0.010643073703334838,0.1960430867654946,-0.19549468726106362,0.07113685591079427,0.0067154337091929125,0.11699549382648033,-0.3095464082248825,0.17451163091577174,0.07605996649656177,0.034518601113621046,0.09637238381426066,0.33270045091226147,0.3259647283703031,0.13791701398962933,0.30664177712292007,0.008672578448938505,-0.16673744359653317,0.14677260779582113,-0.48135916919494465,0.004950681215710129,0.1868062066213364,0.14939728082186193,0.15992477601192662,0.21276843287299824,0.21276843287299824,0.11337824906921418,-0.020828125591561625,0.4550985440261694,-0.04616152182615749,0.12074962206780643,-0.3475567753912551,0.03106993892389242,0.09020847888785107,0.05078748685335378,0.2809119466484345,0.019787796097667412,0.10809349802505193,100.0,100.0,100.0,100.0,0.055429638575004395,-0.052846338234554605,-0.12667441587494616,0.30132695856890784,0.15918443448692368,0.15650553072181156,0.15918443448692368,0.25995025518051845,0.12187294606286268,0.09987937592452657,0.09794793385492774,0.029631570778217493
0.08412033355258969,0.1239373744197061,0.17821163486383085,0.12771097997318054,0.15252128550170893,-0.2562428566877537,0.03984698005194431,-0.34452973518674795,0.06258627789288582,0.05356533252819084,-0.030030559024475562,-0.0022947111395998365,0.003812185927645529,0.0902677607018021,0.11404005322548144,0.3587539989757976,-0.03252838083432402,0.3655027269383794,-0.03252838083432402,0.6460260442569132,0.11213412859305649,0.16276464082854897,0.035167159156982014,0.1655821745485925,100.0,100.0,100.0,100.0,0.01604962387668212,0.08258208302471279,0.07045100212182367,-0.027797595308197667,0.12937800331690558,0.44161983681986894,0.25207649437598306,0.04848304171315681,0.052777498682464646,-0.020090588076454616,0.45414497659577235,0.18459462290403672,100.0,100.0,100.0,100.0,0.1219827701066154,-0.22474848456816784,0.4575947452602759,-0.14043652595110662,0.08583773711964864,0.1815896030798556,-0.06415573804654245,-0.03628261383297195,0.25235341714513526,-0.150709995616775,0.0909333404818328,0.17599477688882753,0.05142789411868981,-0.18502578527058147,0.15170988885997555,0.15170988885997555,0.1369256964993884,0.14888652672878508,-0.19464487720406048,0.20734779460240063,0.11274230141983636,-0.07629450268881659,0.07477758051302548,0.1612307793540894,0.033693110790559616,0.38885685345655363,0.20216356430062238,0.07379604386542138,0.1752819010083162,-0.008833996175791753,0.1209872726153593,0.17411706981421238,0.12510812182264103,-0.13605106275855167,-0.21214003766842454,0.2052010974772538,-0.038805177620781305,0.03233767999273303,0.3205622176702867,-0.18748091272218315,-0.052012537398951,-0.4936245085914994,0.15553968458183362,-0.5121481128010841,0.024632143144296424,-0.20980739168647186,0.24350515860618846,0.01459823290643829,0.11876730136839544,0.30175375042983704,-0.13834168552759293,0.0838539768624196,0.15321651051623902,0.22564354352863783,0.07295060599777992,0.15724556729599287,0.21252656637127265,-0.2446304170820639,-0.028271439681837,-0.21417118221381468,0.11593249770382205,0.2105744675419325,0.42060424795406076,-0.2073011545824274,0.19067163481541205,0.30678166331797646,0.02140350671140182,-0.0008283626155397572,-0.011061071274145427,0.13531262447978912,0.3653663159676241,0.1996727519145489,0.020803317658479585,0.352835055589354,-0.01721279341158834,-0.39448083868356526,0.16017713043347337,-0.1322102501939723,-0.03988074134373408,0.09541639313111447,0.11009704174726692,-0.05095620087001295,0.02710252137784282,-0.309975335856753,-0.07387121884427904,0.03373903485659877,0.2918266428099742,-0.40283514007096366,0.12415411782402207,0.007562936354619732,-0.13832758165995845,-0.11123068295491896,0.16458415031126694,0.11521333988045115,0.05165083127146444,-0.021947395606159464,100.0,100.0,100.0,100.0,0.1525859996246819,0.11792593717859949,0.260010181927411,-0.3672854323181349,0.1421886761375275,0.11254964945674292,0.2500169520384449,0.10510788147486169,-0.012291307168997682,-0.06683257385138588,-0.04445122796265147,0.2537826399758704,0.09636629994592735,-0.1880136643843432,-0.05207840439699125,0.11553222794883494
