ChristianCella/workcell_optimization/results/data/hole1/turbo_ikflow/complete_beta_trend_wide.csv
piece1_joint1,piece2_joint1,piece3_joint1,piece4_joint1,piece5_joint1,piece6_joint1,piece7_joint1,piece8_joint1,piece9_joint1,piece10_joint1,piece11_joint1,piece12_joint1,piece13_joint1,piece14_joint1,piece15_joint1,piece16_joint1,piece17_joint1,piece18_joint1,piece19_joint1,piece20_joint1,piece21_joint1,piece22_joint1,piece23_joint1,piece24_joint1,piece25_joint1,piece26_joint1,piece27_joint1,piece28_joint1,piece29_joint1,piece30_joint1,piece31_joint1,piece32_joint1,piece33_joint1,piece34_joint1,piece35_joint1,piece36_joint1,piece37_joint1,piece38_joint1,piece39_joint1,piece40_joint1
100.0,-0.07372783089047746,0.053749185788416816,0.03646722001545179,-0.2289348755078652,0.007456153688394691,0.21228782202656918,-0.08208870245381403,0.10875956320103182,-0.13040930145254295,0.009035091599861727,-0.16673155254760552,-0.013861978994571065,-0.0737278308904775,0.261488186571611,-0.07372783089047748,100.0,0.17561215290747648,0.43522316099950714,-0.07372783089047752,100.0,0.3353107937529755,0.06858590018763194,0.27272619481227955,0.15023124667871326,100.0,100.0,0.26637771599778604,0.1560191489618756,0.35594950431139905,100.0,-0.07372783089047746,0.28227954114319215,100.0,-0.07372783089047748,0.007637324916715798,0.23308384895564588,0.20202805066231325,100.0,-0.33957214910384187
0.13573627107087013,-0.2725827090714666,100.0,-0.012413635892364593,-0.11474317510741962,100.0,-0.2587280554059229,-0.09042882927260432,-0.06314973220061453,0.25443918702524376,0.2323564904581617,0.21502415658607316,-0.07372783089047748,100.0,0.050856806348652195,100.0,0.015346215494146172,-0.07372783089047752,0.30332530501366894,-0.07372783089047746,0.1011405216026187,0.08106431905814786,0.3311096510742961,-0.06049324945010981,0.5998727315778252,-0.01693242895121642,-0.07372783089047746,100.0,-0.25384646490051915,-0.07372783089047749,0.32587734685676234,0.3412081760940566,-0.015825967678343735,0.24818207212980445,-0.0737278308904775,-0.07372783089047744,0.0022630218631632514,-0.07372783089047742,100.0,-0.07372783089047749
0.3921647241585051,0.28437932318745063,-0.07372783089047744,-0.07372783089047746,0.2399732889317432,0.031116714665063085,-0.23127340652461814,0.04790489166603885,100.0,0.30045059793128964,0.579080838084823,0.5197422546592249,-0.15911956743213274,-0.07372783089047748,100.0,-0.07372783089047752,0.031675604473156295,0.13622772873245187,0.23555595032680415,-0.2617375457940785,0.20881129016311767,-0.0737278308904775,-0.0737278308904775,0.11397276886119859,-0.007717331518503796,0.12134251312696434,0.4092648460377068,0.00580484823813713,0.11389964590227455,-0.07372783089047749,-0.07372783089047749,0.17888481388139987,0.2705703690747187,100.0,0.09555766414264903,0.24650895126011352,100.0,100.0,100.0,-0.07372783089047748
100.0,0.11977276232159771,0.012509830713633483,100.0,0.13615014373736592,-0.07372783089047746,0.18118768963810794,100.0,-0.26288453053970917,0.11780105604205707,100.0,0.212595745785298,-0.016798342551793594,0.5759469128522459,100.0,100.0,0.22747087249419515,100.0,0.22949243914042375,0.24260971512854165,0.239030576251806,0.011840716488020406,-0.07372783089047742,0.12150105195159444,0.406208450126417,100.0,0.48271349011203385,-0.021455630822439106,0.09589013691065175,0.1361351586124736,-0.020055583759026642,-0.17687228675638386,0.18669400233840935,0.11100580892335951,0.2680362489953283,-0.07372783089047746,0.08518192081108308,0.071249981620256,-0.07372783089047752,-0.13453914421112478
0.10290805075543737,0.07694020343050405,-0.1816794571099166,-0.0737278308904775,-0.0737278308904775,0.4109669899312081,100.0,-0.07372783089047746,0.23694021880427407,-0.2906528697815677,0.13402812383350274,100.0,0.15424814523376254,-0.07372783089047746,-0.05631004350014654,100.0,0.24807362657787616,-0.13863546990596873,100.0,-0.1420375552599407,0.3563981433764738,-0.09594043027280495,100.0,-0.1981277099884799,100.0,0.049405706448715704,-0.07372783089047746,-0.04563912866976556,-0.07372783089047749,0.5984727410522176,0.2818190893504767,0.19833980376435156,0.30058912284760836,0.21437441699668636,100.0,0.08771054207674299,-0.0737278308904775,0.17478878843830975,0.21394848197636546,0.03328348198322739
-0.0737278308904775,-0.12444798277974158,0.19589107263202643,-0.07372783089047749,0.002209168664413878,-0.07372783089047749,100.0,0.220599756467237,-0.1265334982067426,0.13203628369018575,0.04669508011699527,-0.19708896114613228,0.07765065696567154,0.10478695649804688,0.026790475520544272,100.0,-0.07372783089047748,0.1906046835665525,100.0,0.03014202137054691,0.3246163902482802,0.19932591788815757,0.3055951895466987,0.024198885572680438,100.0,0.29893256717557753,0.19073233175473558,0.32330453155280314,0.25778474545933516,100.0,0.40470414839657803,100.0,-0.07372783089047746,-0.07372783089047748,-0.05459930499214658,-0.07372783089047746,0.2561953706391586,100.0,-0.0737278308904775,0.4266018648631528
-0.17222676254592648,-0.048013714832166786,0.18751557055337337,-0.07372783089047744,100.0,0.17092964593604923,0.009187478192664956,100.0,0.3940361657604399,100.0,-0.14628348984688333,-0.01653217166839586,0.25177447316490587,-0.0737278308904775,0.3607986690883932,100.0,0.23684434440727856,0.04333536475355867,0.40865784235402436,100.0,0.03379291188198491,100.0,-0.17459506192201343,-0.2342420528046391,0.3211876102188155,0.14416755461916955,0.15696950546710658,0.22366450486419856,0.32447761362102734,0.2557756163861462,-0.07372783089047744,0.40671059264814796,0.280143116929579,-0.0737278308904775,100.0,-0.2302947928579803,0.23664742511371606,-0.07372783089047746,0.11073279625831801,0.2285266600419762
100.0,0.20751542945328685,100.0,100.0,100.0,0.2419448061972526,0.20128443131419319,-0.07372783089047746,-0.07372783089047744,0.1526019936645198,100.0,-0.07372783089047748,-0.0737278308904775,-0.07279242551004896,0.02241270493787063,100.0,-0.016318086876668515,-0.07372783089047746,100.0,100.0,-0.07372783089047746,0.36664554053128984,0.08786010286038137,0.31644323509224476,-0.07372783089047748,0.5130399439820725,0.23839177104834475,-0.07372783089047752,100.0,-0.23568478664994974,-0.01627052956241977,100.0,-0.19054765163823176,-0.13479655438609747,-0.07372783089047748,100.0,0.372681215565252,-0.07372783089047742,0.09808068988370951,100.0
0.3974036285830615,-0.07372783089047748,0.03683145668585001,0.3241606832888791,0.23896309669093208,-0.11041129936065767,0.12679791329152454,-0.03197313472396626,0.27842255302414987,0.1522535614210351,0.006977867234197109,-0.0737278308904775,-0.1680953614422149,0.10342995622729477,0.06150319598071362,0.005694178892290035,-0.17801453683339266,0.21464937468448625,0.15924292072280752,0.17150764107015182,-0.07372783089047748,-0.10135136963493173,-0.19162604733374478,-0.172666697818812,100.0,-0.015377945192481935,100.0,0.061698048765751766,-0.07103531854506659,100.0,0.28595251198795324,100.0,-0.07372783089047752,-0.07372783089047746,0.31230427701395014,0.1944313425544951,0.2992888138094051,0.10598335512840534,-0.13582287905099488,100.0
0.3239555555838715,-0.10890922761914992,-0.025258224529031155,0.1300208919615782,-0.08711450007577709,100.0,100.0,-0.0737278308904775,0.17630955222433634,0.37544744598988933,0.2072731725171044,0.2672515831718909,-0.06075666430208561,-0.0737278308904775,-0.07372783089047748,-0.14486505888753465,0.19716819540279626,-0.0737278308904775,0.30448079258157895,0.2921573214862877,100.0,100.0,-0.07372783089047749,0.3656031382341761,0.10350684885632085,0.2647042522580731,100.0,0.23005836121459455,-0.0737278308904775,-0.07372783089047746,0.1504451191749202,100.0,0.24524864767421917,-0.07372783089047748,0.015060206828373765,100.0,0.3101065116017159,0.09988406385766141,0.424124180587144,-0.30044035103324856
100.0,100.0,0.32279226889014384,100.0,-0.20576018263997992,-0.07372783089047749,0.02413621160144529,0.15486411447630286,100.0,-0.04348596099971517,-0.21032203879984548,-0.07372783089047746,0.055805219632327756,0.21532464048993816,-0.07372783089047749,-0.07334227756052533,-0.02253163722066078,0.2813397596959357,100.0,-0.07372783089047749,-0.18274560774747745,100.0,100.0,0.3095608870714737,0.13212211967217388,0.34472660119539605,-0.07372783089047746,100.0,0.22931535586199725,-0.27423998315093456,100.0,100.0,-0.11629299925069778,-0.07372783089047746,-0.10803629839431149,0.06517048030815145,0.37181691524060856,-0.07372783089047748,100.0,0.12797273400268838
0.19294739115006598,100.0,-0.07116094753688755,-0.027836255454598103,100.0,0.023619929384271553,-0.27127117763061187,0.2429631459687089,0.16741416029376952,-0.07372783089047744,-0.062261830446463357,-0.22153839118917135,-0.008798055335177257,0.30119347458487306,0.45883508704824744,100.0,-0.07372783089047746,100.0,-0.3799964562923611,0.17817725911123974,0.023552185722575048,0.2762644799037884,0.45055451889436005,0.17270115533532507,0.2900573052396108,0.27860738651582984,100.0,0.15015676284431148,-0.07372783089047748,100.0,0.2963049008452358,-0.07372783089047744,0.08432024345937038,-0.07372783089047746,0.17827471136855294,0.15541921941296144,100.0,0.2748194681220526,0.08632563248387257,-0.0737278308904775
0.14921367747531636,-0.16897034601708538,-0.07372783089047746,-0.07429933508882808,0.27796134860034505,-0.07372783089047752,0.14676957462832607,-0.0737278308904775,0.10481550188593312,-0.07372783089047749,100.0,0.012294244921457913,100.0,0.21685342140178396,-0.11255442224873166,100.0,0.2450938722207793,-0.17740165542591546,-0.07372783089047752,-0.17018254440308372,0.32104821342578355,0.23395490924766757,0.21853436339905635,0.07610658333889857,0.25159326348241734,0.0808254577404371,0.06569227493547002,0.09238058225760133,0.34512314967576563,-0.30356928985235815,-0.010607697923449753,-0.0184030201170619,0.04461008139288959,-0.15855490302119454,0.37134821444461413,-0.09467846085640462,0.26360706523597466,-0.07372783089047746,0.03713848366028319,0.3216015048677219
0.1536100591431277,-0.1937905409122265,0.17393300612354531,0.2560113653013352,0.18328951412324526,0.14558423589671857,0.1986880775772718,-0.4577009208673505,0.1500478913638823,-0.023615770231528686,0.29168394314737844,-0.10181249190692934,0.10854305816252494,-0.04104143199699567,0.08487494124727184,0.391340965057625,-0.11285363988363087,0.11030700552213663,0.04953047526496465,-0.11119784941750235,0.050710571934554693,-0.2989196585043985,-0.1397060098955331,0.04375174538258688,-0.026842850305533048,0.021286985004902188,-0.1757309856578961,-0.010354681796609675,0.1725316343969172,0.19391137268098443,-0.13131812880209134,0.0630504804837795,0.001559012444633846,-0.12321794394106375,0.20800967434357065,-0.07055907760324971,-0.05745082757502013,0.10162953319382335,0.3332647488896379,0.17425612076883606
-0.09063884595221516,0.36023485736687816,0.20627422757629893,0.16925936815281423,-0.07372783089047744,-0.1685135839650013,0.23302600949342073,0.038409907064592394,0.1966117768002346,0.3473251483937233,0.16929285077949532,-0.17339423980543342,-0.0007320806357769815,-0.07056465685456721,0.07590561237942335,-0.07156033050784202,0.30095404445816826,-0.209904809876541,0.1275522198105367,0.21463985117230988,0.018855753971754558,0.17137363917463055,-0.20429117024748306,-0.2630597268552443,0.01649181177724489,-0.10998729293007148,-0.21541995401277825,0.2586667676037739,0.31735050625660555,0.11155067537441869,-0.2501905915540328,-0.09350836493851974,0.05910183725421856,0.010739731430414094,0.02499963102629684,0.32104285759402035,-0.351722324788391,0.3914832303723086,-0.10313232069992243,0.2685373289469443
-0.059256858650702834,0.28178389820480065,0.031243005861025533,0.25164379142992654,-0.2791873872288793,-0.21675077397040177,-0.141375399141689,0.4167947507983768,-0.2366143904016316,-0.36306486696992457,-0.1718826012009804,0.32227349229197744,-0.030515536019242798,0.17102744797147007,0.18944064423984697,-0.02204336380945738,0.15619178546632118,0.25939364125205566,-0.07372783089047746,0.19263831929124378,0.18496009057656967,-0.025255213448554425,0.04482962902013985,0.09359235714885539,0.1034448755601763,-0.03376555320928384,-0.15539230761430609,-0.09628391534866539,-0.027879142885592748,-0.30540224398916904,-0.06961394668027385,0.010605562129345804,0.062235058347128974,-0.18705880986510373,0.07648916392368975,-0.1407547300687278,-0.07372783089047744,0.0674883887674881,-0.11540971725913997,-0.24092385321947055
-0.04999977166630764,-0.005709233555690515,-0.20578659121203993,-0.30124465193796945,-0.03765214026871158,-0.11451901179156997,0.05328177541434101,-0.07645291752544864,-0.06831198666534558,0.05686609784990646,-0.048617004821044835,0.19885497839945263,-0.19189150834688545,0.08509773322128311,-0.02475239021141527,0.02196790480759144,0.10065606406468679,-0.08352082418778073,-0.07372783089047748,-0.1870112488932071,0.25299406175478606,-0.27217165834148177,0.3001847886766374,0.261433706897797,-0.07956698732628958,0.23374734473192976,0.331856107743627,0.20698612252184112,-0.015841089687940874,0.06306376547753555,-0.032244503997782864,0.26248642641465864,0.22145686139487525,0.25083176174743194,0.09772487544853507,0.11310694436077982,-0.052735753690298294,-0.10311366197323418,0.10536440146067488,0.22721333835391233
0.09018555863279866,0.15749520228076666,0.16040738730871587,0.3131706731173532,0.4017874013906116,-0.10434116795128034,-0.025418267843320432,0.28053878303561824,0.2728645152121166,0.008578758032865764,-0.017696948608120246,-0.0671045915897148,0.11176873628062656,0.020348843832675496,0.10159535848412389,-0.03195731833604161,0.1551464339687271,-0.021056257667689295,-0.10615714771823329,0.10857406950253186,0.05783382010505543,0.06874717143047457,0.10162393304603667,0.035367422185058575,0.06586160599212897,-0.0009462620130315235,-0.07372783089047746,0.2272139439187577,0.15729403369850245,0.1567861902084946,0.2277398647230027,0.2782978042446355,-0.07742470487343019,0.25476812204461297,-0.04140846217759399,-0.04097668310581626,-0.08760012205035157,0.25349915916908167,0.16007179219860762,0.04038778065824343
0.04044487612485987,0.24049969948780703,0.16509260653229332,-0.2505538323000341,-0.06490801059875978,0.13280031711115503,-0.006153459231693517,0.26295852036638556,0.18266045999026642,0.19043496082651767,0.0222792236093024,-0.13733599456185358,0.038875861976444936,0.05493128409016377,-0.09357644025581996,0.03465701678238427,0.12320472628354177,-0.11947496997402964,-0.0016126498235183313,-0.08076024445873897,-0.3059177393231494,0.21258275490674192,-0.3238492657882308,-0.11949201675887337,-0.3099603371726343,0.15410679864764168,-0.3448496239924405,-0.2906360426331382,-0.33433559772014426,-0.3197830679949303,-0.327881365398336,0.030238768723571084,-0.3281830066876227,-0.3175907554268009,-0.12298136035638729,-0.33228632526426893,-0.3279508126413545,-0.30306157223467317,-0.12274165875705015,0.0834908866404436
-0.30666281292390424,0.11812090594677199,0.0018045595374340335,0.20467973699871092,-0.30769687276326546,0.11392827576539073,-0.34616732837631425,-0.32418499030968223,-0.3100558985833604,-0.3029573700885345,-0.3000230347407225,-0.11900060967771371,-0.1182980733240593,0.012719890749530113,-0.003218634373824528,0.056247747069143504,0.22638759114229723,0.08401843968511805,-0.0351407506679066,-0.10960214911807921,0.05304069573481551,-0.048515662217629464,-0.048066962766312296,-0.22893844009703904,-0.008341890752585871,-0.1951451047484297,-0.1889452758135062,-0.02108845715049737,0.044747190174552164,0.04232207812021343,-0.21360297087098767,-0.10901364338246708,-0.1563684443291062,-0.011269926044134536,-0.11797358001216525,0.0565446885088926,-0.2640685694626617,-0.059182548799970223,-0.17371556871264557,-0.037828190763565694
-0.012653808128323413,-0.1193546810743887,0.027011366236982477,-0.07010611776423784,-0.03151373655239654,0.16423806999547833,-0.19260239034748325,-0.05430213173069898,-0.13604029520258176,-0.03809247188177297,-0.19076814671564166,-0.21426678154575213,0.014138791470004387,-0.013275528428310653,-0.06688140570679216,0.022439077576224608,-0.2672945867754312,-0.0048200054687347164,-0.08266682737918243,-0.17593776996307192,-0.05812162474637554,-0.356537767923493,-0.2365252690907991,-0.05594916296611475,0.08083248894019228,-0.04083327481729508,-0.2252773509433088,-0.055062447094258525,-0.04585337993639696,-0.1040353875299827,-0.23828581674202015,-0.21714714559819695,0.16094544016297757,0.029557519661561303,-0.3512677472460218,-0.2344912388478963,-0.2253446624279489,-0.363329828651257,-0.055989328497523416,-0.2234260681323207
-0.32430770012232074,-0.27834735121558885,0.0009056980468417282,0.09137351147910534,-0.08585915539992221,-0.07755654280838581,-0.013890507477014149,-0.22128514855934697,-0.08889914535206239,-0.03046226329052648,-0.22898408274574208,0.13737306045565031,0.06765550414165368,-0.24932347950197775,-0.28759762493339136,0.01724135322552686,-0.2965519438554922,-0.06621358043794974,-0.2542003464666904,-0.08261714426065819,-0.11330769355552674,-0.30097116094835624,-0.3317180936460871,-0.21537426591506767,-0.2069097112308138,-0.23109119678105172,-0.2606416883186515,0.06439625090744554,-0.08524951323460525,0.008723170358938177,-0.06911533290005879,-0.06048341859560325,-0.221154787670441,-0.06670680665350168,0.013844248369365089,-0.1530746173146572,0.10314452056948309,-0.04646606413861167,0.07770068085407801,-0.010438822658401714
-0.22144108758660747,-0.25546468792401317,0.04859082240991953,-0.10657376241609781,-0.33762229252805104,-0.25578957223425774,-0.03854557735359857,0.07846465172403619,-0.14091384938283777,-0.19763194310903764,-0.061223854655395184,-0.15916420323905148,-0.2454720995004207,-0.0855211419678569,-0.22270605421739076,-0.12588696368707097,-0.3281103131690693,-0.33777055889941543,-0.08526555636282912,-0.312482155703682,-0.1180703569459614,-0.3419975351610342,-0.30136125865886726,-0.1107306302789188,-0.07389599270936345,-0.15377683732578826,0.09808265226306351,-0.07239985504714229,-0.1570963272347582,-0.3273538876952734,0.08726757638276542,-0.33246607015856905,-0.34985511039060374,-0.033843510334122556,-0.33406770047220563,-0.31558522478630463,-0.33730863494238505,-0.06997359133252544,-0.07808217573062169,-0.16071097859530672
-0.23153461671242453,0.025330752935461883,-0.31594497162138774,-0.1442637649676082,-0.18602797091898857,-0.3292972224720108,-0.020251207974521457,-0.023955532666863823,-0.318535764696775,-0.12677423012775474,-0.2939665646778375,-0.33682534516994567,-0.05413050723977348,-0.0660229346501061,-0.13544151368462068,-0.324336330145966,-0.16979111215118853,-0.3367693064239387,0.013264736859783606,-0.06412774358492068,-0.07467038807548698,-0.09572630260638157,-0.3158406458765251,0.016569563780317747,0.1118016527051609,-0.3096307712442781,-0.07992693598786874,0.1118759876349713,-0.34014967518954387,0.007740435146617442,-0.08749392119735448,0.012507229902570458,-0.10832629991585119,-0.05116028555588841,-0.1123367194993306,-0.08602874055624528,0.02345529766892985,-0.2127494263253217,-0.06928138758332486,0.05022775914403836
-0.3042203292653645,-0.09151158338650374,-0.10638718730290267,-0.32309464506920565,-0.10945262229539021,-0.31377942893141775,0.027719123765620735,-0.31302897414276126,-0.023972555536813683,0.08175796661652976,-0.061234314986182994,0.09311498231404672,-0.0798161063676092,-0.3383195083551906,-0.09131930653376338,0.01743231775094761,0.0906569022927756,-0.11440852705244459,-0.018110244784344524,-0.06165398570083972,-0.11585438882063301,0.2664829661675811,-0.0737278308904775,-0.01637080143886106,0.2874846196738256,-0.41114932313958624,0.4047094413619167,-0.08720043365161496,0.1736680019437588,0.300559241989574,0.24738703003401374,100.0,-0.07372783089047746,-0.06810199778513444,-0.35671965070794476,100.0,-0.11706727148296807,100.0,100.0,100.0
0.4214718238354594,100.0,0.25869404943122715,-0.13308806288345224,-0.07372783089047746,0.22473973111217743,-0.07372783089047744,100.0,0.2849676297348284,0.20196835946704803,-0.07372783089047748,0.2999567466400008,0.1139755643795692,-0.07372783089047748,-0.07372783089047749,0.18724457271199657,0.23915552023484457,0.22246393412227802,-0.07372783089047746,0.27416465929874156,-0.07372783089047744,0.13229355307222282,0.17286672767736397,0.006820756485773986,100.0,-0.1475595852709451,-0.07372783089047746,100.0,-0.0737278308904775,100.0,-0.07372783089047746,100.0,-0.07586380527497007,0.20689274166626295,100.0,0.018812724792354612,0.5061228045506341,-0.09386612850113461,100.0,0.30379084482594704
0.16772359609624293,0.3161297205311914,-0.07372783089047746,-0.07372783089047744,-0.09296270677793449,-0.025145928517972347,0.24848844303531928,0.1300402202904235,0.16864845721189925,100.0,-0.1451626749553915,100.0,-0.07372783089047748,-0.0737278308904775,-0.22629358549631506,100.0,0.33271848143116234,0.29450947913364206,0.43807774813989586,0.27146500243138677,-0.060151461994712684,0.17349881375937615,-0.1918485309474168,0.10405102052650811,0.2601615064442254,-0.07372783089047752,100.0,-0.07372783089047748,0.19812615003660888,100.0,-0.07372783089047744,-0.07372783089047752,100.0,0.0923552668266197,0.512913157429201,0.12411859114268488,0.22182268355641155,0.1490069429996411,100.0,100.0
0.10134091524099643,-0.08144322245990686,-0.11158963641689293,0.2931230229228745,0.160209473365026,-0.1562155085317879,0.07719303554965999,0.28673343649605276,-0.29218371354419315,0.28276198379640916,0.17367203501912962,-0.21327175580547456,0.25880168925589164,0.0765853220597898,0.30504171380454637,-0.18715758678141178,-0.026697726947314943,0.35436978841178,0.05477048531706382,-0.07654776696083093,0.15092101563159094,0.2320437366526647,0.1675556342022068,0.12893747570631608,0.10595349150590201,0.2866890444790805,-0.012566332827102065,0.06407492371506061,0.012062554332926237,-0.1715631221227499,-0.469418430256465,-0.0404407551066351,0.2071005088655209,-0.022951932995955895,0.2792267145424465,-0.02498400752295702,-0.09286376863298548,-0.06698837767175783,-0.14690318094151758,0.23945206811488798
0.15545865971684228,-0.11775692103193339,0.16637548065354804,0.2160365367632706,-0.0012447808391035,-0.2611428576777386,-0.14784299606879067,0.05624740031617184,-0.22559870932811452,0.01887932045318882,0.06498490720540204,-0.058582318348956317,0.1584605312575019,-0.06954914113179146,0.1402580355921741,0.1548283052639351,0.30110567031352303,0.12567008625651618,0.021252532983990807,0.1927416588871872,0.3542845526491661,-0.01101754771774668,-0.0304825377639598,0.033914444934372207,0.1995624930573721,0.21854254231705036,0.1595536888110873,0.29930067007734257,0.2023687615244536,0.06664354407506626,0.19495580416534022,0.15359376179212014,0.1745835765459584,0.09927330051845516,0.11603372400471096,0.13525409076962025,0.1419603966170038,0.24819007617341246,0.14520759048063384,0.028649228343485315
-0.1401193470081277,-0.03397961262596207,0.021144906308325356,-0.058068311381776254,0.09987022190167859,0.13208430485877676,0.14920191573884412,-0.21145518928575724,-0.24619882358750161,0.08784258803183631,-0.09443296390131108,0.18381379140052814,0.060701766571510336,0.0723570644201213,-0.2475299415914793,-0.07845223424446109,-0.11234129294206843,-0.12905143574958391,-0.15402088500870134,-0.10483419647065415,-0.17165529070312202,-0.17570041040110368,-0.11204534544551104,-0.18561060448224914,-0.044948018202636705,-0.08295629607180639,-0.08716118304123738,-0.17968893835670466,-0.17448874005183201,-0.1361881035469906,-0.02937752322120994,0.07781682140262056,0.11115271114284477,-0.07630408834538671,-0.09392063989684259,-0.11545217215642506,0.08292284973694052,-0.015080297126390585,-0.08550226035068058,-0.09403322027013195
-0.09113090018997752,0.07997789738575851,-0.08546099387821007,-0.11238182226858427,-0.039319150135780294,0.01972925448618425,-0.10373827760721971,-0.054790735455348724,-0.23748548350965532,-0.056926568250074375,0.04503463135116899,-0.020367951738092846,-0.07782304854186081,-0.07300399609566775,-0.040465083036350734,-0.19540661720195424,0.07392307362994659,0.08476182061497012,0.02227199199901361,-0.008204979227543062,-0.24127160603271602,-0.08066707846525101,-0.04665278596319845,-0.21503811871528847,-0.2095609084281752,-0.10980654809066216,-0.19924788908754046,-0.10280869711930476,0.010856970785712624,-0.0853127621040137,-0.09406991908548822,-0.08306912484054131,-0.07514920902388046,-0.06960572731355329,-0.07589570576475857,-0.23755711486932896,-0.028301175035098866,-0.21726400491072506,-0.23807491869036862,-0.23716023716993107
-0.09202262222602577,-0.08596462786669959,-0.09864924912685635,-0.12167074131770193,-0.25475733315820104,-0.1166961928023229,-0.043331386754687555,-0.09493968569587978,0.12901746483529855,-0.09176761352359362,-0.09517069000271013,0.09987909924717375,-0.25152494312895934,0.0815874393992591,0.08897354095178164,-0.20531569798649132,-0.020602664070910704,-0.07568446992783665,-0.07868049574828336,-0.09413716999020287,0.10591922936704735,0.0703435400411912,-0.09224280662221508,0.09059020156008286,-0.10322644542224235,-0.1009883610688383,-0.09763247771486576,0.07946426246034984,-0.05752869822809244,0.07887390379392871,0.07531206614936518,-0.09165215531692396,-0.10888173563928155,-0.10178817687701533,0.048882173066771686,-0.11864937437687532,0.0767897465733809,0.03781081335215031,-0.2414711733106762,-0.10307780535421836
100.0,-0.07372783089047748,0.09892957121999697,0.3655506298598289,100.0,0.27789936050715575,0.25308397768826174,100.0,0.04325893612034286,-0.0737278308904775,0.19987212632331594,0.5717813052573851,-0.07372783089047744,0.313300239670487,-0.11118071652083585,100.0,0.31770940922657864,-0.10565495265131243,0.02729355475836431,-0.21577419092143368,-0.21027699937275954,100.0,-0.15711165421955856,100.0,0.3258313608648148,100.0,0.3059339442686292,100.0,0.03268651924892641,-0.07372783089047746,-0.07372783089047748,-0.08316848488303041,0.29307844326408555,0.10184309976011137,0.01834050194867571,0.11296002196633738,0.048570660567235045,-0.07372783089047744,-0.07372783089047748,100.0
-0.07372783089047749,100.0,-0.0737278308904775,0.24028167415956483,-0.07372783089047749,-0.07372783089047748,100.0,0.03653274172515421,100.0,0.2717128423945331,100.0,100.0,0.3131443322243914,0.11234660009328078,-0.13883959807094187,0.36398430969579554,0.23493540054489803,100.0,-0.018038344445455528,-0.04945434839905184,0.34230465857320297,0.32005526728520006,0.38670667881700965,0.05961215614009666,0.17948922615245397,0.11108137003076698,0.03263869890696273,-0.24604951079275103,0.02972585606581313,100.0,0.20278656529844719,-0.07372783089047746,100.0,0.3060868600263254,0.058745742765270406,100.0,0.06305026753151424,-0.22956453338834518,-0.060006188422762625,0.21525577722921937
0.08104411781084853,-0.03947888737659234,100.0,0.1269604993685458,0.2702209575558881,100.0,-0.022103083728053162,0.11394393948784762,0.25255036931458485,-0.2638887595243059,0.3485769716024685,-0.20605001885982785,0.14221845061757146,0.29291021380864385,-0.07372783089047746,0.22605043682762208,-0.07372783089047748,-0.07372783089047742,-0.0063615171087729,-0.0737278308904775,0.24620289076448792,0.04631758068432281,0.2084376510987885,0.2802611114961735,0.11638291643401587,-0.03141561326616623,0.1531239363481212,0.16475058386430017,-0.11084223204466852,-0.0018315761270193856,-0.0737278308904775,0.055302247262646084,0.18795379395521808,0.15351496800335376,-0.0644551394588102,0.1429669617879108,0.2373866492803149,-0.3303214749868684,0.05044325159804448,-0.02808244552700504
-0.06063102747400576,0.203930324771656,-0.14166046008487473,0.1972184291067326,-0.16335110802026326,0.30064404749915036,0.24005931765602206,0.08542678436430738,0.10913619764963298,0.1349854037919232,0.22875287462962862,-0.08939197616118282,0.2525062640309691,0.2550311805158143,0.07459826963796132,-0.018178753908236544,0.17306452113274715,0.18725297948993297,0.13277155238698424,0.14930711241049016,0.18655080682916603,-0.19143931008049356,0.27360147150064296,0.24201099172811907,0.15964665536998507,-0.08288474368297395,-0.31201314126830704,0.14803247380422602,0.06030382573672866,0.29290665903849067,0.25950179180267147,0.13894807829192152,0.04573229136617186,-0.2809232913703417,0.005810043417597923,0.1839567593480645,0.11295128736455202,-0.1717146053347721,-0.039449472955558326,0.26344069703497797
0.11845717630654741,0.060145446370302134,0.1280067983496022,0.13648682478671434,0.2304614141162394,-0.013591067682868965,0.18596165213478882,0.26585028998235455,0.08277003994099413,-0.18198752659093442,-0.08837220480814653,0.3428689638020326,0.1459402437892294,0.13677219151143302,0.24533542647409234,0.08056368759764164,-0.096752664908054,0.14305332751196795,0.24313406709149674,-0.060533830296401386,0.23304918546716752,0.027520386663330308,0.20215192651472158,0.42650316501392255,-0.01872372513815467,0.24530946585829091,0.17057995581736685,-0.07353415077886943,-0.29523358984675424,-0.17508071057998975,0.16358220423914036,0.07575750162843997,0.16972023822588614,-0.020425245467000353,0.17026596550577228,0.17814476704988014,0.2342626129296771,0.0018741331228480202,0.0027101222234614934,0.06709684220083233
-0.0923371790222748,-0.06678872906688516,-0.18332304714140166,0.31397230258091474,-0.005985679740042494,0.16203364633782233,0.2410509229247971,-0.22323467824031334,0.25210464558856127,-0.08140094071880437,0.2115874839429652,-0.08236494202148646,0.05900198633799278,0.2325658186751867,0.2732960192787301,-0.24813181864326933,0.05227603918786562,-0.21701416999175144,-0.1569079146238463,-0.2137219580402444,-0.07830309709075504,-0.253651655396772,-0.18301458952067284,-0.05639455220211475,0.02872844740163958,-0.2797631015004657,-0.05901661191613559,0.06118064088228094,-0.025320062442056892,-0.062286200654507115,-0.28531024764071977,0.0164289915325105,-0.1800239669322054,0.1335676368202711,-0.2539748801511719,0.12388801626909907,0.12046867496651117,-0.18304879562555626,-0.062156192349063576,-0.011387662935719935
0.17028307811883628,-0.09245413116776749,-0.19200523274593545,0.15136391934615978,-0.14007137401407052,-0.24438171050883398,0.06827497679648381,-0.17459815429496797,-0.22949214076078545,0.06805596153199403,-0.029649928272489204,-0.11431261523305634,-0.1312770049218789,-0.2368624512791215,-0.2529949805771357,0.06857754862204377,-0.08364876466726105,-0.02707310355384149,-0.04545020571660993,0.0032946443336254335,-0.1127286020410292,-0.09511922120881748,0.021583297512557217,-0.29954836224642717,-0.023470087879373668,0.08310702831270543,-0.08540086408534946,-0.22916489868205148,0.015140516905351592,-0.22227404757791805,-0.2585677544165853,-0.06893475393556797,-0.3166034883133322,-0.07372783089047748,0.025551581323549136,0.07440631414450431,0.023551687478497414,-0.17789388156933347,-0.11666515886886365,-0.2060986878681319
-0.2070363763083384,-0.14614726873272746,-0.1291662830218495,-0.08456924253258953,-0.08984553593450001,-0.10155624282112975,0.04490403653807288,0.03809530546384777,-0.2540097065065321,-0.2636204106403555,-0.30498244776528,-0.23708440399881747,-0.18076920326955903,-0.0926608774450697,-0.3312597707576187,-0.07355699657144678,-0.10280443745749582,-0.08465433789850936,-0.01620107641600831,-0.24604146738235572,-0.051349393662932216,0.08159689517780869,-0.09051022408275951,-0.029270350569488277,-0.10492356759058989,0.1312572488759114,0.004497101106495551,-0.0009330788583026428,-0.020491950127345664,-0.0996980224946024,-0.23584192952775151,0.08053472007181482,-0.06883918870082711,0.005842438152519355,-0.09939132829237876,-0.10565334011025557,-0.21013206938767479,0.0014418403691323141,-0.001667147327822645,-0.05734322309926595
-0.02892294132879601,-0.08788845374542982,0.01024104495063918,0.03112710888552009,0.06805986331520154,-0.08450909223176545,-0.08333225003328122,-0.04441925876138726,-0.252433293046509,-0.02048600492241808,-0.05758301251064777,-0.10373876617894273,-0.021020341825573854,-0.11300181636810387,0.10863684738904467,-0.08542815860303762,-0.09146361592669043,-0.015978873848114417,0.05747680535943877,-0.08110180071639228,-0.05129094606453436,0.10902372824611832,-0.07609828876510251,-0.050028963335978914,-0.04797508377503427,-0.19051691791741135,0.08550837555440675,-0.014200714286756528,0.02520565906901593,-0.08185961050138704,-0.21871377569367217,0.06679687149432402,-0.11618722928794196,0.1148864725365215,-0.08497667255083613,0.04908931094300808,-0.2705575877374854,0.14420941086601294,-0.04607117234200405,-0.1008253856606989
-0.07333879192112784,-0.04243357485743034,0.10841610465113569,-0.20669000473762705,-0.0024090456429001657,0.034879580791919156,0.04514235966978726,0.09712486953386669,-0.05659005333569004,-0.2383564403095712,0.10293137439670515,-0.20411281914593157,0.039395310374801464,-0.28126350951840756,-0.05005075742988581,0.07372283083451761,-0.09477942496195771,0.008396935917595707,0.07899848441073191,0.03099245127297748,0.13833473384018685,0.10009721192473604,-0.022751006074774417,-0.1566768049078187,0.016636496094455687,-0.05648651013899461,-0.21432177169477196,-0.009028490180899731,-0.07551385007883094,-0.13702867996495272,-0.20428731249993717,0.06833170920978839,0.10778867898830895,-0.03171320479659903,-0.0963935236748383,-0.15899723375078104,-0.05288926384000471,-0.058953138830747306,0.08660257159678185,-0.11112331527740002
0.14256778580680157,0.20173947180499494,-0.01976034882543211,0.18697405687376878,-0.08069094370800277,0.0684953413240341,0.1483539665716901,0.03289850937659478,-0.1487709459957117,-0.2583153762320273,-0.10799456424956438,-0.0934231660552547,0.07599945324145047,0.16320953552026474,-0.03018079634588394,-0.15012279727621722,-0.18840970074051852,-0.08343701246706181,-0.11770311718166153,0.1696593815190014,-0.06202352190588433,-0.22191436228793443,-0.09782938054015464,0.014654052522375957,-0.10358471657482697,-0.0067431085593689585,-0.25860759944233347,-0.2502612635053875,0.03391993993277537,-0.002703344041807192,-0.10240367291423774,-0.22869448715685883,-0.003151032347178396,-0.07334770295697175,-0.19131081105882786,-0.21310211440736188,-0.07563043712731785,0.05875311442159183,0.00620511875205638,-0.10153373269405956
0.06379076062311397,0.07008230646966687,-0.22259976244122617,0.016729433712685933,-0.01424776629568758,-0.08653051833465257,0.048454630654995216,-0.22294001891170256,-0.05219531313513198,-0.19852999620423684,-0.20423847330054637,-0.08402630449271768,-0.05840693359930313,-0.09317983917809572,-0.09219737463494142,0.06417036830550783,-0.09250826587086658,-0.19647165957482107,-0.14572186414239835,-0.21896214555980753,0.04639567083111134,0.08150241792791543,-0.2714854686505592,-4.5530372883298084e-05,-0.08723430355438783,-0.2122349230178499,-0.04391838325794741,-0.0013720332467698976,0.035001260190923825,-0.1082742394817189,-0.040155556061472385,-0.10167108968642191,-0.0232345131569784,0.07821905356216746,-0.20562713341545702,-0.07147551521232014,-0.2702596069757048,-0.009858621264260077,-0.10653783013958665,-0.11123234817595891
0.0838204320776491,-0.2665001020416439,-0.014944408443014569,-0.052792091695007266,-0.06435636370132193,-0.2479768229765662,-0.22079044907770123,-0.23936698961319364,-0.017772279887921887,0.06687182088179301,0.038587534333611236,-0.07936730869839154,0.12055474931877179,0.04063915821304315,0.11211324553952139,-0.0035274656065544447,-0.006261023289767908,-0.22070454939952613,0.07543610079155734,-0.06831110637490904,-0.10935863174514919,0.01872239096088038,-0.11817305380219711,-0.11611009671824297,0.08574522722511609,-0.11586604339176983,0.09630383797632629,-0.10804354689823882,-0.11334366568747593,0.05048739798346547,0.10506381580395713,0.146083567167486,-0.1235995679646387,-0.07683255871125319,-0.11945364505213255,-0.08910374951991139,-0.10214401566116584,0.0034061907308714752,-0.1057709924883197,0.0023076282402063257
-0.1042539803238572,0.010215286863074519,0.012013134845385359,-0.10662354085186272,0.011408152512772204,0.10594902235814163,-0.11069551157765632,0.030251927636250793,-0.11549160323973824,0.005599038801376378,-0.26397013996325236,-0.11006120463825877,-0.12315198217504666,-0.10998685907499377,-0.03578333331400641,0.03098965340823959,-0.015923467754441836,-0.008850767914438028,0.08470918880720633,-0.008185865643700883,-0.12531212188613322,-2.9542837255305555e-05,0.0023060512716349918,-0.10846967039386356,0.11870714673125762,-0.00011749189257162877,-0.017057945060114224,-0.12752667600766324,-0.012968060963884335,-0.0895661520153519,-0.010044415050586194,-0.1120369768072376,0.1320356338161418,-0.12142084078321509,0.11981182292874289,-0.008530837289510183,-0.11395241406594808,-0.11921439146441508,-0.11827745169720934,0.11697195865956475
-0.0011841618399611633,-0.11163921258800125,-0.016391011298003223,-0.08263012171678506,0.029725178869677706,-0.0049647354539823635,0.1251185659069588,0.10916583500535164,-0.10876950618415428,-0.11173819052094457,-0.08061092258805996,-0.10339724156733159,0.001277039556218911,-0.10967422358826133,0.08896117256129042,-0.1254063584434651,-0.1191393416451314,0.12209938689350333,0.009940276767145186,-0.08547602639705514,0.11942474615231863,0.13353153957706507,0.013293152027409065,0.034297806055966336,0.08193576631771456,-0.10724787400818533,-0.12358349125985278,-0.02752645324940868,-0.11610261878988778,-0.07517083518823761,-0.06587812205751149,-0.010436350695133479,0.018002737209696223,-0.12097475688708181,-0.11727555333336359,-0.08726910761487437,-0.11368664733776873,-0.12458629070080957,-0.10912105679478008,-0.12265758016465546
-0.11270981600302349,-0.11496497810790356,0.0946600861147875,-0.1212488278720757,-0.1208441152548898,0.08146012685826687,-0.07796290015914228,-0.1243145460443499,-0.12879033093304967,0.012988599257654651,-0.12036621308717231,-0.1173628903353119,-0.12524458619154696,0.005407041712532597,0.02258847465481159,-0.1242247878270092,0.11961991855307734,-0.00960338200201306,-0.12262113071810252,0.01510306752810239,-0.1211089966341369,-0.09159621080370675,-0.12254641700421594,0.12018479381519837,-0.12384188563057644,-0.09922169796401686,0.0037478987209716794,0.0525698899302578,-0.10316006653655038,-0.12844800058255817,-0.10269633598564297,-0.016231224860917867,0.10626932668212005,-0.12292324976086921,-0.12499016636428031,-0.022517711901245185,0.09455390489580899,-0.12635936282429136,-0.09783164335509198,-0.01877872313473438
0.001390011621257395,-0.10004686835660076,-0.12202839829890037,-0.12487855666679368,-0.10359352835910189,-0.12381949953200609,0.08538989106799545,-0.015663587482374598,-0.012913898661993469,-0.10680695880537559,0.013245005702093407,-0.012338861787454287,-0.10595565580601124,-0.08980883769986873,-0.0023710317028996265,0.06012389346919817,-0.12903929304884595,-0.10075968182980598,-0.12548512945938337,0.1180128277910113,-0.07372783089047744,-0.13082942976275563,100.0,0.25718575972482305,100.0,-0.07372783089047746,0.028477670180076235,-0.07372783089047748,-0.13595112600590487,100.0,0.21544887855590605,0.048561316057788254,0.06141703189687445,100.0,0.20605531680540498,-0.0737278308904775,0.1504110404727581,0.04555928939049568,0.2527300702502752,100.0
-0.07372783089047748,-0.07372783089047749,0.5406875475189367,100.0,100.0,0.18474110608341274,-0.05486636176991907,-0.09815805495064242,-0.19024855729300227,-0.07372783089047748,0.3408157666249459,-0.07372783089047742,-0.1208476625316549,100.0,-0.20324772917787473,-0.07372783089047749,-0.07372783089047742,-0.07372783089047746,0.37701810538845965,0.34172278479004503,-0.06646948605289751,0.32880919324666275,-0.10500035037072467,-0.07372783089047749,0.20879833692648253,0.15683070788157294,-0.07372783089047748,100.0,0.045201964973924404,0.08570567071318096,0.2872255446204244,-0.07372783089047746,0.22831766770960782,0.2208230039538318,100.0,-0.3313618694050025,0.15051365007449455,-0.07372783089047744,-0.07372783089047749,0.3339326905393512
-0.07066732799158651,-0.274120487417442,-0.019559588777826306,-0.059385430187011166,0.23281337734671836,100.0,0.36493007884265166,0.2273272608626616,-0.07372783089047748,100.0,-0.07372783089047744,-0.04018006866938955,0.20881133698972063,-0.07372783089047748,-0.09186926804061409,0.22609220614489556,0.10288070560817161,-0.029184807903077304,0.1895074676987896,100.0,0.14878115200520936,0.32493461500577536,0.3656959808630007,0.20760931399729562,0.32453425317591195,0.24925065840976673,0.2537519121935325,100.0,100.0,100.0,100.0,0.27846992552120586,0.2126274611743114,0.15023756583686584,-0.07008247035385602,0.1782795048896248,-0.07372783089047749,-0.03181499470569368,-0.07372783089047746,0.2443806579531567
0.08169105196857067,-0.06763821241503316,-0.10919834369779971,0.09900294762230338,0.19049326376109318,0.2891707909211205,0.10707947871434428,0.3332339352745536,-0.13980562012212666,0.07700223619013455,0.09023530866074728,0.22948863001595085,-0.1447366812811336,-0.17619179801679177,0.16127598091487183,-0.126282060554031,-0.017381394693028417,0.03356022029135601,0.13557323025001777,0.33838880138328725,-0.22513071141599833,0.08889329976543252,0.20394176652978135,0.21115683053386092,0.18195380969466676,0.1307021111367217,0.09768506241562475,0.21061819148261643,0.21463680814414549,0.24063824693620292,0.1093868735770045,-0.029358199442444582,-0.2066113097210415,-0.1224504898238757,-0.0017768243206597136,-0.07942028864108719,0.33760828118927266,0.023997471906121965,0.014952061016297832,0.06684752133783418
-0.12424920592130002,0.14633193740166398,0.04118171311524424,-0.003838751822488674,-0.07561547042527376,-0.259142223597027,-0.08443651307740019,-0.21731060760495285,-0.046448937144143596,0.03863280690021519,0.014670919417885557,0.08835908185801943,-0.17513591609278986,0.18840283207214728,-0.1574294590240445,-0.2225476732343885,-0.08357868528424776,0.06879972422317698,-0.06864584252514272,0.1631080116891288,-0.25408230870532567,0.0912265436801155,-0.1718701593519203,-0.03345256867571553,-0.08021586486394147,0.0005786616859398926,-0.12604333881383367,-0.2508898427749627,-0.19531648443214,-0.09178764428457724,0.07003332991601481,0.02126345898285804,-0.002403591752169356,-0.23247631334552837,-0.01004508871860286,-0.03812090435644328,0.10390570617524851,0.048155948148329866,0.13828915099084124,-0.18023205787513816
-0.07300817623163038,-0.006951061751670477,-0.1265647520139047,-0.027406228508607303,-0.05493867941078144,-0.06800624528523991,-0.19742691682868868,-0.2268331994130232,-0.07078888734452188,0.018394509446704378,-0.0480371544177372,0.031537804785444726,-0.10354788667820769,-0.0024992932312779383,-0.03965236569519249,0.12444263941652657,-0.2556063318940476,-0.04644827609885758,-0.16184477559254629,-0.07251789588542927,0.1012179012267878,0.1018077725830092,-0.22920042295226128,-0.25283822982333404,-0.1459404286130117,0.011179642327621062,-0.08439062399456759,-0.2227967892499563,0.05704039056469342,-0.10059411099287102,0.07606178862946555,-0.1966689568644083,-0.0827680055832932,-0.046106288461466305,0.06683487443426735,0.0668571581245403,-0.02100486680907273,-0.06761149014017899,-0.0595333101606786,-0.2523681828843907
-0.12425264266353314,0.100543948461754,0.0411013928470842,0.04603397247796244,0.03194260178484399,-0.2376271652897563,-0.10847819029823631,0.049160289947780204,-0.11404009810650752,0.08315691478937136,-0.10482753510106893,0.14599185665679595,-0.28297107928065957,0.11017437317212381,-0.1028752838533191,-0.07008839660014199,-0.2147095290741189,0.013767678525437409,-0.10677552557438301,0.06649333185015786,-0.01831846129044452,-0.07372783089047748,-0.08343163451865085,-0.07035048149406382,-0.2070274447171192,-0.12371911116011391,0.10958522095352638,0.05610418321343966,-0.22199866704272297,0.08692155004944457,-0.08735249353809668,0.07596108907970942,-0.116872055154199,-0.09837172301885765,0.08819643176600658,-0.1275110195060881,-0.06618982510732804,-0.29072302363167407,-0.07099869156681533,-0.22766343524496502
-0.08677578316808031,0.04958894768282529,-0.09527162191216902,0.01989579023319738,0.13663627703679943,-0.10749978441325633,0.03749281106105467,-0.10721228396764848,-0.11034426321255685,0.04260530130626253,0.12313697227559593,-0.09407292485192874,-0.08521081586399082,-0.09871507995737365,-0.10487378018313814,0.0004800904438517355,-0.007350230273875461,-0.012505753007734762,-0.08834449230757489,-0.10814933773147138,-0.02929333094988535,0.11323901846934407,-0.009189967746704315,-0.09492316861001021,-0.0862506873551895,-0.06371642861716575,0.05951256158410482,-0.09970297842560887,-0.010931726010988624,0.08834061626842635,-0.09561168900377023,0.1192778075702967,0.1118792860220552,-0.07264881383097234,-0.09838335159038293,-0.050006841664568494,-0.1073390684475766,-0.10342608211835466,-0.08697192908125378,0.013616142846296994
-0.09727132948618883,-0.09399624592834367,0.09012254857382364,-0.08875120275318969,0.03456140740346232,-0.059842024022397224,-0.10173153563606897,-0.08921388926378183,0.04056095301127078,-0.08861863533813293,-0.06944681351175666,-0.10233114166569914,-0.07497247500910421,-0.08227717869480479,-0.10704536793348458,-0.020089114616487203,0.04292341288207031,-0.11304951234826487,-3.3761238837240686e-05,-0.09527428084099113,-0.1192138949219749,-0.008853850156163164,-0.09569064286681866,0.08577203636432221,0.12080874711025855,-0.12131215873375702,-0.12004940081356662,-0.008495398911636299,0.11527252323706148,-0.011593431365065446,-0.07771542699321259,-0.002925393782444729,-0.09999751462326507,-0.08664723755699874,-0.11183222995471605,0.0038768863418946744,-0.09092005929752311,0.03444331697340562,-0.015829483744537628,-0.1105723699366186
-0.1188578592436882,-0.08269630104514811,0.0953334369974478,-0.10479967991283155,0.0656801538538055,-0.11582953028990227,-0.09793594619267597,0.10204771850623456,-0.10158815469612813,0.07968791563475822,-0.10106853774850086,-0.10725640877668173,-0.11317401638904881,-0.0977008624838311,0.08745963439508146,-0.11177570498687582,-0.11720074408066256,-0.08977591413668995,-0.10287114062888864,0.11578288101766888,-0.09809925799917879,-0.10824265165295534,0.08798663780918746,0.0010357594644510577,-0.11105397401158347,0.07514346674927687,-0.0906165351440468,-0.09779813087148337,-0.09787437167249237,-0.09397359831460148,-0.12232245272271453,-0.10886339558365529,0.09150457208540896,0.09668251321122623,0.004578352285668704,0.0899693300175608,0.10576155093233164,-0.08342878835355357,-0.09508241643666072,-0.09840768144964937
-0.10338499659045876,-0.0865040649493567,-0.0869965962651428,-0.11255160802644011,-0.11545490629422608,-0.29315939480048053,-0.11869128019236058,0.08973219782402501,-0.10480179650774227,-0.11898292652264322,-0.10408161232742076,-0.08143665320075709,-0.12534040842963393,-0.09756534201048345,-0.0845109007158338,-0.10833236790349601,-0.1279227560526184,-0.11921159675468564,-0.10924699603307088,-0.29104564940034205,-0.08935123614164188,-0.11346542621165678,-0.10066802136321484,-0.1204067691426251,-0.0903441412449353,0.07124866577090175,-0.09910064583967579,-0.27182925401757635,0.06353481988545563,-0.1135372414323988,-0.0955696034567842,-0.0677838877297951,0.08214198359229904,-0.10527054048090162,-0.11658254626402244,-0.06256201691837142,0.08097730944357538,-0.10954726498278435,0.08806036896968962,-0.10676143320795786
-0.09086324522702795,-0.11571921400568694,-0.11518794977104704,-0.1176807323090514,-0.12498106635073371,0.07241450671443748,0.11006301164493801,-0.11879129320712789,0.08102195640902689,0.07484420186595545,-0.11269762091652316,-0.12335543625988439,0.0822905156467115,-0.09679635054899671,-0.12855420305803603,-0.09387005883426666,-0.1155695532891856,-0.1051768794316727,-0.29335648023442723,-0.12814713430260247,-0.11008345499049312,-0.12152014443903005,0.08666241922053114,-0.11056520130340325,-0.05840289370970926,0.07495146750387803,0.11815835021524083,-0.10276332386843999,0.08156378896641706,-0.12549619179330374,-0.09504476189527568,0.07641859764237748,0.08193094162584243,-0.12057987065039477,-0.12050348878477694,-0.10053821238343118,-0.12513396131243648,-0.11274646765585206,-0.12969414167287072,0.08472168984332129
0.08990569875510988,-0.10718590485480368,-0.09908198482462019,-0.11820398766777486,0.076882059685787,-0.09586715970151595,-0.10946322823113148,-0.11093064402246024,0.14134832820915377,-0.1059774309862279,-0.11402683568856456,0.08558217804182518,-0.11933881589904727,-0.09822988016934057,-0.08293380533799659,-0.11777405575707738,0.08162861006561006,-0.10075397474804967,-0.12505919860712547,0.08790200342806438,-0.11734098503485604,-0.11384594626646072,-0.07379415227101113,-0.12211962127674317,0.01222839133628595,-0.12262377543348806,-0.09500187129031373,0.03842519877585192,-0.11886825505986885,-0.08824146474614844,-0.12547640251178,-0.0975021263395067,0.09050761069983108,-0.1245998615693813,-0.12067023355162523,-0.13115873540211004,-0.12463618380227402,-0.12085469462692934,-0.12661417159781949,-0.09672267847809433
-0.10464398060877289,-0.09458918021631794,-0.09834881816165018,-0.1274707436834318,-0.09164300658866627,-0.11716102225186752,-0.12270167536673719,-0.12209365489394701,-0.09319136401415463,-0.12605928801474078,-0.09448161388099212,0.01949117136133901,0.0899123542358158,-0.13609203559012015,-0.10094192474091218,0.011110855742867796,-0.094050913072282,-0.12372347594251133,-0.0924556266426978,-0.12743012062372014,0.12308891274701998,-0.12107866721671638,-0.09119041744064042,-0.08711166814114828,-0.09352901147131898,-0.09721626361274681,-0.0939867989830682,-0.11321961089979797,-0.12178434002302609,-0.11328003834768557,-0.09863066342065495,-0.13304915313860477,-0.09914446506242809,-0.1179816305529784,0.08355684547534414,-0.10084551959142993,0.1049444734821506,-0.13006470813096568,-0.09197149454683805,-0.10570606204111845
-0.12703186594123383,-0.07470963778010588,-0.11125441449575482,-0.10283324083737858,-0.1139979884044236,-0.10513276999352893,-0.10312034236951174,-0.11760479837341649,-0.10775459991224472,-0.12101235441437927,-0.12452654543979089,-0.09070289930898864,-0.09769253209167172,-0.10034390352858151,-0.10555645214931132,-0.10693907141785146,-0.09947011698004449,0.053349360640124535,-0.1222958687948383,-0.12569708123735227,-0.10669183603490634,0.012770616104425439,-0.1272261360137569,-0.12459772943782942,-0.12418483159309045,0.033602128118285446,-0.09013838882696326,-0.12595953693904463,0.019432903193422335,-0.09178804516474479,-0.12300146539605174,-0.12250660298658596,-0.08182261265553552,0.042333446868180975,0.023555144575700036,-0.12574280264095167,0.1332784109257826,-0.0927979794479678,0.034232415846325144,-0.07152935943842223
0.2524649455856402,-0.3090057088627001,-0.1922873996969055,0.06842527761344094,100.0,100.0,100.0,0.012825682776236205,0.3988854664185459,0.4027029864090786,-0.2034566064405905,-0.24824576842966456,-0.29117371875444426,0.30146798074133985,-0.10966302967222132,-0.056490868537918223,100.0,0.06396562723757962,-0.25868944981164965,0.2178368961003433,0.46038805163920665,0.13776075041283656,-0.0732665989093417,-0.07372783089047748,0.06442636000359901,-0.0737278308904775,100.0,0.018195848314220223,100.0,0.0350727992840781,-0.07372783089047752,100.0,-0.07372783089047746,-0.11807918473746548,0.1523720467445378,100.0,0.21303059446124675,0.3920254572420342,100.0,0.3142683435802872
0.1963849371746992,100.0,0.279970614966322,-0.07372783089047744,100.0,100.0,0.27591992069411597,-0.20450491018693912,100.0,100.0,-0.17319931586797932,-0.05595801177598913,-0.07372783089047749,-0.06093052640434202,-0.07372783089047749,0.2878837059254625,0.1263399085138223,0.13098509435573497,0.26766494047426326,-0.07372783089047748,-0.06568795138697024,-0.15837655656497077,-0.07372783089047746,-0.07372783089047752,0.3257982086234453,0.18457569320530795,0.25156680326954034,0.31469716318152247,-0.07372783089047746,0.016612474037907114,-0.09807609645640789,-0.11534507958882911,-0.07372783089047752,-0.05425410354430163,0.27402572681502774,-0.0737278308904775,-0.060622684240216926,0.36292691449933684,0.39037799301385423,0.2815951061602197
100.0,100.0,100.0,-0.07372783089047748,100.0,0.28302126556293067,0.24184408914578007,-0.0737278308904775,0.061393193095536175,-0.021652957307700397,-0.07372783089047748,0.17419023910088852,100.0,-0.07372783089047748,100.0,0.06415721695035509,-0.15353025746218735,0.4122193197481125,0.041370805408950564,100.0,-0.2749405558879956,100.0,100.0,0.047774526323889926,0.10412415403193116,0.25673947317092644,-0.10367278310253282,0.031629466597554744,100.0,0.018315142649150695,100.0,0.1515627009077171,0.482385104906227,100.0,-0.07372783089047746,0.20779361252028547,100.0,100.0,100.0,-0.07374300107908158
-0.07372783089047746,100.0,-0.07372783089047749,0.25020814310258416,0.12668791506248936,-0.0737278308904775,0.20994355300231443,0.3857066750842297,-0.09347295220423615,-0.13347816802474205,-0.08574747486558451,0.07879117883180872,0.2376247090292612,100.0,-0.0737278308904775,0.2806589360787989,0.15582171009178772,0.20400260393853897,-0.07372783089047748,-0.07372783089047746,0.37473587135964076,-0.07372783089047752,0.1295070645692896,-0.07372783089047744,-0.07372783089047748,0.2451783844074349,0.34694596734181715,100.0,-0.06613945980088902,0.15451082714399558,-0.2149560092117196,100.0,-0.013760275684092355,100.0,-0.07372783089047748,-0.07372783089047748,0.33664519497781464,-0.0737278308904775,0.2467605138866766,0.001292564492453175
0.015826378786860277,-0.07372783089047748,100.0,-0.07372783089047748,100.0,-0.27382812341072243,0.057277890801798834,0.27460828465040876,0.3390140106183015,0.15783741199955229,0.06883631715841895,0.19401068838025173,-0.07372783089047749,-0.07372783089047746,-0.23598131679135556,0.4174044572847408,0.2960427427329946,0.24342335963876238,-0.024352149720873486,100.0,-0.09481350249904298,100.0,-0.07372783089047752,-0.035598112652643774,100.0,0.023469862250014465,0.49339171391364894,0.26013006080499906,0.1362922659803653,0.6159308143391853,0.20266837975194696,0.3277697875563213,0.021876799515686766,0.154687983718222,0.12529094041570465,-0.07372783089047752,0.38188682116598893,-0.18929552439967104,0.04044619866010898,-0.033849821676666496
0.22568097789931735,-0.013431574545593709,0.11539667395919515,-0.02994783465777884,0.18093654126244207,0.3567446032593773,0.20657173207268648,-0.053774255901072036,0.036014930474993705,0.2021508157869196,0.34280477376731483,0.2744618475549922,0.23915983435049734,0.2794909985435123,-0.3629687534704525,0.16912697291617163,0.016236584851352587,0.20360411735281012,0.2913153566770635,0.12339080860659571,0.09848891011168524,-0.2529250013685386,0.2602379927190508,0.16706418253899108,-0.1224266825782804,0.020498661289245105,0.0006483411239941475,0.2025327003716017,0.3775010063056064,-0.04623282433997472,0.21955834971656718,-0.06596728445513746,0.06919421208534875,0.19253477764135,0.2590988882188714,0.25932260232040927,-0.04928127664451452,0.13705504311967845,0.18048548443490134,0.10757915960744242
-0.07372783089047746,-0.23440087349230634,-0.18603555160402385,-0.1554180411240262,0.043672033211967,-0.4554600162436692,-0.2518475632316297,-0.07372783089047744,-0.00963143792275507,-0.05024707071481837,0.02951585924715042,-0.02815257814322489,0.09589364353857663,-0.5074820595385932,-0.4083504280140964,-0.0839478640179953,-0.40193757389035717,-0.21900790457378028,0.0870248175701505,-0.43248256133582536,-0.17169321860264045,0.04824638358364669,-0.2782339813436958,-0.3788703751086234,-0.17741809698065952,0.07678626146231984,-0.23312784153588975,-0.4533949227055352,-0.23872112840348997,-0.061356453009430656,-0.3194361201601507,0.020913209114216687,0.06821496269857713,-0.29888515290088863,0.18253825260158868,-0.33537227449611773,-0.13302846790133963,-0.03294574289850392,-0.0737278308904775,-0.15104560476566162
-0.10659545337465327,-0.005387289122203227,-0.07372783089047746,-0.051584761591771784,-0.1147621519474128,-0.19318310361883262,-0.17635239237419348,0.1257655546999318,-0.4141909104819636,-0.22487207039228452,-0.18379755935548356,-0.5589287640392856,-0.3323551845117346,-0.02789846182695464,-0.28229316494827,-0.3140791146997066,-0.34991433321909104,-0.2306977139364576,-0.4382830380334478,-0.1742779229011892,-0.017975486488287114,-0.16609516389678766,-0.07846070313105558,-0.17639050085863142,-0.41110231263027,-0.30665568036251656,-0.42305243886304483,-0.14109502832097154,0.10305225044407941,-0.09510317271785933,-0.19623531075851547,-0.3485217783004157,-0.0917206894615945,-0.4377438128680141,0.02301364344369462,-0.3530012524924742,-0.27880700764446376,-0.11352125852869233,-0.02915608453218182,-0.18888373532680727
-0.38021170084743355,-0.40617137698557065,-0.17952705793587287,-0.14771078854583666,0.031091452365471988,-0.12019506160852939,-0.16545393781765555,-0.41518457050737717,-0.444785736052269,-0.22834230018020027,-0.419144701949067,-0.3747587891045567,-0.5751064999754717,0.042017464930501666,-0.5548910283588292,-0.538597106735926,-0.3797987595594401,-0.16210810069218637,-0.35653647085925055,0.04480696404382128,-0.41375852997657675,-0.42818252544166874,-0.39288716477100655,-0.5510740043086146,-0.4113629669096799,-0.39700527813103426,-0.36051804102342705,-0.42648707442397477,-0.16864565821182959,-0.159207760856972,-0.40181783608954935,0.06323305687513889,-0.5540534743099712,-0.08086681569527103,-0.13665799346309104,-0.1108000205821678,-0.09104744096594584,-0.4230778573495046,-0.17481904373005286,0.0004248508894128121
-0.4202266336952458,-0.09642304840674294,-0.04082853677003187,-0.11459310276171264,-0.039379490834192704,-0.44328735099212746,-0.22195937912323502,-0.1010252524659648,0.013980304958443187,-0.4360499002803174,-0.03198095379669694,0.0869278987524817,-0.17677673623969573,-0.4443971408014199,-0.10995184645796015,0.06001730137757723,-0.004113551509380352,-0.241663478026448,-0.2577061394741166,-0.21233495335350858,-0.04674273034780944,-0.17071658310496837,-0.008322678352660085,-0.10520266844474783,-0.1066596338172641,-0.16549087122031475,-0.17607761107251207,-0.2572949566959284,0.06120211754191839,-0.21253242066055855,-0.06663919993454707,0.07788108109962741,-0.05725515166172431,-0.12395859235739805,-0.08238612812318022,-0.45479840734818505,-0.2759745568076315,0.008880707921502416,-0.16318915011243007,-0.26167875878627994
-0.45433574454395237,-0.4578249681749122,-0.06680874428509052,-0.4679514103290379,-0.17978017810430647,-0.4598780264554371,-0.4574691905140006,-0.11429263146067875,-0.45536208073764817,0.12034997862634625,-0.4615746634490412,-0.18461990772695752,-0.17600459008372357,-0.18560175581687308,-0.45436910626017324,-0.20039225098706984,-0.46454563834036566,-0.4600431853334181,-0.45573492626887296,0.08473183660802089,-0.45880542737297936,-0.4645161262546814,0.10114808239569537,-0.45213262366472895,-0.46128081921072894,-0.44566464983366216,-0.11012519394053331,-0.4634655165360261,-0.4694674330539222,-0.4746037990378151,0.08138059033078146,-0.1855258777478597,-0.0772859498722264,-0.4584471185100788,-0.46619720688384547,-0.10539137040424967,-0.17346528480747045,-0.4602779379358345,-0.46007005314441335,-0.4583961369211601
-0.4415944767049746,-0.17564934750278338,-0.44237459961707565,-0.46194329670554857,-0.17013257166469095,-0.4562472081770742,-0.447702605613346,-0.16890107727540246,-0.4535983264336989,-0.4604848365862163,-0.4401947558393559,-0.4667117925094387,-0.43472563407033976,-0.4408201009596624,-0.43331763288217917,-0.11085258831314172,-0.17451868013257987,-0.4610466176232207,-0.16732102729357223,-0.45506734043007774,-0.45313958104337526,-0.4481215646861856,-0.18225628523525952,-0.16579290125997556,-0.5953777353084214,-0.43887405022952863,-0.44597033070855974,-0.44794147925855,-0.44958774396422285,-0.4532726060838607,-0.434835310814125,-0.4349479203532657,-0.17173529176937935,-0.4286418961658053,-0.17356393986033983,-0.4379078234419646,-0.17273087712023444,-0.4617990959339018,-0.4408712869022543,-0.4368465828689074
-0.44856299864674537,-0.45961021837901056,-0.18605338552651934,-0.20460591937203246,0.07894680594045768,-0.1783005272723868,-0.44505635187003195,0.0693306638935405,-0.44640456064010453,0.09305095273982683,-0.462845764635496,-0.471912310596505,-0.18119494578859832,-0.1754903530130305,-0.1790320502935275,-0.445431102722679,-0.4502666527265467,-0.44480907928423913,-0.4603539662978918,-0.45091148798250463,-0.18166015248593315,-0.1804653602466271,-0.46158752055339575,-0.44854014793069585,-0.46932245032224695,-0.1855618299335091,-0.16901322345652528,-0.17321919172945294,-0.17976042962298228,-0.17665732152391111,-0.4611640610286055,-0.44678657929857485,0.07592442179264298,-0.4554195235606993,-0.18239167915274127,-0.45373589799284175,-0.17455886110253527,-0.44762181057269035,-0.458753420256974,-0.4467430333507049
-0.44314540405575753,0.03404049406368679,-0.16997488283984397,-0.43673454708728676,-0.1736161745770603,-0.09353248449106508,-0.45290911838642467,0.0165631300383801,-0.4411918184373525,-0.42305710728205603,-0.09532864148970584,0.08717834607923827,-0.4498503752392785,-0.5991008810271151,-0.46027816943528865,-0.4508221465731265,-0.44934448225816553,-0.46202071401164474,-0.17538855436485556,-0.46046454994813485,0.08072134922202187,-0.43282231419699974,-0.44856387553268745,-0.10838401859103676,-0.42792612160302784,-0.43487348881826715,-0.44315469598847135,-0.46284181246700434,-0.4466130016200736,-0.4353232952407392,-0.1688499917399449,-0.43827579259320154,-0.43578238380428524,-0.16761358517096067,-0.42694375659374323,-0.43581653711879614,-0.09005184655043107,-0.11583877017551673,-0.09684510313765526,-0.4482177590569374
100.0,0.22162964177537495,0.08068857239401203,-0.1094012503351629,0.12949826477657234,-0.0737278308904775,0.3479495904490989,100.0,-0.07372783089047746,-0.07372783089047746,0.12327396511086737,100.0,100.0,100.0,100.0,-0.07372783089047744,100.0,-0.15135845070839363,0.032770827695844995,0.40503656073651684,100.0,-0.07372783089047742,0.21660991625747228,100.0,0.1367120218848091,0.4064495122631158,-0.050222850922809516,-0.07372783089047746,-0.07372783089047748,0.13005521756930696,0.15736440812908076,100.0,-0.07542458275088744,0.26794895082640957,0.33181554679937597,0.06432512185627776,0.1039663686566885,0.215265350046587,-0.07372783089047748,0.28187964918287256
0.0022088905514492537,-0.023600739007951243,0.013273023021436256,0.4849593992147697,0.07093714560860244,-0.0737278308904775,0.26528001233267706,-0.0737278308904775,-0.294182526044355,0.1720969206587523,-0.043896057140482024,0.2652000124735775,0.18905816867158975,-0.07372783089047748,100.0,-0.02344218211409861,100.0,0.2692632994351,-0.07372783089047742,100.0,-0.07372783089047749,-0.07372783089047746,-0.05507351724764745,100.0,0.22543312322340542,0.2447855669357552,-0.23182633963952098,-0.019281108410457045,0.013350121437249857,100.0,-0.07372783089047748,100.0,0.18660621539205924,-0.005825416624566576,0.26259890879353176,100.0,0.5120249514674886,0.15556818073926904,-0.07372783089047752,0.39908523349872144
-0.05810256890833082,-0.11056599492843236,0.23399351296048163,0.09144969412855367,-0.09950908781160756,-0.057954509345240136,-0.010460959223897384,100.0,0.15888283910023665,-0.05822202366426688,0.05468915940559526,-0.05018392116864179,-0.29384129180921037,0.10841544256491743,0.32825594849355405,-0.15490720779093053,-0.0737278308904775,0.2642012370638894,-0.07372783089047744,0.479255025564896,0.12950170520125068,0.31214106595633384,0.26451314248504865,0.3099940957447103,0.2936067608641416,0.30825228759746715,0.20693271280882655,0.29420050048878915,0.1976343537240509,0.18803815724314038,-0.0596952103826745,0.5253965508606296,0.3304701452569463,0.3743620311625162,0.21384116634524739,0.20787565668324984,-0.08271182618990545,0.30667382092547285,0.28017849590801736,0.03911012587975426
0.04586709176319191,-0.06264961551981876,0.14381152657169613,0.15481791565001227,0.304704747436621,0.0322939449936257,0.24183898227633763,-0.06288328856385783,0.0899728963873321,0.4716663722164695,0.19022545239579008,0.4199981814896307,-0.0737278308904775,0.22722755064420025,0.20940192511724298,-0.2164343136712799,0.07396484314910695,0.2951975444861715,0.0933051058699487,-0.1979533357260639,-0.020288052513988245,-0.06249423895217178,0.22638906773706646,-0.20471933615816548,-0.26045364479569466,0.28803334689065896,0.23839602946245012,0.09614922300109235,0.12841360188773898,0.05065488454252238,-0.06957895181396499,0.04246142505491769,0.22960771490999782,-0.03566339526379895,0.10945482359126528,-0.17744100615359126,-0.1487323274527237,-0.010275694142210879,0.19850315128661714,-0.16526976436077542
-0.15193086004845996,0.11588868810618834,-0.3348609015098237,-0.10074175373712724,-0.24845345039957653,0.14067314139071127,-0.1671200953950437,-0.20224025110236746,0.2025150996273621,-0.16197059164640304,-0.116427829411109,-0.17673679787870442,0.06358982889044315,-0.28361942765994663,-0.08533428129091852,-0.21159007459150175,-0.01041811099296755,0.14884154429101312,0.005324433309472367,-0.13358665434704597,-0.19225362242470598,0.1601107266731357,-0.07700200156640939,-0.13116077102222873,0.14292230640009146,-5.214574016469338e-05,0.029548396269143615,-0.003210534942985494,0.09164558568962461,-0.20413098042542677,0.05764325174432956,-0.20587314504671705,-0.23786967979983087,-0.06541226513256967,-0.3432183065080391,0.07005762717531466,-0.1774923880309659,0.025140520869388776,-0.011674066164971283,-0.07989594585715083
0.03144744878035087,-0.11447473456411908,-0.1772480744300741,-0.01367046071157793,0.08548659890398887,-0.11921908486297009,-0.12282903992753458,0.1264269118150319,0.0319021814541724,-0.07087835084856028,-0.32741691989603133,-0.07372783089047748,-0.14902685544939437,0.10656209633902887,0.07051811159841058,-0.25498322896415165,-0.07047478014190327,-0.279598591292031,-0.15547109675142928,-0.14521770084116686,0.007396171751240551,0.07129439646705774,0.10541507681507005,-0.1367244070953326,-0.13671844983771794,-0.15776888493116256,-0.14759585092198427,0.003005033303683949,-0.10304578080096229,0.032987105642380034,0.04872788923715154,-0.18353401728735932,0.028102042813166493,-0.10599775959972736,-0.014249082800393336,0.02070585778174368,0.09239886364997224,-0.16496715638447637,-0.2512564100991855,1.6941002409131694e-05
0.1544689962388697,-0.058788146865415,-0.07195301117597297,-0.03492189871875169,0.1513237966089489,-0.04525204752609073,-0.17250875345386532,0.12225073786681356,0.1178322292661282,-0.014920631272234183,-0.025916824848450534,-0.031785764386738795,-0.05149032024401239,0.13973754103362068,0.0950270506011417,-0.10519033257484596,0.19084133149182692,0.09541293965708006,-0.02105311128343011,-0.17487764161874453,-0.17894793305437007,-0.24210353943576696,-0.20445257939285616,-0.06660546338254608,0.029907354756952987,0.02190291797863857,-0.05702353317865198,0.05305849084455906,0.09597764534527484,0.08486622303454099,-0.00934818290161115,-0.17656412697649046,-0.17071580401840344,-0.06562387822861962,-0.06516713357637108,0.0878092251932579,-0.0802714732865888,0.044766704342999564,-0.06449711021578794,0.052036147142591194
0.03576048827825696,0.04787076778292464,-0.21336364910751307,0.010128951439685986,-0.04537874851396509,0.03369630755725264,0.07078106619741169,-0.10325717279502628,-0.12036250013206112,0.001482453941993825,0.04343263326268735,0.10913777525923446,-0.07652053788996657,0.06334765694468214,-0.024526865316588875,-0.18547961857822473,0.04083411721272625,-0.03226165918084556,0.1482794631743943,-0.17125771529909284,0.07542305806014026,0.06685432705107267,-0.21486538101076746,-0.07488656424802557,0.026373384527339085,0.045187165691227736,-0.08638338627224003,0.0012961656757321683,0.04573949147429749,-0.02614585295022915,-0.19351835184447755,-0.007570397135462819,-0.06911095735221727,0.08538623482595177,0.08810432991665557,-0.09311567565587683,-0.014020393161239457,0.014184548773749278,0.002345124558487495,0.006411665417781674
-0.0587373072510051,-0.036111370362285504,-0.05469644592190713,-0.030393106471965362,-0.0965960036510981,-0.09135541243688539,0.12174125139938773,-0.07881835285509502,0.09111520204775479,0.017777844800359047,-0.06933541671679613,-0.10547970788516495,-0.030301146998367664,-0.2018356937817133,-0.21585428281191615,0.06886472808552585,0.16144196051072165,0.05074712542227864,-0.04842664131131747,0.17519609922868026,-0.07042708457862684,0.04001105326056348,0.07652246265616974,-0.06878511904817267,-0.23630476175161,-0.08977202219225876,0.013244397657140156,0.03703496843152849,-0.099262880155656,-0.22746664332192906,-0.00037289167267336935,0.021663022172401295,-0.009391846800089578,0.02763081011607223,-0.03550737203052206,-0.07829568478869335,0.030673146380097188,0.09775500914823121,-0.07245802677012134,-0.25733196801815816
-0.10701571208382667,-0.243633817674316,0.03135084489037437,0.03752558115401516,-0.004700548179706664,-0.10253979335237598,0.043056003802632546,-0.08133676565017933,-0.06643603938916359,-0.07715254780986923,0.032262048988515674,-0.05818215322452925,-0.24544375390936365,0.018382732406314585,-0.0810050774694723,-0.12502118768242568,-0.09615099076800768,0.052501787001575595,-0.10306496673581962,-0.05294858362745508,0.18193617040080295,-0.21378753325610986,0.09565101152747192,0.18212710870027052,0.08554948367251902,0.08362689112580386,0.003803885874406751,-0.266374486176212,0.13882850498324661,-0.1818899473234493,0.0833986280934063,0.03179473626006763,-0.20294118727106994,-0.0646323098656133,-0.23639201018648526,0.11494114249852508,-0.09487420371229766,-0.19986799126006055,-0.1697644167260166,-0.21864169265654188
0.09531870673837413,0.20476863447838342,0.16233297162608823,0.05097721995007052,-0.11728626230220211,-0.24582661649578694,0.09352200294734343,-0.22272287256240422,-0.07979370583882446,-0.11831800815561831,0.16427801825474214,-0.12689733676527923,-0.1728636190112045,-0.2755867286468928,0.030631531154659643,-0.22716066237871665,-0.12802133654694672,0.11488782334463087,-0.12829975761208984,-0.04912128343678618,-0.21891737063831412,-0.06386169377667038,-0.26214849527191536,-0.06663263778674441,-0.18395954677989618,-0.124747103661628,-0.24899805138992326,0.017658077042517466,-0.07125796990125188,0.00851538172446745,-0.08663492095303375,-0.09257372024539645,-0.09495359344532046,-0.26879205534308975,-0.22412476689660915,-0.0861134130728335,0.13815859415308784,-0.27152119243639133,-0.2365018402839461,0.050964609153172365
0.17528375597632476,-0.11474185364643671,0.06458861308158632,0.00646281372454602,-0.10220406619770582,-0.2104133936232385,-0.06300260097830136,-0.2431499104227834,-0.09178612720052878,0.002344043329318864,0.04482424372884505,-0.27768002558456917,0.05816920338043646,-0.07845907607421591,-0.04266450498280539,-0.11512759946427188,-0.08119466296782454,0.013288411730933692,-0.2546199144560276,0.059685354099891806,-0.09745482488533494,0.016926861069477703,0.05365636109126839,0.05783378123277841,-0.0956909102263202,-0.08903762678296365,-0.08041318611914565,-0.0009840181283081787,-0.11722149996995497,-0.11128065140235471,0.1428275789080677,-0.09382193242923915,0.09593420082725285,-0.08684123301295031,-0.11281629041010033,-0.09001611905740839,-0.11382018626715565,-0.08252968331294039,-0.08855345403586469,-0.09560227096351387
0.011170397453434677,-0.09466085742996014,-0.06021650374389291,-0.0962252556934993,-0.10343655813856295,-0.0023737854486270455,-0.07349181017274377,-0.08456930209304772,-0.10101776092338759,-0.10374832592123577,-0.10775074922864736,0.020549263697625067,-0.10575993934478381,0.01457071511872838,-0.00789511823143431,-0.06110282061376598,-0.006856555299027103,-0.08618909251917826,-0.013389796613197181,0.14435358023588643,-0.11620622847039434,-0.10352608083976754,0.09808097685961573,0.053970283846982124,-0.09796528009208913,-0.0017297326713374167,-0.10007026325552319,-0.009306837620563911,-0.11097833575691732,-0.008680340399406822,-0.08301887048411245,0.012529819109564463,-0.08899548853694303,-0.2707233685378577,-0.09743269262855299,0.01800727282169809,-0.09027566322541208,-0.08678350420836534,-0.10020729709915613,-0.08094557673529115
-0.08242633628369829,-0.06488958652207372,0.051151623567357404,0.13310873035871632,-0.10474814039468996,0.13966419901021607,-0.015579102194999691,0.13466667516058017,-0.11145730009570781,-0.09423254496181395,-0.025856552053304588,0.009738808386072814,-0.07257987993469563,-0.0861161472867755,0.0040532908707153455,-0.0013714094373153659,-0.11865618910536004,-0.0677851641286195,-0.10975516888786611,-0.04887694258665875,-0.0836799081476636,0.02443167637662115,-0.0974884167958109,0.10363047136726884,-0.10233771858028405,0.008039426819611067,-0.022150852425338777,0.07860532974401094,-0.09307929718146003,-0.09570910403380908,-0.08782702699864808,0.08680684185224163,0.001843311266569504,0.10841756540338053,-0.12142645989678545,0.09424043732855522,-0.11085612812821143,-0.013374827057352726,0.07980672650756387,-0.017659701870333687
-0.10068487980554472,-0.11519324165284972,-0.09654110964099523,0.11903411777187856,-0.09034471198375695,-0.11665457634908956,-0.11135961746567148,0.08861388233111483,-0.013544613623993325,-0.011827042595073698,-0.10082119883720662,0.013782788057635692,-0.12228520680779392,-0.11677041852974458,-0.10630552608429748,-0.07827669728673,-0.06539530374923463,-0.003360821731958015,-0.12350845196425421,0.12571187503309875,-0.12167721504234039,-0.1063923310693473,0.1273791375701031,0.12796042107264075,-0.09466825566200032,-0.11384277848631112,-0.10667301276764574,-0.019070904741788155,-0.09077831170048047,-0.11153002854897846,-0.08753129829640338,-0.09123622081897577,-0.1219192347517564,-0.10351644951559058,-0.0062289257626459,-0.09590747028090428,-0.12174308682486823,-0.0031179858898199614,-0.10106009932516015,-0.10920925191013374
-0.015245060341133588,0.1026011147778559,-0.11717854034854597,-0.10491239121329674,-0.10240129482575933,-0.016427843848230254,-0.003549547918269977,-0.11675219596099704,-0.10900531568844586,-0.10315478959884918,-0.11016627460661477,-0.00717008682371733,-0.10464768218117462,-0.07956915422709274,-0.09224063272185692,-0.10810507925199501,0.08979394644713524,0.0033204837312409666,-0.08248197713133833,-0.07600565003129116,-0.09912509000831508,0.08793896653686449,-0.09814130517492248,0.08868668364655041,-0.08991826673150552,-0.10586358560690749,-0.11108478899508681,-0.10965614504521988,-0.10890353291480939,-0.11574492609855129,-0.12224039082805668,-0.11889022812663458,-0.11853050092586224,-0.11110416458777542,-0.11822234952163786,0.019486275876801205,-0.12025043222968979,-0.09929044928970067,-0.10683300885959057,-0.11389991748331496
-0.11552260088414616,-0.09444498711361711,-0.10252718166181722,-0.11355654711443304,-0.08967525201797355,-0.09564563429880273,-0.0983317198711529,-0.11724505250486204,-0.11423446564644768,-0.10532314215487816,-0.10942578778647334,-0.11005116721071037,0.09127245362338987,-0.11356542358297551,-0.08517368858927675,-0.11663851765708384,-0.09872759640127368,-0.10614546223624802,0.014938939605826852,-0.09507128023114164,-0.11278474638572725,-0.11298286308645247,-0.11275349208494886,-0.09288601032107399,-0.08130423896984676,-0.1203627026709461,-0.11694112169993919,-0.08367898513980615,-0.09454168523294565,-0.09824236778457293,-0.08921723641719574,-0.11878077671618766,-0.11150606482069948,-0.11399250546390889,-0.11739662655562294,-0.11335756886496547,-0.11851406731062088,-0.09883616221133308,0.0769490720507037,-0.10690749215744902
-0.11640537130006468,-0.12148652668257731,-0.11633350891614552,-0.08752499159143004,-0.11807408499693328,-0.07427901276805733,-0.11542300249112855,-0.11253053112775238,-0.11547892116955258,-0.11526158826183665,-0.10646444499836454,-0.1203781482563181,-0.12444414243805918,-0.08473139930399091,-0.12282349603883645,-0.11166094097978609,-0.11230958334533851,-0.11321049136418343,-0.11815547166548217,-0.10954009753779902,100.0,-0.2216973770317693,100.0,0.05862644339499454,-0.07372783089047746,0.2920335048069882,0.29914676700700943,0.24559821491691108,0.5098338707044803,-0.05371099864453022,100.0,-0.07372783089047746,0.30229355085834964,-0.1408599831239896,100.0,0.2916628226389056,0.3140779014917777,-0.0058272569594487195,0.4245973583760146,0.43961782363804247
100.0,100.0,-0.02481545244473061,0.26185354331582383,-0.005600053520270821,-0.08905893987391181,0.3251151124732056,-0.07372783089047749,-0.07372783089047748,100.0,-0.07372783089047752,-0.07372783089047746,100.0,100.0,0.2829804060276976,-0.11013446691385154,-0.07372783089047748,0.21464396839778693,-0.07372783089047748,-0.07372783089047746,0.14544644828382056,-0.25068689087866336,100.0,-0.07372783089047749,0.20835737630140255,-0.4299022841536966,100.0,0.1319601718797469,-0.08102152398123062,-0.03959903793716962,-0.07372783089047749,0.02910660055505534,-0.07372783089047746,0.015003994485531006,-0.07372783089047742,0.1427846538442562,-0.1602039164324582,0.07126658509012633,100.0,0.11094975372029461
0.5900254488262138,100.0,-0.22816474506813444,-0.07372783089047749,0.17007027876056222,-0.0737278308904775,0.21524213841914513,0.29655184452956823,100.0,-0.27200285188298273,0.10028926434657252,100.0,0.1975213117696028,-0.07372783089047748,-0.07372783089047742,0.2709107208854108,0.012513372590000852,100.0,0.03863691518682016,0.10136317043245563,-0.15150058175239325,0.01918087050572442,100.0,0.35069508448613645,100.0,0.2918845358060996,-0.2948623899839111,0.24531011668844152,-0.04754654593407625,-0.07372783089047742,0.1548053320233166,0.24903621361036885,0.26907000694911415,0.1664467159910314,0.04218906062102717,0.28214152062778813,0.11172238408689905,0.13468909886282648,-0.08687867227984311,-0.29559139856349564
0.05980608149084002,-0.10965707913654743,-0.03592893732894372,-0.0912857116827733,0.016513791493054958,0.06484118509670855,0.22945085833511308,-0.11514805478822661,0.14840617152551058,-0.07820928442353092,-0.16880669919735614,0.14005780271450965,-0.1406599332525883,-0.19813187298767745,0.013997297591319575,-0.030397367884815556,0.175253307090394,0.07870731540815236,0.25784456248986914,0.18984482334669658,-0.161364323526214,-0.24677021115185394,0.12881184286105377,0.12110487523449841,-0.05173968704261152,0.07430046783152841,0.009955905032617092,0.07475084113596023,0.023665424764849605,0.017435807008009237,0.21874200661889495,0.26558545207864565,-0.23939230493771238,0.09044276688916086,0.18426732654996103,0.05495213208776248,0.11746441145681964,0.07003298487951835,0.07509449560911412,0.24784082758108036
0.14724642803742644,0.1650926061580782,0.16318880145447934,0.2274908221894116,0.328779364724912,0.23317755916672195,-0.2790625845957497,-0.08250954620122057,0.09071021227373423,0.205881552209263,0.19392169169774034,0.06380808306954668,0.30435966034193696,0.2954765488015867,0.030740448947246427,0.12627304832576808,0.18715240159402102,0.2278770211220738,0.2185019428658357,0.2526521478367962,0.26805071538711694,0.09577829867154937,0.03394174607945573,0.16826780099852864,-0.16860710070322643,0.05867638134456665,0.1846350602489775,0.11143647123527006,0.06495410875475391,0.15969506578217824,0.28286192180058684,0.18347849451832934,0.13064380411900714,0.11425389549846798,0.16911471992006982,-0.11232689732562139,-0.0745720800712351,0.1985103138679708,0.16204388606113646,-0.20142753453680734
-0.11438675526820738,-0.037523878277513634,-0.02382544943109186,-0.04111903435319218,-0.21309223929348398,-0.09552660784538271,0.03293332296250427,0.08128443481639945,-0.2225354829477985,0.026247876420221666,-0.05929189508462483,0.024131436289902962,0.08627696365377435,0.06821699616756087,-0.1752246393562227,-0.029833389932295794,-0.2408821860526535,-0.05600933367664848,-0.010562954001119822,0.13082764622675438,0.09957622306594588,-0.10525384865528022,-0.08695435438561058,0.07326050976638517,0.05820369992564101,0.12280806845981279,-0.013819566181687786,-0.24374193098615515,-0.02458613982424069,-0.006430464689111013,-0.09955558378455348,0.1697385587433869,-0.1552165294565856,0.0062600038176487995,-0.13741610441693508,-0.07996971630982175,-0.22116306158955676,-0.05075283803371496,-0.0002628175721340144,0.20349045427223544
