ChristianCella/workcell_optimization/results/data/hole2/turbo_ikflow/complete_beta_trend_wide.csv
piece1_joint1,piece2_joint1,piece3_joint1,piece4_joint1,piece5_joint1,piece6_joint1,piece7_joint1,piece8_joint1,piece9_joint1,piece10_joint1,piece11_joint1,piece12_joint1,piece13_joint1,piece14_joint1,piece15_joint1,piece16_joint1,piece17_joint1,piece18_joint1,piece19_joint1,piece20_joint1,piece21_joint1,piece22_joint1,piece23_joint1,piece24_joint1,piece25_joint1,piece26_joint1,piece27_joint1,piece28_joint1,piece29_joint1,piece30_joint1,piece31_joint1,piece32_joint1,piece33_joint1,piece34_joint1,piece35_joint1,piece36_joint1,piece37_joint1,piece38_joint1,piece39_joint1,piece40_joint1
100.0,-0.07372783089047746,-0.07372783089047748,-0.07372783089047746,-0.02908199397434372,0.2538631340126351,0.48517252005840605,0.2629508158349222,-0.07372783089047748,-0.06063485303526848,-0.2550200525699888,-0.07372783089047746,-0.07372783089047746,-0.0737278308904775,0.55025022579278,-0.07372783089047748,100.0,0.6896457546607357,-0.0737278308904775,-0.07372783089047752,100.0,0.8137187459280425,-0.07372783089047748,0.37570277755493703,0.4452397225314586,100.0,100.0,-0.07372783089047749,-0.0737278308904775,-0.3406391273954718,100.0,-0.07372783089047746,0.7488383127451403,100.0,-0.07372783089047748,-0.07372783089047748,-0.06741958653233958,-0.07372783089047749,100.0,0.055695919903838716
-0.07372783089047744,0.26886725199245703,100.0,0.007281211193410694,-0.37722527287279045,100.0,-0.15805205481759868,-0.07372783089047746,-0.07372783089047748,0.7008229406621805,-0.07372783089047748,-0.0737278308904775,-0.07372783089047748,100.0,-0.10625189487972636,100.0,-0.07372783089047744,-0.07372783089047752,0.13250291012682686,-0.07372783089047746,-0.07372783089047752,-0.13518089080652354,-0.07372783089047744,-0.07372783089047748,-0.07372783089047749,-0.0737278308904775,-0.07372783089047746,100.0,-0.27189837827938845,-0.07372783089047749,0.5075485049578702,-0.0737278308904775,-0.04455925288445252,-0.21194245467728678,-0.0737278308904775,-0.07372783089047744,-0.08340107277704413,-0.07372783089047742,100.0,-0.07372783089047749
-0.07372783089047742,0.6656801194118951,-0.07372783089047744,-0.07372783089047746,-0.07372783089047744,-0.12384091768684022,0.1272118344814701,-0.07372783089047746,100.0,0.754863615887381,-0.0737278308904775,-0.0737278308904775,0.018587372637044366,-0.07372783089047748,100.0,-0.07372783089047752,-0.07372783089047744,-0.07372783089047746,-0.07372783089047748,-0.202719219013634,-0.07372783089047746,-0.0737278308904775,-0.0737278308904775,-0.07372783089047749,-0.013471996891294356,0.4188525778621768,-0.0737278308904775,-0.07372783089047752,-0.07372783089047746,-0.07372783089047749,-0.07372783089047749,-0.0737278308904775,0.4187473455867777,100.0,-0.07372783089047744,0.8709423683639171,100.0,100.0,100.0,-0.07372783089047748
100.0,0.4686678259386564,-0.05329452468232286,100.0,-0.07372783089047749,-0.07372783089047746,-0.07372783089047748,100.0,-0.14755767614543208,-0.07372783089047748,100.0,-0.07372783089047752,-0.0737278308904775,-0.07372783089047749,100.0,100.0,-0.07372783089047744,100.0,-0.14780481772511891,-0.17401574762168387,0.5703065839388792,-0.0737278308904775,-0.07372783089047742,-0.0737278308904775,-0.07372783089047744,100.0,-0.0737278308904775,-0.07372783089047744,-0.13673271370426976,-0.07372783089047744,0.035134402455159426,-0.3553644802238401,-0.202372487997678,-0.2763423361379028,-0.21785048174088895,-0.07372783089047746,-0.07372783089047748,-0.07372783089047746,-0.07372783089047752,0.1689737548321163
-0.07372783089047744,-0.07372783089047748,-0.3440103041154142,-0.0737278308904775,-0.0737278308904775,-0.07372783089047749,100.0,-0.07372783089047746,-0.07372783089047746,-0.11525404725406253,-0.07372783089047748,100.0,-0.07372783089047748,-0.07372783089047746,-0.07372783089047752,100.0,-0.18162254111307832,-0.31362173689918105,100.0,-0.07372783089047748,-0.0737278308904775,-0.07372783089047746,100.0,-0.10145025838115238,100.0,0.22363589301257908,-0.07372783089047746,-0.07372783089047746,-0.07372783089047749,-0.07372783089047749,0.7328109124707204,-0.0737278308904775,0.7757797780919627,-0.11281796176130394,100.0,-0.07372783089047746,-0.0737278308904775,-0.0737278308904775,-0.18609924415818066,-0.07372783089047746
-0.0737278308904775,0.026717421694636503,-0.15591978732232856,-0.07372783089047749,0.013958071185407562,-0.07372783089047749,100.0,-0.20482406604704687,-0.07372783089047746,-0.07372783089047749,-0.0740813594991703,-0.0009246620406535698,-0.07372783089047748,-0.07372783089047744,-0.12938728262858679,100.0,-0.07372783089047748,0.3320423061538774,100.0,-0.07372783089047746,-0.07372783089047749,-0.09063643663705281,0.289242518636942,-0.0737278308904775,100.0,0.7161659610045852,0.64491755623207,0.13574074295893082,-0.07372783089047749,100.0,-0.07372783089047752,100.0,-0.07372783089047746,-0.07372783089047748,-0.07372783089047752,-0.07372783089047746,0.4415686575371588,100.0,-0.0737278308904775,-0.0737278308904775
0.25841091910855485,-0.058492119904971815,-0.07372783089047749,-0.07372783089047744,100.0,-0.07372783089047748,-0.07372783089047748,100.0,-0.07372783089047752,100.0,-0.19287564652254538,-0.1417064505180844,0.4534283669607809,-0.0737278308904775,-0.0737278308904775,100.0,-0.0737278308904775,-0.07372783089047744,-0.0737278308904775,100.0,-0.07372783089047744,100.0,-0.3558610446720966,-0.15791012434558244,0.7913463948924785,-0.07372783089047744,-0.07372783089047746,0.6441449598554541,-0.07372783089047752,0.5837392249301807,-0.07372783089047744,-0.07372783089047742,0.2915333368501527,-0.0737278308904775,100.0,0.044744182389946194,-0.12534448270130358,-0.07372783089047746,-0.14864665669117097,-0.0737278308904775
100.0,-0.07372783089047746,100.0,100.0,100.0,-0.3183407505745894,-0.07372783089047744,-0.07372783089047746,-0.07372783089047744,-0.07372783089047748,100.0,-0.07372783089047748,-0.0737278308904775,-0.07372783089047748,-0.07372783089047748,100.0,-0.07372783089047748,-0.07372783089047746,100.0,100.0,-0.07372783089047746,-0.0737278308904775,0.41241057223379696,0.7973560949460305,-0.07372783089047748,-0.0737278308904775,-0.07372783089047744,-0.07372783089047752,100.0,-0.11793996715319305,0.0417674834556582,100.0,-0.10992319683154816,0.1293040054889308,-0.07372783089047748,100.0,-0.0737278308904775,-0.07372783089047742,-0.0737278308904775,100.0
-0.0737278308904775,-0.07372783089047748,0.15528346170783433,-0.07372783089047749,-0.26717793891894354,-0.07372783089047746,-0.07342309068967795,-0.07372783089047746,-0.0737278308904775,-0.07372783089047748,0.11791270973344174,-0.0737278308904775,-0.07372783089047744,0.04358216651356259,-0.0737278308904775,-0.07372783089047748,0.16736133318865792,-0.06925240328181095,0.6845815150178007,-0.07372783089047746,-0.07372783089047748,-0.07372783089047746,-0.032291204926686266,0.3510345392994084,100.0,-0.0737278308904775,100.0,0.3429464470401039,-0.07372783089047746,100.0,0.5210634690200174,100.0,-0.07372783089047752,-0.07372783089047746,0.7405027161475829,-0.07372783089047746,0.7223740389506611,-0.23561661541744502,-0.4053233965249153,100.0
0.6815614660434045,-0.07372783089047746,-0.43653908991807405,-0.19571112465659257,-0.07372783089047746,100.0,100.0,-0.0737278308904775,-0.11391829248152231,-0.0737278308904775,-0.07372783089047744,-0.17200059188540964,-0.07372783089047746,-0.0737278308904775,-0.07372783089047748,0.0689837686212671,0.15222346940343687,-0.0737278308904775,0.5935281977474733,0.658340319301728,100.0,100.0,-0.07372783089047749,-0.07372783089047752,0.5352914344839605,-0.0737278308904775,100.0,-0.07372783089047748,-0.0737278308904775,-0.07372783089047746,-0.07372783089047742,100.0,0.5053281826394388,-0.07372783089047748,-0.06548397265283123,100.0,-0.3202464652256247,-0.07372783089047746,-0.0737278308904775,0.15696810357346186
100.0,100.0,0.6869594500344327,100.0,0.07712320016417856,-0.07372783089047749,-0.11253908629247342,-0.07372783089047748,100.0,-0.07372783089047746,-0.07372783089047746,-0.07372783089047746,-0.0737278308904775,0.5412563328153471,-0.07372783089047749,-0.41668309191965064,-0.0737278308904775,0.3034441125112966,100.0,-0.07372783089047749,-0.25623459682816785,100.0,100.0,-0.0737278308904775,0.5138240975085498,0.46725622164398506,-0.07372783089047746,100.0,-0.12433679423627444,0.29095148778882274,100.0,100.0,0.3432774103670274,-0.07372783089047746,0.017604337536233874,-0.07372783089047746,-0.07372783089047742,-0.07372783089047748,100.0,-0.0737278308904775
-0.17309180585776363,100.0,-0.07372783089047749,-0.07372783089047749,100.0,-0.3904812413219058,-0.11021414761026575,0.5375964090368389,-0.07372783089047746,-0.07372783089047744,-0.07372783089047746,-0.24545619763915633,-0.07372783089047748,0.4927708172142404,-0.07372783089047749,100.0,-0.07372783089047746,100.0,0.37511774864477404,0.6962206061794061,-0.07372783089047748,-0.07372783089047752,-0.07372783089047744,-0.07372783089047744,0.5574051212008944,0.5898331594912677,100.0,-0.07372783089047744,-0.07372783089047748,100.0,0.7261808350699696,-0.07372783089047744,-0.07372783089047748,-0.07372783089047746,-0.0737278308904775,-0.07372783089047744,100.0,0.589838758819162,-0.07372783089047744,-0.0737278308904775
-0.07372783089047748,0.0848371839470835,-0.07372783089047746,-0.07372783089047746,0.9067037541028492,-0.07372783089047752,-0.07372783089047749,-0.0737278308904775,-0.07372783089047744,-0.07372783089047749,100.0,0.10519147828885869,100.0,0.5284261467554144,-0.07372783089047749,100.0,-0.22099329626155534,-0.07372783089047746,-0.07372783089047752,-0.17930444521583438,-0.3919188825367761,0.05578338825603213,0.5505796689298902,-0.0019677994217379598,-0.08651782954016725,-0.20004522512068842,0.47552448223634625,-0.006853901983431549,-0.05717510240244832,0.14650688628921044,-0.16309171104022058,0.05937184715380524,-0.07372783089047748,-0.2835671467011271,0.35416014222049935,-0.09730233614466909,0.10472208979951031,0.15294814083755778,-0.0997476050444537,0.1502915908243538
0.45653167212083745,0.5042887708104887,0.27240805802773177,0.028136394954910708,0.1597118977133668,0.04381214223154624,-0.08074877118811168,0.5425806948573423,0.04752943147265512,-0.155682345424604,-0.07372783089047748,0.4896474636936463,0.6522811743756683,0.3533273900595308,0.3317637786820919,-0.13678196921833888,0.7551724168945781,-0.15000267756624153,-0.17867046229640846,0.009632255126528204,0.1426723849937035,0.14760170548775645,-0.22463314322243386,0.3301912282967215,0.386272107006605,0.21067242714894255,0.4300426678979884,-0.15776727123078846,0.12280333345233312,-0.047036534406890054,-0.17639871395046647,-0.354134142200902,0.27506729922241524,0.34785117237250823,-0.4376544801072453,0.012002040035320691,-0.18563311915745973,0.5403480742176284,-0.07372783089047746,0.5405239707072779
0.6733154306684933,-0.028659510056434565,0.04714682566630673,0.25225525537089444,-0.0037201528521020066,-0.264055915538992,-0.2849850091874561,0.21799027646055988,-0.07372783089047748,0.017371515860868478,0.41038559057057933,0.6737987031445432,-0.47500959906389884,0.24044605079137968,-0.2600071842057894,0.5214393251105507,-0.27231936784493815,0.4873132792857934,-0.302588877618465,-0.21769495973902564,0.034031582830141086,0.2765934580804486,-0.09829817021337439,-0.06139880175930596,0.040458091248370784,0.03296406033187883,0.14430274472681265,-0.18837409871168567,-0.008789331729706815,-0.20070688969512035,0.37881207057882305,-0.12942186022683058,-0.3274304227321918,-0.10144688964290222,-0.22718006856919246,0.46281257115583885,-0.1871335518770436,-0.07372783089047746,-0.1617107821694338,0.21899074020560447
0.25974537668984854,0.017751231545620177,0.7048533477052854,-0.27899718470558904,0.03991994948771036,0.3644968754499812,-0.019283499556536486,-0.1251788888240616,0.18869082099312626,-0.17013699296180174,0.6314709596652787,0.29756387402106205,0.014200520960395735,0.0646298133909097,-0.15204040406346142,-0.16308151589567987,0.12378861248411871,0.21858167752922328,-0.16968399626035052,-0.17553011403447702,-0.05841278784793338,0.4066970534947929,0.1571905962101722,-0.21625987425870727,-0.4334947718331761,0.06443041998977657,0.2552051267018286,-0.28607995369576283,-0.2718542114734632,0.05900785383960715,-0.2441800012370845,-0.3247829789058776,-0.14267836936302786,0.11096390940480647,-0.30603646413267743,0.3338118045946736,-0.27203097216655114,-0.049368302251978566,-0.26413405488514036,0.14931782705365884
-0.13651531496023883,0.12120944501382651,0.32135384564203734,0.43358930008656177,-0.34594796087115265,0.4539220889156277,-0.12672035954418848,-0.29441767662921403,0.392781789648826,0.05091152622199322,-0.0825064128867208,0.14624498148712645,-0.1167662314483772,0.016639938056912523,0.26056953240901937,-0.16866692234374767,-0.24761626466308112,0.0532471037643435,-0.34747535231134236,0.08334007196473675,-0.09459025057811904,-0.10317778829257436,0.14057055097163257,0.29057400735250727,0.24095832234953077,0.03406171843380759,0.029651589886156682,-0.17790279417758115,0.043442475449748705,0.2569109637663339,0.027119130538258332,-0.2639898633487683,-0.0767481026599671,0.04277900720830116,0.3802178226551914,0.15842193137368987,0.3627319984395698,-0.12156461820574566,-0.062149904751244586,0.417025589573902
0.12162252168547716,0.23066131288887748,-0.2899669136508245,0.40277219822060856,-0.11033028808030297,0.02728394051554743,0.29216333009735646,-0.002478288125757008,0.3608771974916005,0.1483253353458265,-0.3110283800775385,-0.08778680733443157,0.14706909235049695,0.35883790506862573,-0.1697180766301299,0.28085965066947977,0.32442755273933654,0.15211455686753025,0.3311698897871941,-0.27271003820310463,-0.1670007500971985,0.027391173312685386,-0.10226124795122334,0.15729426238719835,-0.05561644021002664,-0.15386887154006937,-0.33177581743655177,-0.1296123049148339,-0.3135638496935911,0.15259407283037027,-0.26467323140584026,-0.20370529428739453,0.22973718266011123,-0.32177593175912494,0.3926884668744658,-0.13317745009587106,0.01877323151679913,-0.05324372722463712,-0.2285694933066096,-0.10560475658214723
-0.24916399760431382,0.23447529606498568,-0.27177979349287673,-0.1298719868644027,0.1992436832585727,0.3830858729835343,0.0845676955337181,0.11150012157012229,0.012245745845890735,0.15945716408887503,-0.3299263687386457,0.364573960517166,-0.24501981548636556,-0.1021064566835291,0.3881577761827127,0.16665701097597396,-0.16249897427028404,-0.07085987944355177,-0.08116390645415048,-0.12495059621944027,0.13930966431818265,-0.10587479120023074,0.02562387280996382,0.020411049435914812,0.15045742868910975,0.012205577330102173,-0.2374260977223713,0.15844808568575286,0.012287185690022809,0.2579885020088313,0.14816655029308912,0.2331467252516218,0.23428584595356708,0.08529190742982018,0.04788301944133356,-0.08928103701468526,0.3237407969015297,0.04902357612399416,0.009344104662874058,0.030893356631882318
0.03691565013321411,0.019486199590423085,0.01657415282246991,-0.22338445636756746,0.14451935597712262,0.030525397991316285,0.3082176638240294,0.03482795190297414,-0.10095657038125934,0.05724794038768201,-0.280259255311259,0.23028225930046017,-0.1003981794307218,0.2913275677842525,0.16727608056829205,0.023022621098710363,0.17090628456757126,0.23361441914451758,0.11521262908783013,-0.10320391854446036,-0.14310415348610114,0.2210794149492324,0.02877762706722333,-0.25748524755131474,0.022734977575271282,0.02756043217619467,-0.2572154570609719,-0.15308389705861394,0.025980037500509524,0.16167062979737856,0.015449419242502047,0.027903924826505132,0.15538175732402734,0.16192208560339966,-0.11382847290204828,0.008628613829608311,0.024154670727653267,-0.11421938829278178,0.0021476868756110596,0.024179125935519068
0.0949158818836433,0.1560675751636308,0.0519150079234909,-0.24379902234244213,0.011478822361871515,0.022490028161585282,0.16877808292763052,0.24621163493695375,0.16747393551483009,0.027401764060409874,0.16512314384525711,0.014900902614471363,0.16136322128792993,0.01029717132385524,0.1639330593848056,0.027424186515114555,0.16316747972653806,0.016761690105449808,0.1747960371747825,0.013621513014934394,0.0002705559734064603,-0.11753130995520493,0.016189057042776,0.05691824388473337,-0.056530686842314874,0.14546571379567616,0.08031837401788275,0.03818770629848569,-0.067029751598339,0.10742880665042849,0.14077745043013778,0.12320123019327549,0.052457778810071035,0.14481262582165152,0.014732557820220312,-0.05292989297524715,0.12732038415814279,0.14297440470445158,0.15410048156016445,0.14261456422513727
0.048649910797823714,0.048674944294912766,0.021669889577827617,0.0512366424419443,-0.05934019398134152,-0.1417843952603685,0.13820699426729674,0.14559616347876303,0.047524864355087786,0.12178661497693341,0.08556624303777265,0.1212952277597217,0.16306128997656896,-0.04721271508125668,-0.028615727689563816,0.1541457138870845,-0.0437309532712382,-0.03949348040209175,0.1267312769538175,-0.05446978070010353,0.01119326214105233,0.14703340106660498,0.0252775266341794,-0.1256415638333368,-0.12467827654961457,0.14874958630358764,0.024300070510873358,0.024241735833462306,0.1161327750361708,0.03289774920611151,0.16865884581614962,-0.11923580875219433,0.14939523143283984,0.16923668895557936,0.02771259196421157,0.16868854956611967,0.008336914095247271,-0.1279885325038565,0.020066285602142832,0.15092390733693647
0.14383206389477737,0.027610077150975885,0.013603711262287191,0.02898239800534159,0.009689908661062223,0.17553198876351297,0.150056358394367,0.12556725436170652,0.15607124563498168,0.16154007862655528,0.0072467479640675545,0.15642020929299336,0.028313536517308224,0.14964887933270452,0.02715998317981116,0.018170581585863585,-0.1186395819840208,0.0178529082054446,0.1571425978489779,0.019578407523759698,0.1392690442407576,0.018257646363561718,0.020649481186831735,0.012999126022186518,0.013484440376958291,0.012483377252406752,0.006773197135409407,0.012287123153659981,0.024715659650896327,0.011475241009515273,0.15198679792953243,0.034611838588146156,0.17986111862773077,-0.09646366632205908,0.014774463665061284,0.013248506710664416,0.1437439302223804,0.016733085185110515,0.1355984855442112,0.027208540281773826
0.011113847963201341,0.12301619011075393,0.18241506150396686,0.03848617909183496,0.014409043135745198,0.11893517075410218,0.02039681671498521,0.013276009406672052,0.11675522966172396,0.05202097706707247,0.007960975603643599,-0.10611060293556585,0.01708924966306831,0.015059737057743825,0.1544860635100422,0.02703838240464706,0.04709247424064613,0.1384299116543895,0.016735535083249382,0.015443754792219863,100.0,-0.13366917737913656,-0.30413141006482897,-0.19313145339671628,-0.08571356551255517,-0.07372783089047746,100.0,-0.07372783089047749,-0.3979903819683651,100.0,-0.07372783089047742,-0.07372783089047742,100.0,-0.07372783089047748,0.4942421579073803,-0.0737278308904775,0.024127849805298574,-0.0737278308904775,0.048333052238053446,-0.0737278308904775
-0.0737278308904775,-0.0737278308904775,-0.06963792133185046,-0.04226481884999312,0.5538858582505427,100.0,-0.07372783089047748,-0.0737278308904775,0.5054764008296347,0.6403527464605654,100.0,-0.07372783089047748,0.3166052990179591,-0.07372783089047746,-0.07372783089047752,0.3245180799033739,100.0,-0.07372783089047748,-0.07372783089047749,-0.0643510687015997,100.0,-0.07372783089047744,100.0,-0.0737278308904775,0.8119933607866651,-0.07372783089047746,100.0,-0.07372783089047752,-0.07372783089047746,-0.07372783089047746,-0.0737278308904775,-0.07372783089047744,-0.07372783089047748,100.0,-0.0737278308904775,-0.07372783089047744,100.0,-0.07372783089047748,-0.07372783089047742,100.0
-0.03227453706390533,100.0,0.6191976978671637,100.0,-0.07372783089047748,-0.07372783089047748,-0.07372783089047746,-0.07372783089047748,-0.07372783089047746,-0.07372783089047749,-0.07372783089047744,-0.034806231387325665,100.0,-0.35725689380439435,-0.0737278308904775,-0.07372783089047746,0.009555026097679971,-0.0737278308904775,-0.15915957913310813,100.0,100.0,0.6287826685112583,-0.07372783089047749,0.27702479519681716,-0.07372783089047746,-0.07372783089047746,-0.0737278308904775,-0.07372783089047744,-0.07372783089047746,-0.07372783089047748,0.11406904929895023,0.8247896465451446,0.8738682929743555,0.720287609387658,0.5690818556357946,-0.07372783089047749,-0.07372783089047748,-0.07372783089047748,-0.27629723655663463,100.0
0.0909041059187385,-0.11941981286979192,0.21753588137180213,-0.019469108175173104,-0.07636848266042337,-0.07372783089047744,0.42687409555980727,0.3123011837806434,-0.15284247019133138,-0.07372783089047744,0.14194917375946453,-0.4172921596566969,0.3262442008723821,-0.3235895553574343,-0.31135227578588603,0.27013331065646495,-0.07372783089047748,-0.054707802013524515,-0.06726031872188522,0.4477102380052275,0.38560265225037055,-0.11203240131893653,0.13146622402930555,0.04109051763780161,-0.1461614422279094,0.5203461919691965,0.08248991276662125,0.04361306776160896,0.049702613035606635,0.15838924013899872,0.05009606440821204,0.1282862521699654,0.0711892544800927,-0.1259786581627923,-0.02799059013176077,0.10809710432934691,-0.14814704824719638,-0.10032659914193845,-0.07372783089047744,-0.22445112273958975
-0.13965391490288567,-0.1459020900418039,0.14274136195956053,0.009479425777582066,0.014197735835682472,-0.17871369918842006,-0.2054636691405071,0.11145453232645054,-0.027058142079580412,0.008259696836359446,-0.08569908684780143,0.0650790291159884,0.49833657555423194,0.03484610067880536,-0.0891779998215074,0.01597504435890953,0.3624539764827156,0.11849474571124136,-0.04373375032138307,-0.011003594440964888,0.04470634031467657,-0.04324615161763241,0.22874498290226578,0.4224038809575206,-0.18506302617141032,-0.04190526866437468,0.12587226052871073,-0.11125550495748644,-0.11331762929861913,-0.038098176911886016,-0.09730103970821337,0.4140553585800588,-0.0548183288913894,0.019305826589081643,-0.08907489026296778,-0.07904593559438072,-0.14373566620729156,-0.18715711045900119,-0.09040742205327505,0.06985673146840947
-0.04282761133252231,-0.08730101007861969,0.11603824969534382,-0.1539795823953771,0.006534177926397933,0.35048494939593927,-0.0784262339393976,0.09852127247180653,0.13021398390342026,0.1677916644237025,-0.1971210316907839,-0.12819368622608862,-0.06542297387753221,-0.11085917981914237,-0.09853703601170333,-0.020014543537861463,-0.05638265212379147,0.032919854913904874,-0.021222181956405555,-0.10538930411081673,-0.10441372165894719,0.03582603652353303,0.1655423487899963,0.15254207360585054,-0.09697676381365063,-0.21635031546312702,-0.04755551541707797,-0.10302560560393727,-0.09506961839025317,-0.037771050859961644,0.17577192860888344,-0.1093380444006941,-0.0849175082803522,-0.05370360035978285,-0.07493972890764326,-0.03910938991824751,-0.10956328404874066,-0.00859406351559495,-0.1381762829063861,-0.12702786516291317
0.1752990587916097,0.1064873872509634,0.012653401753690056,0.2901284618431934,0.016050584805435034,0.017089516927623657,0.11794493332646021,-0.09246828040455758,0.11811332045545639,0.09310164328238983,-0.09080049971033995,0.10201625699764397,-0.08831096679364644,-0.057531704391269006,-0.15036155890469993,-0.09030836884674502,-0.21406840258601123,-0.006107210952401153,0.04483609984889599,0.12446905265599861,0.1432232054106339,0.09971941397224135,0.0731502430311973,0.17915829140509656,-0.09545535945503054,0.12432537423382704,-0.01614427646504273,-0.07123201435516684,-0.09072709732062816,0.07692872323533748,0.1740839419271042,-0.037538215173900456,-0.12671003159828217,-0.09418258798463208,-0.04105097475574365,-0.15615367161274754,-0.09590879167975214,-0.14569307040904744,0.12174000467807647,0.04469892939549635
0.019130609080915517,0.03215172931534879,0.023926716458779747,0.022263929544602535,0.02482706825276415,0.01699882706943249,0.027381215678886257,0.01736795275024506,0.1528322503873676,0.15231462378794725,-0.12643742822642978,0.15542323911259442,-0.11969498519592525,0.12413445918007823,0.017368798345095436,0.036656037369561516,0.03421107133952534,0.15299146246817336,0.1520780363861321,-0.03538120843842172,0.026681983306629676,0.11495349828164683,-0.12085798802813554,0.026397420519505846,0.025115235270654478,0.14411752421698865,0.02062255830678317,0.029465500810069406,-0.014108326590802248,0.10983316392496545,-0.10059676553756973,0.022283949728181995,0.01696648029368154,0.014739323183206988,0.01865203689779093,-0.12492739325737794,0.021372554064567405,0.02226214786006769,0.15865548440292734,0.02350441390717449
0.027456242697558288,0.02089646382383273,0.03115894690805644,0.1608042171319455,0.12104211598414774,0.12431711448166696,0.12451713224093953,-0.12039548255295163,0.14683569376704095,0.028886756302532506,-0.003504817352593241,-0.0753525320124398,0.04089734620174454,0.0269414761997979,0.023728327117644537,0.012929770474638886,0.04736481187852815,0.1093474231079825,0.14864542996472166,0.02741815147021731,0.030658144862697377,0.1084158759166323,0.13612085659430323,0.10646441040715189,0.10975792343756148,0.0762183370021021,0.11302941774790796,0.019836895160535425,0.028380975811713262,0.02231597955652257,0.2818384786829481,0.04160661905682597,0.04375999038393275,0.03411570149483366,0.03409193279226698,-0.07545096751996526,0.12029430253219109,0.15722286540571434,0.04527320252838881,0.04736656380304257
0.02095402759617013,0.13929724328929238,0.0016162306207322407,0.03885089303040369,0.11823995840155463,0.11692976937389492,-0.09103318090066938,0.031242619636518323,0.12001937120028724,0.013107393836652236,0.025966886458373188,0.1183317855116501,0.27175186346248503,0.027572924537216045,0.12136582322249524,0.029057359094380432,0.11998688265736801,0.13916590149089764,0.03003735795963109,0.11298508559287981,0.020789271189735573,0.03598012394802895,-0.013655109794521777,0.03222858107386208,0.038931306907952996,0.022318938246812876,-0.08972163990235169,0.04308831530593479,0.027413731475472155,0.07267082293893458,0.07316914306542224,0.03990902917519987,0.12101916512672548,0.08625895572980985,0.013838236973388884,0.026088810790443426,0.02535033929002998,0.14344189996542694,0.07171022611226385,0.2823927913365686
-0.07372783089047746,-0.07372783089047752,-0.07372783089047742,-0.07163646192913325,100.0,-0.07372783089047749,-0.07372783089047744,-0.017754279563713914,-0.07372783089047744,0.09597129800432402,0.6650336287641462,-0.07372783089047748,-0.07372783089047746,-0.0737278308904775,-0.05944409816244364,-0.07372783089047749,0.5634634159170654,-0.22443986480929934,0.6681056042934413,100.0,0.46266361167263814,-0.07372783089047746,-0.10921077592876044,-0.07372783089047749,-0.07372783089047746,-0.16467339569241507,-0.07372783089047748,0.3732386760747602,-0.0737278308904775,0.8589119982398186,-0.07372783089047752,-0.07372783089047746,0.6295737725696211,100.0,-0.09853244698615282,0.3530456378337417,-0.3252124693236423,100.0,-0.0737278308904775,100.0
-0.0737278308904775,-0.07372783089047746,-0.07372783089047748,100.0,0.28891141054185515,-0.07372783089047744,100.0,0.43814097034284866,-0.07372783089047744,100.0,-0.07372783089047748,-0.0737278308904775,-0.07372783089047748,0.9086643357315728,0.9152775230508589,-0.07372783089047746,-0.0737278308904775,100.0,0.3159581802482984,100.0,-0.0737278308904775,100.0,-0.0737278308904775,0.22321270874296337,0.4274323047496833,-0.07372783089047748,0.12730053262867522,100.0,100.0,-0.1800899577290933,-0.07372783089047746,0.4916187355644552,-0.07372783089047744,-0.07372783089047748,-0.44265202700256573,-0.07372783089047752,-0.07372783089047744,-0.07372783089047746,-0.0737278308904775,-0.07372783089047744
-0.0737278308904775,-0.14055767405893538,-0.07372783089047744,-0.17754347869034098,-0.07372783089047746,0.7751790966015503,-0.07372783089047748,-0.07372783089047746,100.0,-0.07372783089047748,-0.07372783089047749,-0.07372783089047746,-0.07372783089047742,100.0,0.37641870706896635,-0.270815653974337,0.4287990983504644,-0.3402209648651464,-0.04529585708039813,-0.1626735373449016,100.0,-0.07372783089047752,-0.07372783089047748,-0.07372783089047744,0.12236206186260402,0.8712826392497603,-0.07372783089047746,-0.07372783089047746,-0.07372783089047748,-0.07372783089047744,-0.07372783089047749,0.5875440916135612,0.4517753333767359,0.044433577552531814,-0.0737278308904775,0.5143832864723044,0.17447544218162672,0.6331462836166977,-0.07372783089047742,-0.49490884500749643
-0.07372783089047752,-0.07372783089047746,-0.032202797126318655,0.1340608651311075,-0.25539427364669093,-0.11358315246890666,-0.07372783089047752,-0.07372783089047746,-0.07372783089047749,100.0,-0.07372783089047746,-0.07372783089047746,-0.14067969350458098,-0.07372783089047749,-0.07372783089047748,100.0,-0.07372783089047749,-0.07372783089047746,100.0,-0.0737278308904775,100.0,-0.07372783089047748,-0.07372783089047749,-0.0737278308904775,100.0,0.5277928148335657,-0.0737278308904775,-0.2180818925044073,-0.07372783089047748,-0.07372783089047749,-0.07372783089047746,-0.31820701196197737,100.0,100.0,0.4609088172327013,-0.07372783089047744,100.0,-0.07372783089047746,-0.0737278308904775,100.0
-0.07372783089047748,-0.07372783089047748,-0.07372783089047744,100.0,-0.07372783089047746,-0.07372783089047748,-0.07372783089047748,0.28312288458129137,100.0,0.06971261410435695,-0.0737278308904775,-0.07372783089047746,-0.07372783089047744,0.6055525527537847,-0.2190295880506584,-0.07372783089047744,-0.07372783089047746,-0.07372783089047744,0.29721499945384094,-0.18733611201234263,100.0,0.33200888886212265,-0.0737278308904775,-0.07372783089047744,100.0,-0.07372783089047744,-0.07372783089047744,0.9600284919171335,-0.28456039474970385,100.0,-0.07372783089047748,0.5614136578202843,0.07849903487797628,-0.11328190311419943,100.0,-0.10528023952422004,-0.049565284586225083,-0.10971366866988304,-0.07372783089047744,-0.07372783089047746
0.05157501845959363,0.11585970228277605,-0.03083235000108026,-0.20113837569508525,-0.15550189736162356,-0.13980917403772364,-0.05448442420480655,-0.22116512715851117,-0.21344239689354366,0.573106737415484,0.20730232691716588,0.1747478710688436,-0.1959727988404145,-0.34951376485148733,0.14946640877976383,0.7676070870727664,-0.2998711183647506,-0.056537090176568786,-0.169601445218028,0.6647067457716681,0.37474123450860564,0.36987006389830046,-0.11014607531397369,-0.14353604546058227,-0.23261124902956234,-0.08337525803731287,-0.21141576532743445,0.3396111619398113,0.17780250809662101,-0.08786611860134048,0.13811503178124077,0.0514430854337747,-0.034043250291584934,0.38672024366522134,0.06847095815117685,0.1639367142181115,0.1447112549947979,-0.1595333051455075,-0.3909438388891167,0.5284707637388876
-0.09759965805523355,0.0783194704024911,-0.0486154347249159,-0.08084592176679092,-0.11072890285428948,0.4647137513326754,-0.19603332729607792,-0.07372783089047748,-0.07665521304446585,0.10668034764362101,-0.07513904908660081,0.11230992834315838,0.4255473792672936,0.05326688749511166,-0.20890565089231805,-0.25289598141046765,0.15796226986006873,-0.10155535930738335,0.6048762589447999,-0.2737334793343559,-0.2283893869780723,0.1349291122416175,0.431790657226452,-0.151688574833652,-0.13701383131905973,-0.2599399279220575,-0.11960442022884253,-0.06518443014523378,100.0,-0.19457190100512947,-0.18674996635942173,-0.11344198949323751,-0.11676425049006517,0.12054294213614858,0.44068670136976296,0.09466405905345411,0.4058908550036691,-0.07174130452174596,0.40243454314829313,0.061942486554039534
0.2760927708882976,-0.057179406253058,-0.08602942549986443,-0.12973691906507348,-0.1753474459940793,-0.07372783089047748,-0.08417534935315855,0.529458349305368,0.4884017046993064,0.05972370204998976,-0.06649899457341864,0.4234050567372726,0.6934460909639024,0.6152876536999766,0.3522506293749713,0.27348245713835057,0.4812916730478122,0.6036323398170618,0.13287572953789611,0.5073700621667576,0.5285463270548586,0.39307053872322645,0.14645509942890936,0.019487159323973713,0.562554929521512,0.6153420004787172,0.5139806308068494,0.42578379004630607,-0.3950353080817673,0.18782858563651078,0.6435895399421299,-0.1521391111101396,0.4455227149327578,-0.005387117742232726,-0.09463882302666446,0.6292753027056249,-0.08206511261986038,0.11412703082379129,0.6269308484138629,0.5541685723021831
0.019971664022659475,0.6378575166292119,-0.1913533048248517,-0.19815857066861983,-0.2214732865334248,0.03133126050855997,0.18984057486474973,0.14968212671087447,-0.1644281582478332,-0.07179531718247203,0.34701295151271494,-0.22418287620761884,-0.16232390861494986,-0.008281051642580185,-0.34153605361159445,0.31102080023808665,0.15849124229911282,-0.24787706160787873,0.06661197882346638,-0.22801101374806307,-0.0608464676851077,0.01971432270917213,0.1339613294128044,-0.16364672579646006,0.14906706377869955,0.4194877258782575,0.7299981103876457,-0.12301075382627975,-0.08515341328281353,0.30884543685054733,0.7102400662720616,0.04469971131942575,-0.08197719038861401,0.6367193031177126,-0.018667081866052874,-0.22914761843239578,-0.1885109279356617,-0.17897968805741515,0.5221631533537249,-0.19437182266475853
-0.15898828370299464,0.15742379178966842,0.499961537291923,-0.2588769912839994,-0.43794023373747315,-0.34742107646113807,0.12963801900950392,0.6360772874993904,-0.07372783089047746,-0.07372783089047746,-0.35514253672627805,-0.23208187932314175,-0.02973264997290232,-0.25099187618472,0.7105738154173646,0.025818839749753714,0.01737929519165631,0.03545149513559442,-0.012770738651556954,-0.4828566380809093,-0.33018593981933647,-0.012007872686476203,-0.06775069407633867,-0.07372783089047744,-0.048773007674362365,0.06912827352294573,-0.3374486230087642,0.26075221419423567,-0.13110342341997447,-0.19174566204006505,0.2723767529667671,-0.07372783089047744,-0.0028435796917162404,-0.1802654428231789,0.23263079587475757,0.02894910340578686,-0.12690485382773772,-0.05892469499304755,0.6381746891022737,-0.12400381985071766
-0.2607466150239924,-0.19545668504913127,0.2980952185108086,-0.05739598443918638,-0.2085749103240705,0.13784221751828185,0.02449096376404175,-0.17453324556782399,-0.19449415190589428,0.017886685293077798,-0.1879549359630755,0.19560138411142716,0.14943310117716901,-0.057095642476838744,-0.16642833245454966,-0.05664620260024517,0.13356900644626635,-0.12476384728732483,-0.24187411200810488,-0.23169225490234366,-0.07943761286515322,-0.20828248362527077,-0.26616170318886845,0.3729696502097484,-0.23171314528705333,0.15083249393801892,0.22237305916413713,0.02335076835744558,0.03253270998101921,0.20494256590668233,-0.014705917927372712,-0.17586747265243002,0.48130595695017925,0.33347311496589016,-0.08841024673297591,-0.20256139301198273,-0.13664414602770725,0.023795847747190162,-0.27300380674183694,-0.07372783089047748
0.36063574215906413,0.14212288642957327,-0.15697626860070457,0.024192057923348668,-0.3003769928584026,0.3007310852721069,0.13838705714642244,-0.08501468652541519,0.040102191134190855,0.3325699889277914,0.21969607118186094,0.2237694276793121,-0.08398998614099788,0.032015177162375896,-0.2729297354749461,-0.18537951048659154,-0.27707435538329045,0.04879448179361542,0.2286002420933339,-0.10855919148027515,0.3344903519146455,0.0414406012195839,0.11892745572065593,-0.3016797773725401,0.33907173955892844,-0.2780037295272935,0.3063447941356153,-0.21176499114047836,-0.1752733495600341,-0.1963676873821409,-0.08477087616749314,0.36208288560845675,-0.021425430276134246,0.28409750674942824,0.23162352063455274,0.04094909043736869,-0.07254395393688667,0.34232903457505054,-0.11924360048542491,0.2477767592959273
-0.08359186869007791,-0.07205058043616122,-0.06986135594594718,0.30484778770050225,-0.031134831865947215,-0.10737886293303278,-0.03788534514881861,0.049941908224967656,-0.056383272932248034,0.041867388974650234,0.05818771810605677,0.24296939733140505,0.03010693008243751,-0.19990083274764495,-0.08460742596878269,0.04946781615372166,-0.09615706896451447,0.20740039933626744,-0.0469589988947667,0.13491672025134174,0.30384761170622687,0.14578329522921968,0.1324779118599565,-0.09701892180999559,-0.0025087399360206497,0.2539476052733509,0.039624332435757144,0.1496221350811517,-0.08441380000157975,0.11871736854206778,0.03440847727032925,0.06345630396887834,0.06128609982914669,-0.05187244252795529,0.04409773696842117,0.1414115495315365,0.19859039287078079,0.03862569713297427,0.05238770230915052,-0.07071352896128906
0.14821363578435032,0.030019876813810156,0.13922684846958225,0.1480820060329029,0.14228549360097748,0.03549650685215231,0.14659587522897924,0.029179367923713548,0.04223043415862073,0.15182764649088093,0.03868209543558542,0.13222963958117318,0.14611920473881249,0.14725662749155224,0.04126263148972532,0.15015879642878222,0.038196674106593206,0.033421149466015335,0.04111862964726666,0.14267139634403997,0.11642151677828227,0.03519044661829823,0.15478427299445424,0.15029803606960052,0.1424423605050515,0.15247508994637718,0.16055764186240204,0.1488524028045109,0.03862225598563072,0.044987699439143686,0.044738088185050866,0.15089648763491345,0.13615341008290396,0.14281870275153824,0.15459919943544143,0.15484452575666316,-0.1121933495118163,0.15168493641534908,0.1517655668475932,0.1515464653236997
0.023979856126424535,0.14984969958268912,0.03169174350885284,0.05079595003427883,0.15302073058375948,0.03361885605711562,0.037244543977167026,0.04558801377576548,0.04016263198103979,0.028298150826625516,0.14710834730736996,0.10181195715716014,0.04716805763702263,0.03289510854527781,0.03441583713900906,0.13478566815542298,0.15491613238647847,0.03161217309485104,0.13312524831498496,0.031130017136195096,0.1394505158441648,0.04269047854495105,0.04458093486449392,-0.05342722442409008,0.03302258864488788,0.02367194851153708,0.13283963062977128,0.15317667937875235,0.04033672417704114,0.02764084312656981,0.0479586764679258,0.1531625676045293,0.03473681630075094,0.030100968823665065,0.027474026444240334,0.14121246072047125,0.02499238853233526,0.04144077788200674,0.13481861709658471,0.035828724674163044
0.024315866018266068,0.03582404574010628,0.03880919487155413,0.15524929812200308,0.03894502622330322,-0.06849664816463498,0.15315785256860392,0.15492330809969357,0.15793958737794206,0.02116046281908351,0.151485462095122,0.026812496852410838,0.04280888710740977,0.15564662504551025,0.03092327647961589,0.1501386543943413,0.1510032188735138,0.029889727913427453,0.04371851255682851,0.04287251435605643,0.024003542390748124,0.04352741802902227,0.1532243299121139,0.039423876521837084,0.15417919419147016,0.15134520539320565,0.15296521275730715,0.02761470351863334,0.02664984974552748,0.15805623393390048,0.03105094661009053,0.046953758778168334,0.15661466399000482,0.1385955447712996,0.03243151228109814,0.153184168684444,0.15277291994600783,0.15318777237457482,0.038464052622764776,0.03744967320927264
-0.07494059912191219,0.07256593880822113,-0.07372783089047742,-0.3598559803804688,-0.0737278308904775,0.6145279104843089,-0.06304349020951537,-0.3231280225135271,-0.07372783089047746,-0.0737278308904775,100.0,-0.07372783089047748,100.0,-0.11662679486806768,0.784956543328675,-0.07372783089047744,0.5914899470045165,-0.07372783089047749,-0.07372783089047748,-0.007398804789250576,0.14799838390772613,-0.4384419572579496,0.007471418967569119,-0.07372783089047746,100.0,-0.0719071451905686,-0.07372783089047748,-0.16175872279050846,100.0,100.0,-0.07372783089047742,100.0,0.27513474963251255,-0.07372783089047746,-0.0737278308904775,-0.07372783089047746,-0.0737278308904775,-0.07372783089047749,100.0,-0.07372783089047746
-0.3909411214491729,0.6696618581887785,-0.0737278308904775,-0.052243905765865385,-0.07372783089047748,-0.5031882696556409,-0.07372783089047746,0.22090183829571408,-0.0737278308904775,-0.07372783089047744,-0.30804359462779085,-0.1719120749145936,100.0,-0.007817227614306536,-0.07372783089047748,-0.07372783089047744,-0.0737278308904775,0.472344548589768,0.15488830209133636,0.5340476428193922,0.6559780590361463,-0.07372783089047749,-0.07372783089047748,100.0,-0.29284281748784835,100.0,100.0,-0.07372783089047748,-0.07372783089047746,-0.07372783089047746,-0.0737278308904775,0.895414765125913,0.8553236884091119,-0.07372783089047744,-0.07372783089047744,100.0,-0.07372783089047746,-0.30808408054901193,-0.07372783089047749,-0.011830958843935724
100.0,100.0,100.0,-0.0737278308904775,-0.07372783089047752,100.0,-0.07372783089047746,100.0,-0.07372783089047748,-0.07372783089047752,-0.07372783089047742,-0.07372783089047748,-0.07372783089047746,-0.0737278308904775,0.3069497624062472,-0.07372783089047749,-0.07372783089047748,100.0,-0.07372783089047748,0.6250785478914958,0.2245871830171386,-0.07372783089047744,-0.07031848515548375,0.19979350958627665,0.6580732726231018,-0.23731216974621833,0.2462363946792198,0.42993046449513406,-0.15386189298702774,0.21913892130544688,0.3376624943561642,0.11729766868938198,0.3814226143387372,-0.16260878962156505,0.03632129701324033,0.17416982233600828,-0.1405730238035147,-0.20721138435161987,-0.10541923642844829,0.2902274938509701
-0.05604637720465113,-0.07372783089047748,-0.22649255314664316,-0.11678400148320509,0.3935857426330465,0.32030992489097426,0.05338771223720145,0.14281633785345663,0.06657518324780237,-0.02164277605444387,0.12255000059516187,-0.0997267537048818,0.029883552893231587,-0.005004478924354433,-0.11504544390766498,-0.03881145162206298,-0.11964999905324891,0.03965723881700585,0.026720419587312187,-0.07327612026539065,0.0442313646751496,-0.15287190262046488,-0.07377279546686623,-0.16777896159090658,0.6508050444707236,-0.14308846270318976,-0.11484138416825868,0.5048244854281676,0.22734001504426887,0.17806317267299954,-0.17998901326695754,-0.35476745649321045,-0.04602273950124373,0.6555486676360529,0.28109593318292236,-0.11426442426006478,-0.07372783089047748,0.202618460205742,0.1890273311016572,0.5367149319444277
-0.03964691117842369,0.454206790684293,0.08649509629961877,-0.23064572702049635,-0.34824766553994996,0.05370011791078175,0.32725331786583545,-0.34639352821067393,-0.15192716613041207,0.04828515268161067,-0.062353097714537495,0.08869006817777,0.081436330793241,-0.04246885627401059,-0.10137619198343018,-0.16099784938091008,0.45437175897666804,0.057775271727842026,-0.1504567762288426,0.29201719697016504,-0.16798693065096595,0.04962698904344063,-0.13882382128232232,0.15035928765201823,-0.10849556748858587,0.023202290496014296,0.03409118316009775,-0.025058357084890508,-0.16154640150357147,-0.0014219464687075182,-0.07114773095940187,0.11472124241512821,0.12231338387663691,0.056028053087749746,0.10320254346438514,0.06379287327061593,0.02848299725250019,0.057064340653933336,-0.10944459468424568,-0.12762129028040006
0.18703614073481678,-0.10263607259866407,0.19473252038863423,0.11493456205215394,0.18027774279055406,0.4182265005310204,-0.1464425013205668,-0.13678576069559042,-0.07372783089047748,-0.030074265831625556,-0.15278960179102186,0.18648157779744784,0.04604430369660092,-0.057168523130304315,0.225424720895459,0.008582569388923463,0.0269090095300983,-0.09558256296936042,0.014427901580343851,0.04489207159310346,0.06318862120609356,-0.04081095295313561,0.4037791290616656,-0.05329619992739614,-0.1356415427894344,0.010419198780994152,-0.03863228915682146,0.053656741825533504,-0.1591124862308892,-0.09187599350396898,-0.1773389431600156,-0.021359476530664837,-0.07910381422983832,0.050113179052847526,0.025514530715468466,-0.14028214790299715,-0.14774515209724015,0.1648130460616991,0.10149302475556841,0.018967115560272405
0.02540223195505088,0.018892036114812393,-0.007637983731007293,-0.13952889888557393,-0.04238990865666377,-0.046390970673454414,0.024983375664663923,-0.0994744531290977,-0.10152020810320868,0.03141787964420148,-0.10432662443891164,0.12829416369694974,0.14063702390564564,-0.038363688062983695,-0.1067994386461153,-0.12836646540240376,-0.10250755107176142,-0.07372783089047748,0.48467468328428215,-0.08852113242641563,0.17473912603993297,-0.11773291426684976,-0.1266186230697122,-0.11507271985167737,-0.03418022552127321,0.13155876897639032,-0.06581823928634212,-0.15569596319906198,-0.10146476875427918,-0.0560203027771515,-0.06224241096479936,0.0054940791095314965,0.1839500392238241,0.10504578352187549,0.05296847791641434,0.03841783183821302,-0.04722661332645353,-0.03117072430073401,0.04811028659218936,0.06235150605150446
-0.017666486139913472,-0.03297196972029737,0.09041782503156301,0.04527845009120908,0.06793172081520506,-0.04836888604377717,0.01415362601934966,-0.20011290963480863,-0.11584774556131806,-0.1697070750555101,0.12980841775955443,0.049711083919921475,0.016164801672980744,-0.15994836427244957,0.10427238690946385,0.3821584525811209,0.015521030254770082,0.044321325141103124,-0.09205421847454785,-0.06793694419301954,0.04833411546824401,0.008707476317615516,0.016828325348396,0.006033029213953378,0.004666242356251885,0.051056654499982715,0.16909266062521366,0.06468114014874383,0.17462775004680753,0.06053111511295636,0.10577530806852237,0.0920409911021098,-0.04025802038399022,-0.03502930880230842,0.0704222097859476,0.05485378067352801,0.057720016182524043,-0.10284179695457238,-0.019035408238684163,-0.10748719773344348
0.07309026976178169,0.12762404931670612,0.04732335133642122,-0.10606760915656924,-0.01374717880228426,0.02073521757488622,0.133434300553651,-0.0934137780321025,0.024137395662134725,0.023510939635413074,-0.09309916606936659,0.12563866969593496,0.12184113915675708,0.06796844485931909,0.009906375757574557,0.12910396254296452,-0.03050762432942129,-0.08898285017636945,-0.10406303187966438,-0.19460893248478475,-0.015711446012437902,0.06579539949683404,0.130191967777893,0.05300488931967041,0.0541082958247794,0.1858080669285417,0.07257527948484489,0.10873141434814279,0.12463395471454737,-0.09152629247441038,0.0077056748530154205,-0.11043996385027648,0.053472634854595316,0.12643461365792422,0.05768786812002903,-0.18490998731833577,-0.09539162854849345,0.12069073330309288,0.020863758829586895,0.04621801510898852
0.08564177841403303,-0.07020760364319927,0.024168664078981612,0.12216745352007652,0.06389768610018759,-0.10283513618946248,0.1318409103329065,-0.08634575855712193,0.12665892796049677,0.15721154075385996,0.11496850003788645,0.18791493602068757,0.13296630832989853,-0.03441179395463553,0.13317618130050085,0.009931110350118878,-0.08500545994872774,-0.10386381639061647,0.1862846831714511,0.012166145133921145,0.010476943582710466,0.10468153357668182,0.011963733380881855,0.017470003360576854,0.12425325590350722,0.12237860865086396,0.12422146047991237,0.01703790918695371,0.047758400603537254,0.006677412371535635,0.05289945291331092,0.11605268840271855,0.060619275126581634,0.05641121349819023,0.01762446621925536,-0.09212663054894865,0.09451307447329865,0.0801334127322491,0.08557057829755702,0.08777391860075674
0.07060836542277951,0.130082738233044,0.057671744831730494,0.1266181852852741,0.050387655986090366,-0.02808551210366354,0.04341946051721103,0.12257461071002919,0.039417155892662564,-0.09406814187553823,0.007355024074082715,0.11158219738801667,0.060076005786422866,0.007273264244712303,0.12091450512377237,0.0349536100471886,-0.026657328132620606,0.0944315280006119,0.05005704810953095,0.006079152382799683,0.11419287991837301,0.12847543525392646,0.0052955424302332825,0.11749252918144318,0.006449223702042333,-0.09213554299014419,0.042815454263994315,0.09617433614263453,-0.10723647845454731,0.046194455233831165,0.0833084584501238,0.044694703247096644,0.12246611196503673,0.04784794608245282,0.11854357761231184,0.1270711540830087,0.014022522062604431,0.1161034824973591,0.0413028227378444,0.07480286409300307
0.1409301978843521,0.040504450911054805,0.0464683004194568,-0.09475692011371568,0.008843822397287279,0.04694445059177458,0.007795160695508951,0.049317536313194306,0.27094146671271085,0.10451977430738374,0.04556844723504402,0.0163812339475897,0.1243524081698289,0.04260347818134857,0.007707117332711501,0.12769502188629717,0.01736850845085875,-0.09478880928716744,0.09068111349647895,-0.08801254848342052,0.03450481454631678,-0.0737278308904775,-0.07372783089047746,-0.31808084822716065,0.12151425219330307,-0.08239813314998143,100.0,-0.07372783089047748,0.6151432254061336,-0.152474930715173,-0.07372783089047746,0.6448242036010009,-0.07372783089047748,-0.0737278308904775,-0.07372783089047744,0.5933468039486071,-0.07372783089047744,-0.07372783089047746,-0.07372783089047749,-0.15176849171542112
100.0,100.0,-0.07372783089047746,-0.07372783089047749,0.4844612798849083,100.0,100.0,-0.07372783089047744,-0.0737278308904775,-0.04426818900299119,-0.0737278308904775,100.0,0.3731914196504984,-0.06768296993498896,0.37623557363947946,-0.07372783089047748,-0.07372783089047752,-0.07372783089047744,100.0,-0.07372783089047746,-0.07372783089047748,-0.07372783089047746,-0.07372783089047746,100.0,-0.07372783089047742,0.6758233334371068,-0.07372783089047752,100.0,-0.07372783089047744,-0.07372783089047746,-0.11241035170921866,-0.07372783089047746,100.0,100.0,100.0,100.0,-0.0737278308904775,-0.07372783089047748,0.7973296043502631,-0.07372783089047748
-0.1283762286766681,-0.26441924009970014,100.0,0.23933399042549575,-0.07372783089047748,-0.07372783089047752,-0.07372783089047744,-0.07372783089047742,100.0,100.0,-0.07372783089047746,100.0,-0.07372783089047746,0.6079592322136884,0.008127184343516102,-0.07372783089047746,-0.07372783089047744,0.389616354182742,-0.016521318807996524,-0.07372783089047752,-0.07372783089047748,0.3165374083583772,-0.0737278308904775,-0.07372783089047744,-0.08625419060766083,0.16674574488521798,-0.07372783089047748,-0.07372783089047749,100.0,-0.11426002393813842,-0.0737278308904775,-0.07372783089047746,-0.07372783089047748,0.6294437726962718,0.6642683724697624,-0.0737278308904775,-0.07372783089047744,-0.07372783089047748,-0.19449606384650253,-0.0737278308904775
0.1400718913766241,0.2911973639917596,-0.3508544831074267,0.5761399058695617,-0.12948108401694108,-0.19564695501945192,-0.04732421024009542,0.01849647041067898,-0.3454320231597514,0.8035261105464538,-0.21764854716446033,0.7526168979941027,-0.3018103340620558,0.14587691025995647,-0.5248398297659306,0.014778663458144981,0.5196499761443457,0.19659826468070093,-0.47718337030822366,0.08378046954888714,-0.21760858929246124,0.031778794657008884,0.10467057034311116,0.36238214515204553,0.6362461937063028,0.34539912196354805,-0.3463185248563005,0.8314052315298381,-0.08836981618329973,0.21937348099564205,-0.15575422940214045,-0.2878121465828206,0.8102550634249718,0.29576483781993446,0.4884258236967313,0.28213448074062214,-0.11148300591624542,0.0035717944575312374,100.0,0.05811923608193193
0.15895474893797437,0.25491050903103074,0.1332238514972368,0.14691173368323718,-0.12520693377909284,0.03110648576687244,-0.2670897553324393,0.09497139289938458,0.13022683190474257,0.5024173398561301,0.03869054323045624,0.1917075436064593,0.18905837256575728,-0.21434675461832914,-0.05638575194616372,-0.07372783089047748,0.6698130159010406,0.02392792327529604,0.2994578475745496,0.45299483486778985,-0.07372783089047746,0.39360019499739557,0.15927072985960292,-0.10501085138041404,0.14576122682063097,-0.2656464264194558,-0.033026269514112756,0.26274227276463374,-0.09357188069349963,-0.2827903857323339,0.4988473545103196,0.19420503099608288,-0.1329168580319659,-0.07372783089047748,0.3442874011209012,0.5934670850776446,0.04462059825951234,-0.23268268910437112,-0.16929024055440864,-0.08121855963505861
-0.186379220450153,0.21671979001412478,-0.09524277394075557,-0.18587952300772362,0.34174278436848826,0.3372547448311783,0.1408555095943209,-0.07789720961296145,-0.16565311399692928,0.13283864673036508,0.14814002093405298,0.2490566044219307,-0.0067800619971323285,0.031557936994121884,0.15517124368436558,0.14500715295458527,0.15859060904336353,-0.10567567860038558,0.15032153722447628,0.16897311753288333,0.28823259260456574,0.055845931573620326,0.04808135604391339,-0.15495940865219343,-0.3118648718787213,0.14250810689568094,-0.25543406252259715,0.3400724875136522,-0.1863753650311532,0.04606023928827564,-0.13623409239388135,-0.18250340842368928,0.12760507205224292,-0.09358313064675856,-0.24172640011764637,0.3237823766906948,0.04254616195401048,0.23173789496458852,-0.14564186521762248,-0.19445314206947747
-0.20670605571543754,0.2656950091223346,0.21490351015360487,0.21139513099061075,-0.17547238712342045,0.1430883893175967,-0.1056016907717786,-0.2924343421585071,-0.06191778629806687,-0.17412927614828466,0.22932470434773453,0.27265413096219293,0.27806659509461057,-0.08721253824819378,0.12415463650429559,0.22406003488513962,-0.20476044475052535,-0.20593036813015886,0.2125242647756931,0.13974873280636238,0.13877518032087996,0.21659004998941753,0.269550627278168,-0.19118363232809615,-0.07907186778498446,0.27155973369407843,-0.056147857356510615,0.30780968593237734,0.20678613069096918,0.13213287438194157,-0.1640601477554005,0.14417931471598516,0.13324363123507135,-0.0880085471845635,0.033734186338785346,-0.18165889134409774,-0.0639275952404356,0.1417440525643587,-0.05945729366469734,0.3237745058380438
0.04534609399449909,0.02291541586897423,0.221701617037726,0.14026846145051658,-0.1750476702001886,-0.18267121797261093,-0.19608452482204441,-0.19799005156628563,0.030856991402860003,0.1407275791154044,0.12522137694286015,0.1545663741670164,-0.07452531568569704,-0.05913837078783648,0.046804346495227245,-0.07622029422698984,0.04260675151582279,0.23450121925248305,0.14221838183216257,0.15018257115875625,-0.07384107710065606,-0.20390009537890896,0.1375830052547773,0.029487782253593525,0.13178165770092207,0.21176232337635803,-0.20091219569786126,0.042329028892597306,-0.0798170708026518,0.02802247511474786,0.22342489284129552,0.02727189095701686,0.04964054194388847,0.222320299130911,-0.19954779859384109,0.011743060323251332,0.022803303070181573,0.2195715521868516,-0.18784835859856958,-0.07173565173131677
0.12651855695842773,0.0719124147254382,0.020765196187548407,0.017256424095255657,0.1390992336627887,0.025440491855550355,0.05390847764775925,0.01353377435262468,0.147506963810927,0.013805306270491225,-0.19029966129453493,0.05262657446009177,0.12607712726413575,0.049050324373751605,0.2127327896480684,-0.07572881902029205,-0.0530206319980689,0.12706242150268188,0.009968136960000148,0.2241892155512428,0.12294141709314182,-0.1901232522693057,0.04481680979181002,0.12501399136319455,-0.1872286489659331,-0.09421436486087584,0.018415467825161215,-0.17949968023897142,-0.06591313061784007,-0.0855418160246948,0.008867423200562816,0.010276531618976934,0.03871485334701035,0.13903895135139943,0.019411972492288904,0.1265703680819256,-0.24857279535143195,0.1402770174470019,0.1301165262721557,0.009713277161900031
0.007826871155647468,0.1270633557399055,0.11770195667654182,0.02214210570843222,0.04130373307034536,0.14065271746092517,0.1222732963408409,0.12793314957536664,0.019957272068924403,0.05164810598228768,-0.09144885857142088,0.119205197051888,0.04779003039206491,0.03400235992268381,0.14023300583095735,0.12715631897604496,0.019454893833522724,0.1296237888333277,0.00914221157118733,-0.07695692548303429,0.03393549213958585,0.1282245534439676,0.05235223936920341,0.004076377591674227,0.034657626201184205,0.011996833360398034,0.04137889134152199,0.016732852350777937,0.13651500428000796,0.13766525429839163,0.039228646844672456,-0.07799319400651801,0.04140114650642928,-0.08854865524762916,0.008609822842349712,0.04503861041248314,0.03810515682449075,0.07192819226552788,0.03693891975071455,0.01670201228336481
-0.07372783089047748,-0.0737278308904775,-0.07372783089047752,-0.0737278308904775,-0.0737278308904775,-0.07372783089047742,-0.07372783089047746,-0.07372783089047749,-0.07372783089047748,-0.07372783089047744,100.0,0.14259139651827732,-0.07372783089047744,100.0,-0.07372783089047748,-0.07372783089047749,100.0,-0.0737278308904775,100.0,-0.07372783089047749,100.0,-0.0737278308904775,0.5314724092227584,0.5220562735766431,-0.07372783089047746,-0.0737278308904775,-0.20588647432424204,-0.07372783089047746,-0.12023356115662921,-0.07372783089047746,100.0,-0.07372783089047746,0.6244660176378096,-0.07372783089047746,-0.07372783089047752,-0.0033852139306989296,100.0,-0.07372783089047749,-0.07372783089047748,-0.07372783089047748
-0.07372783089047752,-0.0737278308904775,-0.057173589793797115,-0.07372783089047746,-0.0737278308904775,0.784750104653307,-0.07372783089047752,0.625468970893262,-0.07372783089047742,-0.17867896252251178,100.0,-0.07372783089047748,-0.07372783089047744,100.0,-0.13933332642280497,-0.0737278308904775,100.0,-0.07372783089047746,-0.0737278308904775,-0.07372783089047748,0.029552088878182548,-0.07372783089047746,0.507598516454418,-0.0737278308904775,100.0,0.3425444844557017,100.0,0.62059652082349,-0.3567790176954475,-0.07372783089047749,-0.0737278308904775,0.8908385153765123,-0.07372783089047746,0.5865492064641782,-0.10660818534098972,0.21651027916555665,100.0,0.060145305514030106,100.0,-0.07372783089047748
-0.08430049465344824,0.5289778328893613,-0.006938651236458287,-0.07372783089047748,100.0,-0.07372783089047742,-0.03706240591121776,100.0,-0.08160210302220114,0.011856048914726025,-0.05410774041063353,-0.07372783089047742,-0.07372783089047748,-0.07372783089047752,-0.0737278308904775,-0.053462900391957724,0.06801954388634705,-0.07372783089047749,-0.10426408292476756,0.00041671710984110343,-0.07372783089047752,-0.1911350541181318,-0.07372783089047748,-0.07372783089047746,-0.21291681239147328,-0.07372783089047749,100.0,-0.17320776502577426,0.5284935065378422,-0.07372783089047748,-0.07372783089047746,-0.07372783089047744,-0.0737278308904775,-0.07372783089047748,-0.07372783089047748,100.0,-0.30066205286495934,-0.0737278308904775,-0.07372783089047752,100.0
-0.07372783089047749,100.0,0.609753297815736,-0.07372783089047744,-0.0737278308904775,-0.07372783089047746,-0.07372783089047748,100.0,100.0,-0.07372783089047748,0.841576588987479,100.0,-0.07372783089047749,100.0,-0.07372783089047744,-0.07372783089047742,-0.07372783089047746,-0.07372783089047748,100.0,-0.07372783089047748,-0.07372783089047752,0.015151535761121243,100.0,-0.0737278308904775,0.11074215340487543,-0.07372783089047748,-0.07372783089047744,100.0,0.5232360479828356,0.7381817478649798,-0.07372783089047748,1.0375014717226299,0.11061067371563918,-0.07372783089047752,0.6917743761827274,0.023928972746722645,-0.1287254427298024,-0.07372783089047748,-0.07372783089047744,100.0
-0.07372783089047748,0.4642087722115999,-0.07372783089047742,-0.0737278308904775,-0.0737278308904775,-0.07372783089047749,-0.09133173491263541,0.6281148636473509,-0.07372783089047749,-0.07372783089047746,-0.07372783089047746,100.0,0.3449410607443547,0.7623399639352775,-0.07372783089047749,0.17091347532010973,0.6350761616337803,-0.07372783089047749,-0.21583895389253382,100.0,-0.07372783089047746,-0.07372783089047748,0.17368130096340378,-0.07372783089047746,100.0,-0.0737278308904775,-0.07372783089047749,-0.11679508006367376,-0.0737278308904775,0.4085144725608934,-0.07372783089047749,-0.15249187330903807,0.5463583147904855,-0.07372783089047746,0.41886705616144504,-0.07372783089047748,-0.07372783089047744,0.3792468205506031,100.0,-0.0737278308904775
-0.13493857347067367,0.8508715944938332,0.15455256258538352,-0.2914627893324045,0.5141454795197844,-0.2328843762918826,0.7614737841463851,0.03575994276899869,0.30247258922289416,0.762918282672553,0.5048233959658311,0.2747995615161671,0.9670226853818034,-0.3478182127207351,0.5778457466121399,0.37496909290134406,0.14917910064844517,0.8543838372386108,0.7127248158959156,0.7295372509114781,0.37396806424402823,0.31392763970560494,0.3858038204757402,0.5219131491153226,0.37281901155838487,-0.26705582300152914,0.28967074749067,-0.12139266897348397,-0.10886948710293809,0.13952338791056346,-0.23204416899478106,0.5351403591481826,0.2127536116685719,-0.035229469264555044,-0.23322639952523586,-0.046491466228722605,-0.13886510631898175,0.5923577190564646,0.3974982907201049,-0.15271194221864057
0.4179358937285905,0.012594412978614963,-0.10097163427447516,0.6350184338602028,0.4589818732114311,0.15400182491274217,-0.17795552460655684,0.15785764081265885,0.2893104797342167,-0.2305533638644304,-0.15177067135087716,-0.16654863655800514,0.12724992558147732,-0.330331617526951,0.16436286167627487,0.041954163480616424,-0.15458793815199198,0.23050537731342555,0.4393816021109933,0.4454566226171093,0.030727600788094517,-0.07372783089047746,0.7672757155026321,-0.17395266046775693,-0.25978269429173056,0.8003989348753118,0.7298154703134045,0.19241231417068122,0.3650924014562739,0.3421894194970036,0.7333847781192586,0.6923765169889291,0.23296350961186407,0.29922406275869845,0.34996400826281865,0.20498124294220318,-0.07372783089047746,0.8425403470931748,-0.07372783089047748,0.32619831345472533
-0.22495312060332293,0.15442300437631595,-0.02187459624329683,0.23421978320389175,0.15392827149276211,-0.009765577287603171,0.3584143260109332,-0.2463337483498743,0.18660210925829268,0.0710270758079936,0.36975799422658273,0.32432517134291394,-0.3562383458229922,-0.24835782718409635,0.2352173050926583,0.3566392209136538,0.052310233122134474,0.4290728660960198,0.35179843955948087,0.1564683088963784,0.3010915818837953,0.33185243510211987,0.31015762100376665,0.14402575916221894,0.4714392346853575,0.22669727529229755,-0.04076690402972369,0.14991213512950602,0.14151556415103494,0.0233644874115031,-0.2630892265812309,0.13894206925316976,0.37102013045558957,0.31480015245958415,-0.1710316416393693,0.34853876103151693,-0.0128491567858703,0.23676355423940562,0.24285755729381475,-0.04965038837347568
0.1434296351225292,0.050761432235013296,-0.230722333728703,0.13464347918342048,0.2569134361439416,-0.09017261709823207,0.0369880260623137,-0.3065803047333017,0.13998164046046274,-0.1955386354980554,-0.16197783599925888,-0.16575807250521762,-0.15833503882668737,-0.18332595322863862,0.04750942497935804,-0.2342187666022981,0.14366768642311953,0.12579092820667903,0.131625190269599,-0.26929586393260935,-0.30046054020450474,-0.30781302715394526,-0.15337443434328274,-0.19925279555457995,0.5424802731620748,0.32069121296195124,-0.20587047603692318,-0.23326128916718056,-0.2694269981174543,0.2280658106584672,0.04278334334252539,-0.32129102236707935,-0.2413899221384061,-0.2511477655712027,0.04401179883467664,0.2612652303102484,-0.19907897084259868,-0.21027477044383439,-0.06125204419810949,-0.1696860017061535
0.20672995601970107,0.2147556924617696,-0.25471466493048345,-0.13427068237118592,-0.22998895320154678,0.03005744174884491,0.2748678644903128,-0.14445369193833318,0.11876584385670598,0.15024415578384723,0.16406474008501765,-0.1685824647134523,-0.17592035794870844,0.12599234234873946,-0.1767620097024349,0.05208443773830214,-0.18760562634330585,0.24801421874605425,-0.15779222008541963,0.0233506308736964,-0.23429751027588794,-0.04460495269153453,-0.07043455901066722,-0.047312373895058185,-0.16415842919764156,0.13412306439171445,-0.01059240306209031,-0.24336042114975442,-0.24385768820280634,-0.29442769378279926,0.132523261512274,-0.02234139546990516,0.10866080609716317,0.2245768751482417,0.23320125559674704,-0.20861156421338525,0.183038776393389,-0.14641085645275162,0.2725188957362996,-0.24153931490508054
0.4121897896855546,0.35391039853101225,-0.08004173484568679,-0.1911566687462235,-0.06064143482817534,-0.15455858344844411,-0.08505768353833022,-0.1320800437353486,-0.11283662919392098,-0.07730709826852497,0.4036954458271063,0.14910981163756148,0.03337316089075325,-0.15690873821907445,-0.09511091550251236,0.36659653013457305,0.05342775532641121,-0.17715913729970995,0.3265217379569511,-0.00494596098331056,-0.11766876594096812,0.31050605071913706,0.11086582577061398,-0.023690035571727518,-0.13474734188320353,0.052081127908290475,0.031295372407873515,-0.11755282783488204,-0.15706736756121867,-0.02429894259436158,-0.09078687069900072,-0.19962281271077773,0.1304528381940641,-0.1655593263545776,-0.12726183688595086,-0.039164915846673976,-0.09318026275722067,0.04876116549609357,0.13652690259727052,-0.1866211377509798
-0.07013041251386816,-0.18133477124544842,0.5534255399984176,-0.08477344589509915,0.13108093186016348,0.16866530727924575,-0.09556121783958303,0.14096311933250585,0.6256547190835482,-0.019484921432093436,-0.2079847215747285,0.1406443116159353,0.27384959707748746,-0.07372783089047746,-0.1455796726490366,-0.08057950429531593,0.44042858901166204,-0.1801449277458981,0.18865121033029766,0.21648627720916255,0.13157503009653232,0.17035090024505778,0.14585687223205096,-0.014883871432121165,-0.17095178931534527,-0.17530984887059076,-0.07372783089047752,0.03544575019400916,-0.09899107574828096,0.03797471668172165,-0.18606855371281475,0.1446316895559285,0.24270772710400068,-0.005285939302060698,-0.3112641698502823,0.02719691528524159,-0.031150325941268094,-0.09838245513235681,-0.061366601256512165,-0.17000662989116233
0.036341804709720774,-0.08639406256901828,0.03270248543648398,-0.19654541567385755,0.07049682481496734,-0.0994073001605354,-0.09107348705764692,-0.10635758228183588,-0.15801969572385258,0.005301982464401033,0.034154668891980156,-0.19820996963432364,-0.20187832193980015,0.25449299922895,-0.19726951810156867,0.06306094023424356,-0.15561397449556957,-0.15722741078342814,-0.06049628071220461,0.033213844888028164,-0.09465093224833923,-0.08670561873092407,0.1220055929039612,0.07567333631015205,-0.056443164548575835,-0.14438929749151314,-0.1603880787173378,-0.12295953670309805,-0.006646165045059086,0.1264679896118626,0.026268118253840678,0.05554202712954477,0.11474849975665886,0.1004880481471926,0.041878311723417445,-0.19476950720754332,-0.06535320237826178,-0.10913751863778962,0.03643180359306566,-0.1686421105923564
0.040167338076741485,-0.08523794307102434,-0.10480109800352856,-0.18131848269964104,-0.14739712607697542,0.02783789593311148,0.03651358636615086,0.01050088753489894,-0.09512260484967663,-0.12075422523647887,0.12521488533776137,0.12649052122608856,-0.13954989350017483,0.04689614684686939,0.03538858480325422,-0.17236244765082254,-0.09049042873362956,-0.058093410170333294,-0.15290190058212305,0.130530988776008,-0.05115104937653686,0.0673109604039893,0.10019229398343482,0.03562538798418906,0.16946458758137697,0.1899670941241248,0.05653707340769313,-0.08116012847765249,-0.23442301656868647,0.04184699541997342,0.11607252939111973,-0.21109011999086777,0.13832266613860564,0.0023290737625043024,0.1504910323504307,0.02905393851189331,-0.12087771718903975,-0.12297011368007274,-0.15759253311759108,0.07293996917273136
0.03409142119548753,-0.07669791859648799,0.08720316333408376,0.1477388578724251,0.09479864240994836,0.04750706488812282,0.01742497961821492,0.03525541387646199,0.03637589586406879,0.14971306216703253,0.1064649186661711,-0.1779717747652851,0.02899523344881872,-0.10477958152507236,0.15143465444858326,0.11233116815864065,-0.0475688411816464,-0.02273181193730428,-0.15080891415324493,-0.004569195189984681,0.03897424206397565,0.14981689638467963,-0.17059189657572207,0.03897209908052823,0.030690475954596515,-0.0044410214446972745,0.050880002967149576,0.05098082480938421,0.03833496058774594,0.031088168493472866,0.03190449074381564,0.05552015694798705,0.14719153280883485,0.02402311356321028,0.028705073974713353,0.026811823743711192,-0.1571694527440283,0.03529896761780029,0.16550124388311643,0.1443187894591103
0.04288332513037251,-0.09552535154978577,0.18141794986824913,-0.10891241564055644,-0.17070408488860314,0.04639130713197248,0.11187123434643648,0.1844047882349728,0.1339544937029498,-0.1019355556136271,0.13470466587587626,0.11787865961308493,-0.049996916672247045,0.11819764014425597,0.1191863229836963,0.006093363329071805,0.03178664419799071,-0.019863295688159553,0.022802057529600434,-0.20212918582495118,0.10833077007686036,-0.002777236221146531,0.15518149711268514,-0.1473017088635277,0.11713699471682712,0.03932723296439191,-0.12349739274360198,0.12066011768340927,0.033351036807445,0.08837324772867525,0.084452632996529,0.033757339641459744,0.0063061851745749575,-0.0810267029851701,0.14575590217016635,-0.07200626366787027,0.02385641874316961,0.04085453241607844,0.042342586337837114,-0.06810516199914912
0.031923198481370506,0.018980901862648385,0.030316510713824203,0.1069179120661663,0.1489322810564718,0.15183196689110634,-0.005859259434649845,0.022435447621872023,0.03427227127216708,0.03135585724845293,0.14952856885175253,-0.09045765871856266,0.018780474138542644,0.044731315894722345,0.02171984839829578,-0.10459209360851791,0.10539820476587769,0.12165516841692055,-0.10376783191785968,0.10994217453221125,0.0020281444441485664,0.040847667268762315,-0.08890216272098865,0.1512102843957527,0.034283387526334363,-0.08274690896956105,0.025061152399136016,0.12088503660915563,0.15024547009195938,0.030464417822924545,0.15497349708716832,0.025892482513404484,0.027518284680141367,0.034903437224972286,0.11661315227268093,0.11522682118598798,0.11558758155631148,0.11751237024807619,0.0026521376067007614,0.12136617544003173
-0.29596555775091676,-0.07372783089047744,-0.07372783089047746,-0.07372783089047746,100.0,-0.07372783089047752,-0.0737278308904775,-0.07372783089047748,-0.07372783089047752,0.7092414957632465,100.0,-0.07372783089047744,0.5972298085766783,-0.07372783089047746,-0.07372783089047748,-0.0737278308904775,-0.0737278308904775,0.6809915352147173,100.0,-0.07372783089047744,100.0,0.37752840785651276,-0.07372783089047749,0.31667448608565885,0.2374120539757051,100.0,-0.06742811052557053,-0.0737278308904775,-0.07372783089047748,-0.07372783089047748,0.5348560887449071,100.0,-0.2058543158202712,-0.0737278308904775,-0.07372783089047748,-0.08155269093306183,-0.07372783089047744,-0.07372783089047752,-0.07372783089047752,-0.1621279501720694
-0.0737278308904775,100.0,-0.07372783089047744,-0.07372783089047748,100.0,-0.07372783089047746,-0.19371839518401232,100.0,100.0,-0.07372783089047746,-0.07372783089047748,0.12820488274290645,-0.07372783089047744,-0.23526084677641995,-0.07372783089047746,-0.0737278308904775,-0.07372783089047749,-0.44503850779115955,-0.11089742291563566,100.0,0.02648905382783135,-0.24210526780151229,0.01014707048039394,-0.07372783089047746,-0.0737278308904775,100.0,-0.07372783089047748,-0.07372783089047752,-0.0737278308904775,-0.07372783089047752,-0.21401858698366602,-0.07372783089047746,-0.0737278308904775,-0.07372783089047746,-0.07372783089047749,-0.07372783089047748,100.0,-0.07372783089047744,-0.07372783089047748,0.6391853135355893
-0.07372783089047748,0.7615066362907656,100.0,-0.07372783089047749,-0.26128944721969366,-0.27449134442791934,-0.07372783089047744,0.09357709940779523,100.0,100.0,-0.07372783089047742,100.0,0.6359568973787416,-0.0737278308904775,-0.07372783089047742,-0.07372783089047752,-0.07372783089047746,-0.4206088641472221,-0.07372783089047748,100.0,-0.0737278308904775,-0.07372783089047748,-0.0737278308904775,0.5738738545939092,-0.07372783089047748,0.6634616631522504,0.6585062675462597,100.0,-0.07372783089047749,-0.12736825046698969,-0.11496530016776699,-0.0737278308904775,100.0,100.0,-0.07372783089047748,100.0,0.6656242355021367,-0.07372783089047748,-0.07372783089047748,0.7629850870463779
100.0,-0.07372783089047748,-0.0737278308904775,-0.07372783089047752,-0.07372783089047744,-0.0737278308904775,100.0,-0.1395474644587508,100.0,-0.20224131593819691,0.4310999825570016,100.0,100.0,100.0,-0.07372783089047748,-0.33759212402884614,-0.07372783089047744,-0.11814440978638334,0.23464585593480333,100.0,0.7532260223297086,-0.15046342452114686,-0.1442550978501007,-0.07372783089047749,-0.0737278308904775,-0.07372783089047746,-0.0737278308904775,-0.0737278308904775,0.6467162049956107,0.15834338211898552,-0.07372783089047744,-0.32618387111942115,-0.07372783089047752,-0.07372783089047748,-0.07372783089047744,-0.07372783089047752,100.0,-0.0737278308904775,-0.07372783089047748,100.0
-0.07372783089047749,0.5134992175315819,-0.07372783089047744,0.3874180205835213,0.46430105547571643,0.5386703553684675,-0.07372783089047744,-0.07372783089047742,-0.07372783089047749,-0.07372783089047746,-0.07372783089047748,-0.19939465506521284,100.0,-0.33068172870724594,-0.07372783089047749,100.0,-0.07372783089047744,0.9793197089530623,-0.07372783089047746,-0.07372783089047752,-0.07372783089047749,-0.0737278308904775,0.7096962781023621,-0.17951175774736258,0.32350826678613764,-0.07372783089047752,-0.0737278308904775,-0.06059613436971322,-0.07372783089047748,-0.07372783089047748,-0.07372783089047746,0.8286155226873376,100.0,0.8462369970178436,-0.07372783089047744,0.04881531518533756,-0.0737278308904775,-0.07372783089047744,-0.07372783089047746,0.48423946371244997
0.04487080152096065,-0.1668285557094739,-0.05034961905323271,0.6891870736175555,0.03656493482173347,0.8028810747288836,0.0483291750076409,0.44363717487395177,-0.21647202161163123,0.3720314033773932,-0.10272608267612243,0.03038549955566031,0.5683539909574685,-0.264475421472254,0.6177911636255654,0.15916086323584766,-0.112419249701709,-0.16965500416713616,0.3252667348645464,0.15143782578196996,0.24967601325600744,0.12712561341567438,-0.1957761213702729,0.6604808491441031,-0.4530601747860042,-0.22577410044823315,0.2922018512556381,-0.17988819741024353,0.10917723674572694,-0.020455488880408528,0.004249370981126745,-0.0012543699593482076,0.7423625713346652,0.29233454360474614,-0.24401445928799118,-0.10703829008322621,-0.07865339714483702,0.18348284530691802,0.3311354782190162,-0.25759858447328093
-0.14055632317367148,0.48092839801070875,-0.09113338448818795,-0.39847129640947404,0.2793502204991702,-0.16204554962431308,-0.2153390161072622,-0.0760095967700636,0.21525597180943232,0.35687598829370687,0.02345520465901833,0.1368584803200409,0.4379979011153392,0.20937042268824652,0.3120335646829201,0.1403258776361891,0.2714763580733617,-0.07372783089047748,0.45653549739658994,0.4566041203434861,-0.003952444372215696,-0.3107090981690839,0.7302768898666824,0.043674174845180935,-0.14093641283191713,-0.02839672936009682,0.013638942140983603,0.039842546967529806,-0.25509779537295985,0.5262615107848413,-0.06003191387331078,-0.1606642882912928,-0.06701151219237107,0.0013586260684946077,0.5013734456952673,-0.10537628519234912,0.1312619450482553,-0.1509535999023384,-0.15079590687726765,0.06665182247054269
-0.09643057572229789,-0.16743012132704546,-0.16641712857289265,0.1914008760014523,-0.3097482963404646,0.18643121578748167,0.15410187642812945,-0.265460114835021,-0.20003438841552748,0.050798967273263135,-0.25428555823522503,0.39819825429108024,0.32014373064581814,0.40583924591244475,-0.2366830929706348,0.21979558363756777,0.20460787460504423,0.4153064366581116,0.035081367412503825,-0.1204386167742537,0.07245137141388797,0.07975299882413396,-0.12403630207955864,0.045531513779829905,0.0312984868499099,-0.10416460434067627,0.1944921814205517,-0.1185126091815487,0.33509820008947466,-0.27278376303194546,-0.05753462198061732,-0.30171003309853045,0.18537132268736595,-0.11253318606771286,0.20886072159065014,-0.11943640388559722,0.42508346704948924,-0.07372783089047746,-0.22201450031244682,-0.0385103851598042
-0.14167845843315982,0.12970915612938969,0.7593615537545887,-0.23474116070505446,0.11587979627039856,0.04956392301725256,-0.14282426706266677,0.9508902638531332,0.20168244331327204,-0.24805685134287955,-0.07372783089047748,-0.14065078303283657,-0.07372783089047746,0.715657965690134,0.7936883827135915,0.7894028128157361,-0.25660613887916683,0.5361906249355145,-0.09244913341267214,-0.15391643701516536,0.2320453959202518,0.22471608382833683,0.04863396717158082,0.2623886497943744,0.24109098065684545,-0.1876843789353711,0.4817153308782987,0.09244316708824829,0.23779100269375486,-0.18819328087450327,-0.2212595165381079,-0.17253843431132931,-0.07372783089047746,0.200984863755124,0.5549910164554663,0.13135930562358356,-0.07372783089047749,0.04438550825157661,-0.11374636026513307,0.607090359889272
-0.19761340768755903,0.04446729301324616,-0.03378158198162109,-0.30545107176906716,-0.1500593415465124,-0.19115058083422531,0.1257070591977511,-0.1788111114346383,-0.08055066263882162,-0.06066677691172592,0.0864245889632612,-0.3348468613771364,0.6317284051764366,0.12974991760528953,0.4670681792769148,-0.025162789913681195,-0.09596274411520922,-0.07029290273178217,-0.11028027834777644,-0.028678531328023844,0.055069010072654655,-0.19826685410596367,-0.22510378275917695,-0.10852230310943929,0.11566656994628421,-0.035931072455620446,0.2614215479222095,0.06642747380879944,-0.07372783089047748,-0.07424779597052815,-0.12618072980184855,-0.1603140842643385,0.18342208181333142,0.22942653569522467,0.10192984594316354,-0.02881347077257279,-0.24465745721416077,0.0429951435372865,-0.18244238543758798,-0.07308182485655307
-0.14411258058202395,0.12766477841546156,-0.06379186138812241,-0.08334494542139526,-0.05526488877634602,-0.09339627175002195,0.1336613522435151,-0.1376164880903046,0.12959870400367135,0.23937996235957584,0.1227400421237929,-0.08711567777531828,-0.06606127727676397,0.11488033343527826,0.2939194980111372,-0.1832153969547227,-0.08956829208988551,0.13195044363178213,0.05181616482327011,-0.09620493229291732,-0.11578969899435144,-0.014622540660025432,0.12137598942268234,-0.02334254882475984,0.04852554231876137,0.11827197000662458,-0.108714468640577,0.11510986460076207,0.06667756629353055,0.006525979062345848,-0.08520699969419022,-0.12741555313714356,0.24369326195651025,0.20530476635676242,0.04351250611599763,-0.13895810309048406,-0.16179607249651767,0.1953550314054228,-0.15457912258262507,0.008211887862080167
-0.049549967536674545,-0.10273133808124203,-0.05687562515451751,-0.14788146196651902,-0.14133705933804827,-0.05350773942916765,-0.11021851757055669,0.46486634543888883,-0.09398165636043646,-0.10889905235428454,0.16744218655641815,-0.03466203364693744,0.21154091529358363,-0.1961656915873467,0.4494509696947994,0.11049518099892622,0.13194562961319015,0.026933971290415408,-0.13363094689985264,0.11543896676610775,-0.10926104598228373,-0.17259012516351446,0.022903776157051785,-0.16102097862008966,-0.1129325408096406,-0.0018716641725739782,0.046925882381701214,-0.13843398506841453,-0.12150370041966434,-0.19285845274825608,-0.08402884992882047,0.022067937553016965,0.3896547919876122,0.04526259110421232,-0.10151966074123497,-0.10285908602602155,-0.03295239628842293,0.029357920032486804,0.11399412831637619,-0.11024576906771232
0.012396815316869479,-0.09211916813581254,-0.15198499444134383,0.027703337802219154,0.02783110035642265,0.10785527608563948,-0.10499762710274184,-0.09006570033785083,0.09535532404744539,0.17478758881831766,-0.114485537031641,-0.03496028866845661,0.12872945147234888,-0.06885060389165959,-0.1689122970392156,0.05874627733864367,0.09620495097977116,0.05551022245034721,-0.1521550113378976,0.05275527687924951,-0.014820657561935386,-0.11847038752350307,0.03468915905279705,-0.15305941937819223,-0.13144858114151695,-0.09252009857264702,0.02416792886336441,0.13174653243601367,0.12899421809720238,-0.18706128885875117,0.11144712627704216,0.1389958454936974,-0.1542423629326034,0.013152459313635649,-0.14694245474933426,-0.06504921747883137,-0.0698688729650258,-0.14770985961308283,0.046847760184744354,-0.06318833222704451
