ChristianCella/workcell_optimization/results/data/hole2/cma_es_ikflow/complete_beta_trend_wide.csv
piece1_joint1,piece2_joint1,piece3_joint1,piece4_joint1,piece5_joint1,piece6_joint1,piece7_joint1,piece8_joint1,piece9_joint1,piece10_joint1,piece11_joint1,piece12_joint1,piece13_joint1,piece14_joint1,piece15_joint1,piece16_joint1,piece17_joint1,piece18_joint1,piece19_joint1,piece20_joint1,piece21_joint1,piece22_joint1,piece23_joint1,piece24_joint1,piece25_joint1,piece26_joint1,piece27_joint1,piece28_joint1,piece29_joint1,piece30_joint1,piece31_joint1,piece32_joint1,piece33_joint1,piece34_joint1,piece35_joint1,piece36_joint1,piece37_joint1,piece38_joint1,piece39_joint1,piece40_joint1
-0.06878962777527357,-0.10715177499360734,-0.2003445219909183,-0.07372783089047735,0.37916646793305797,-0.07372783089047735,-0.07372783089047735,-0.07372783089047745,-0.07372783089047745,-0.16735187301206758,-0.11713327343522953,-0.07372783089047746,0.12396822857948042,-0.23067564574061009,-0.07372783089047755,-0.07372783089047755,0.2943901923704567,0.7418370973408834,-0.07372783089047737,-0.07372783089047735,-0.07372783089047746,100.0,-0.07372783089047735,-0.07372783089047745,-0.07372783089047746,-0.07372783089047745,-0.07372783089047746,-0.07372783089047735,-0.07372783089047745,0.039088756355000094,-0.11516125934318344,0.018662158731713528,-0.07372783089047753,0.33153179719468334,0.6382522973582372,0.10407690125478876,0.07078541412809035,-0.07372783089047745,-0.07372783089047745,-0.07372783089047746
-0.07372783089047746,-0.07372783089047755,0.08437049605725286,-0.07372783089047755,-0.08743520283127798,0.45352619389868964,-0.14621462545840372,-0.07372783089047745,0.005133348840847887,-0.03618082915584975,0.013051922937137028,-0.07372783089047737,0.019137062845076856,-0.10592058857287152,-0.11863550776019818,-0.2650451761439496,-0.07372783089047737,0.3410675226943405,-0.07372783089047746,0.0010559164358981926,-0.07372783089047737,-0.07372783089047753,0.00545167244288252,0.5625947423029412,-0.07372783089047746,0.01424403435414165,-0.13008058828619717,-0.07372783089047746,-0.07372783089047737,-0.1031623007538419,-0.07372783089047745,0.03671612116087688,-0.07372783089047745,-0.0989499721153507,-0.07372783089047737,-0.18653813195347518,-0.08146079498964298,0.038055696181655795,0.455519230627266,-0.12977072746171214
-0.08617421616089968,-0.1303549817040495,-0.06445726458122356,-0.17463131993349512,-0.10160564085697342,0.4986589295226502,-0.14178663893969964,-0.07372783089047746,-0.07372783089047745,0.15883944435969663,0.42012523610659197,0.12038424149717676,-0.053665994864328485,0.5526118321469563,0.37482463896828766,-0.3723981647810457,-0.07372783089047746,-0.24533621381828094,0.49153758655610125,0.06081595688171413,-0.10556318545042874,0.03397463973758386,0.3972705347581165,-0.08477683388287063,-0.16548403049730825,100.0,0.12117760355102014,0.13037617419244496,-0.07372783089047737,-0.16396108430589343,0.4588573242317494,100.0,-0.07372783089047737,-0.07372783089047745,-0.10271700498812747,0.006164852137829274,-0.20634833779299874,-0.07372783089047746,0.22899547605801737,-0.07372783089047745
-0.07372783089047755,-0.07372783089047746,-0.06283150844805743,-0.11962564910213605,-0.1634190543778867,0.017899929739003874,0.0855576607660974,-0.10847193484356894,-0.09053049511167802,-0.007161015398024696,-0.15676262426611648,-0.0746468420926159,-0.15684718836394376,0.5160055344521969,-0.08242847360276165,0.16128156394625712,0.05844724678956213,0.5650372723482632,-0.07372783089047745,-0.23524269717512652,0.03570631874393644,0.030994866424678157,-0.09421525429662812,0.5431497051561464,0.24814715864508502,-0.15828347171117166,-0.15374477300134048,-0.12917290153553065,-0.04178003667630113,-0.083020141236654,-0.09066462175041856,0.05950535041847648,-0.21263856126000055,0.5260151423244334,0.14668581182519277,0.32323720290035574,0.034310169544689004,0.5426261583764287,-0.08674319603033868,-0.015641469462452005
0.2293566447933132,-0.05437570120487942,0.5202363045410907,0.3252918525480802,0.1751870771696485,-0.17537559767672592,0.5532386427680963,0.12815790259867063,-0.13917784864899152,-0.20040773217906355,-0.04926628988069281,-0.20554892923060278,-0.0908210517889553,-0.16043964326593535,0.02072112831442684,0.4373867405228763,-0.11023734060746099,-0.15457551779701903,0.4887820267691915,-0.10446978675684078,-0.23034012029036857,-0.1520096867575646,0.08410019216222467,-0.10467428679610608,0.07804412737559298,-0.06581770963730459,0.3517038817468059,0.07750603297121766,-0.12172321805926709,0.06242756794578886,0.5056533034922048,0.337781296537059,0.40422623730903373,0.012976380888522925,0.4937796349303424,0.4920667409530977,-0.08678185079759257,0.31833126920841104,-0.13480896358004787,-0.03148615705779368
-0.17687234176986008,-0.1347369541549868,-0.1653192798465293,-0.09629593089581201,0.013343342606801978,-0.0581256812610858,0.11919455711087724,-0.23969238292488534,-0.12225560509711966,0.04329655803945026,0.251098598872719,-0.08426479259243204,0.029131116432794504,-0.10446033876018748,0.13889928733077325,0.18379666273098383,-0.24551820834853283,-0.008245641177846952,-0.09893889552316382,0.04874557262846754,-0.14829497576382078,-0.07117330817971947,-0.10454102686212138,0.2581913993085401,-0.0684157526945201,0.04637785662033968,-0.19410683803473805,0.1890943843900249,0.09679973551046382,-0.18981058806339288,0.48871253189932695,-0.14533977977967064,-0.1419399696657385,-0.0876041492503124,0.07525653560055065,0.3908198225010166,-0.05016451837958065,-0.15887161730273391,0.12908065576328992,0.4331665930844099
0.27249652770077576,0.4101577740456931,0.11110980848268903,0.1281325136158854,-0.18682760776768756,0.13821576908271832,0.05532351086606629,0.01107913513177348,-0.030143859567026417,0.10785357657896623,0.14223440774636706,-0.205581547944921,-0.05790590794794664,0.5915993209824632,0.21710973698938227,0.1378957647468216,-0.046545563128414895,0.10311044485164428,0.45456017148959915,0.03934505897333878,-0.11220020382398768,-0.07180110130956659,0.010072983983412484,-0.1019133066254681,0.4715477053085474,-0.09743352898642674,-0.09977249051994865,-0.18037362197664086,-0.11721367725717785,-0.06683834848797798,-0.025335685719567423,0.14452445222842114,0.5444896117628464,-0.009057548853036994,0.19030447583624932,0.10329539264306334,-0.10896703543850403,-0.06175625895806455,-0.1266286126674372,-0.00685335669255179
0.12418734373834589,0.0471289377065139,0.12783057118291047,0.23695224320383892,0.10966470331848892,-0.1566547965857221,0.02280696876536986,-0.09937573082412512,0.03874831272858225,-0.06383688763819761,-0.0626163313703644,0.15339917681159798,-0.013532552560528708,0.13804326456310742,-0.10041941673895441,0.07099143025001546,0.020753199760274035,-0.030923661699082505,0.34095816632018083,-0.10740701017025149,-0.09246562609105387,-0.1659516290728274,0.30732029465731237,0.3573165379782036,0.10644305360411667,0.12407863959370706,0.031506070737561,0.055791170595734074,0.0468751818815877,0.11195182896622255,0.1002924584795055,-0.09984927509302081,-0.20432777979222155,0.0033708489445529143,-0.0899097683849165,0.0021054732285108774,0.12637792220426952,0.5633974601807612,0.1885453118397364,-0.05126825366107869
0.05444791822978043,0.020357067286950265,0.3596832012356624,0.0032771185960877754,0.08111548558841995,-0.11527438732126034,-0.12321225691196197,0.20455776081242144,0.04462472355008448,0.16926347309088405,-0.0011872253568547082,0.1379510663883794,0.14209417060723384,0.11151329960541449,-0.1032099797810078,-0.15097734734896323,0.05493633385916325,0.08477887427718248,0.005772522863767093,0.13675176581394005,0.02461863000194733,-0.09405579051993238,-0.08522713556672046,-0.03871016595813534,0.001617575981355545,0.1888605745543571,0.009888861459467364,-0.19180498194152318,0.2448592474098993,0.04252500260758403,0.0016101006834630049,-0.06020960736694477,0.11791796371309507,0.11585639505824757,0.009002912072284958,-0.06618611284871416,-0.08087840913001301,0.04699804011018782,-0.054270796417919064,0.18435177622806945
0.035703344275530596,0.11623557912654055,0.008529275031737137,0.03805561572131774,0.1318382890783979,0.11428748303820171,0.13683729394038227,0.11892006644925707,0.047691205488328996,-0.013433818575238139,0.0031501252696281377,0.035575873764366224,0.12281940916700294,0.010841920858238431,0.04811603454381248,0.001774959887375238,0.11338021707537632,0.0452814466300434,0.047620402660468596,0.05105418849704122,0.04772659278378137,0.13670375114508976,0.16261371012427905,0.13233402612544207,0.11547124397297034,0.1231565105208349,0.08868001145331515,0.041915367020744936,0.016405566363398023,0.035469714604632455,0.060037629967150875,0.03603855834929107,0.17752948607879715,0.05478259832863153,0.03621474444765104,0.03476150554752925,0.14915201434862338,0.02831619209908845,0.031693177683187454,-0.05521835779606632
0.13135241601895523,0.041906667978394624,0.04920973728499684,0.05506310762767858,0.04201548397918507,0.12514360156894183,0.12522474473303194,0.05391145740825088,0.04166810786995042,0.042319206484957225,0.037555182961103176,-0.057446488215130806,0.05133620405810201,0.09889758116026869,0.12143751983913047,0.05175852303131469,0.03734043888035495,0.03297454913570637,0.11265035091812012,-0.005043684057493309,0.044871811155829805,0.1224140945721711,0.12523758681767488,0.10553908031441156,0.07571029798044321,0.14248496409650543,0.026034757125014348,0.049122593698402016,0.05107844652528538,0.05860870840360331,0.0525355080640095,-0.0004794627229945756,0.0039438812934018625,-0.0633899660203568,0.047678330991748834,0.043247594163071515,-0.04883230423615888,0.09725721151389462,0.2989303246507212,-0.0032441665173670708
0.07726205881321427,0.03281492281482227,0.03346943785776184,0.04552341338873936,0.0413794656730294,0.0690944138259238,0.09715048640134495,0.0855214331277798,-0.02851340435778487,0.03649169166494956,0.047792161734785295,0.03978579641422435,-0.00349262515969894,0.13405433090836413,0.04013562953738146,0.11269936738364907,0.050445706995888,0.1290607809163316,0.04458100768575898,-0.05196768938950116,0.1312923193287102,0.049973119031918034,0.04018434107171617,0.013092134974336435,-0.04602669652056264,0.11702510657428693,0.05567158532891764,0.12204309712443939,-0.04937764198482824,0.1304897044259284,-0.06149240156053837,0.04846855012312892,0.09221338098680228,0.1180243477104546,-0.05667396948292647,0.010562158480441248,0.11592597053987544,0.053740762734824477,-1.3486045467353894e-05,0.11317681350621657
0.032226006073147156,0.27731475150469265,0.03869641609553802,0.038385488732159176,0.03359505794699808,0.05493345571767944,0.09244084582292565,0.005712293108397436,0.043180787279329856,0.005482608520494424,0.0664556211871553,0.053374606741345525,0.06698699726135626,0.11671959871195936,0.009660494833356154,-0.0027161951589138415,0.04289673045976754,0.026537574679548852,-0.008665500169200667,0.04949897855965314,0.016759385036490524,0.0367879735647647,0.0014540225234139265,0.04693897332467847,0.04145581046960794,0.03348968860941918,0.056206728759768496,0.0329890594688647,0.0039734674139068876,-0.004239851333197745,0.055258694094548096,0.04129669731768619,0.039138840855308374,-0.04931255361878376,-0.0039346966411174964,0.12496734344810322,0.13382417453571857,0.010858678033565224,0.04423682004804478,0.03684809903364575
0.04638799385271526,0.26364828601654633,0.07167579073776043,-0.0006058552745271464,0.07170067388933091,0.12543999843737252,-0.028901089204991535,0.12879164015762834,0.05501379378489501,0.049743052382675464,0.048220118808542066,0.06314361761104545,0.021086239776169483,0.04222025827219265,0.04269891365292798,0.04368044048432437,0.06119337069826608,0.12294826737104725,0.055159037776994775,0.011238090212859833,-0.0025998612103281327,0.04705363686760854,0.12086730253854003,0.04754335149548737,0.07685509916176883,0.06652306647377476,0.06925444296845884,0.037535774367979384,0.04066047020093077,0.07161875027440047,0.047300189183112074,0.025902674007370143,0.11636143976159707,0.041489942900875536,0.06138902135435363,0.08874231060015964,0.04689239665288032,0.12363073236415455,0.047054620497074734,0.04595537531920692
0.019140230947061236,0.11210047335257235,0.042431472641095154,0.1129045111975209,0.14314591589129524,-0.0014181002977585247,0.11743043375628016,0.1468593637310727,0.014195360645685875,0.010928526817948496,0.050432088727007905,0.03964037790954627,0.04685377655137175,0.01566208147695117,0.09365672012346225,0.04851621158506792,0.04464384416815584,0.0706824846022569,0.0027699457291301462,0.15171263858836173,0.02485006372876287,-0.014139503387217985,0.049938707964757655,0.049532212239145036,-0.004666480529751481,0.12748149506005202,0.17967079344727574,0.11484152166773177,0.008485039811289256,0.11027189231841837,0.04321078635785969,0.044103537327778976,0.0690508578130045,0.008084253731307549,-0.005559890724150629,0.04822716589436792,0.0008326692313505328,0.0038804819225063333,0.06628447966235643,0.13285896596885277
0.0016118101573279783,0.13054193781046528,0.01457035851128335,0.06595009830711554,0.030774972965923592,0.014142184652716308,0.009671360687640204,0.015327264474202159,0.025550531301031174,0.11743278371041033,0.12053244536828418,0.01644279301626508,0.010491336077597288,0.12363735596036989,0.044791122610459706,-0.00045456149370969295,-0.002077760214932116,0.04297313670187811,0.00709606705174469,0.038519693741003336,0.013479127644674464,0.12475061689229608,0.13573612150226172,0.1149239202312136,0.019540609285837,0.0610760265140943,0.010188769216082518,0.12382512520583754,0.11456027718754976,0.12367176144404335,0.0020341230271941338,0.0556724345038739,0.11358215901080074,0.11714715821075768,0.12493118094641663,0.00040134355533382365,0.12936851200078298,0.11889629273490963,0.11320230187493704,0.11298738682896474
-0.07044436816745216,0.1218059012202846,0.0678347067247183,0.11718143189672582,0.003908999632334748,0.011238426160179357,0.002794494623504017,0.01938335840420991,0.016525522023622036,-0.07819773086961229,0.0028713825493389845,0.11533650606282723,0.06606737402202024,0.03521577288484621,0.09391440658665678,0.05901934558225247,0.011381452127053736,-0.07910824592266796,-0.04859962217527691,-0.011171484273035218,-0.011489955303809573,-0.0008184832688005214,0.04703869043826993,0.03783693785862681,0.03291796686971218,-0.0038734023299169173,0.011093458458891047,0.04681218514769267,0.012677010015491071,0.07494581505091136,-0.004127693118814789,0.11632561211323074,0.016995566806342205,0.041450399809174365,0.014391565390255868,0.0812058602426064,0.016279535172278883,0.0034922955089905137,0.11120300490160383,0.12993780873969984
0.07101733455012738,0.056599914946475594,0.0091036019597707,0.1144513896797556,0.013772585849846652,0.01713492168764626,0.074398515114697,0.11352119386623429,0.004104220015502708,0.027988109032407938,0.006572827425514603,0.010237860900045607,0.06720643797097045,0.03969968145718051,-0.07337190910170274,0.00679850916614391,0.035567748767794054,0.11811252071677354,0.00810246256052266,0.009104644115447664,0.11123303881801984,0.07172653340081235,0.09467992429142123,0.016143436042466305,0.06943369155137967,0.01651009670652422,0.0066965394188593695,0.002810113442022386,0.02135258058842375,0.11521535722974786,0.024332870119963067,0.11265302406542455,0.04573136209067296,0.009748821971786262,0.0744193146305742,0.1238300145316215,0.020897212266001344,0.12059605883874827,0.08559264393606157,0.1329169982312521
0.008023939472826846,0.12295135845057756,0.00496578385952097,0.0624388190671623,0.1356982296858944,0.14058722372676585,0.12687785283615863,0.11423621938530419,0.06399827778764205,0.01808642591355368,0.0019460341947265805,0.010473182225441465,0.09196187741085936,0.014341242590258317,0.004329775690509404,0.07908872536145618,0.11830302057018607,0.11881596612301891,0.02492223904176847,0.07175721341527513,0.01554187020527651,0.1156964097436712,0.01659241716621432,0.12433440397735657,0.01920585960079476,0.0032557611549186016,0.043566973023669776,0.06926563946377036,0.003046588586004491,0.07420274169658231,0.1128626910083744,0.12424379634569065,0.010557156346078705,0.01937808581795011,0.11610056304644878,0.03903531187103672,0.12118069502671817,0.006292001242409841,0.003995316748366808,-0.00015490058407325452
0.01180829848823995,0.013879089801652573,0.15130796547596745,0.016983727235732004,0.07780062009735433,0.041279855059751916,0.01655680589524499,0.07449541227183147,0.11907582536953852,0.0338123786990367,0.07294627778591854,0.06336004869244954,0.021045415521910606,0.010658069069065832,0.1226433456328272,0.00810506749623884,0.02634377955985802,0.01144553994600013,0.0048598478745361245,0.11731289097727338,0.059872027553433446,0.11588711026341757,0.12853243565642097,0.004293898040207817,0.08597964946068853,0.007491238643206334,0.012589336519751276,0.007014507157135872,0.025592824434549823,0.12788024804964304,0.0054685509958452725,0.016534887013791515,0.010694537811571776,0.13310235343001933,0.007937647698936822,0.006095977457982419,0.01430042104649542,0.016009735222554045,0.07849128021654748,0.11422549300429753
0.11979791263600226,0.009349818558793905,0.023363228226311157,0.01302309819109865,-0.004839785253820322,0.01864456121534299,0.0034772687120080106,0.015588892949719386,0.017378800752794712,0.0691467252277218,8.432929253316323e-05,0.02235924588873916,0.0156846561784974,0.07055174542547506,0.01185728583367748,0.007430419443132769,0.0021916835839129152,0.007063471155639909,0.11705818423087289,0.0037717255493611994,0.020185507620360574,0.008936954932584812,0.003834168185595299,0.013990483551337396,0.0012064087770177478,0.08175559851340658,0.009182423046987334,0.07952825782806759,0.004746187295760311,0.007091740708130176,0.007426637238506968,0.03161509062394287,0.006098680217922229,0.015584902842450468,0.0008845480758980047,0.11988575709959481,0.06444019816507683,0.014596886024786444,0.010304636240201994,0.06595515394073953
0.020811719307017293,0.010186188018158841,-0.0006114877841319377,0.07068822785713892,0.007989218369647397,0.007120667400911972,0.007187256144930881,0.004911174642335347,0.013693350052381922,0.0039798856528429575,0.010849970723290941,0.00817271108550412,0.016587137367357358,0.010395280152243148,0.01996342488687939,0.01803727675881113,0.07467779961270357,0.01923410776070779,0.12859349713909948,0.002814512302678203,0.01430153169937924,0.008409901889405427,0.011826900013112845,0.018305568374822823,0.012839037104728241,0.009000872420982417,0.010517919349567561,0.021394653276021868,0.00643023059984261,0.010636314659567537,0.009782566127506645,0.007734878801985383,0.006001603245981964,0.001274763201003442,0.0027288872958520544,-0.0020234549407000574,0.006493843482811511,0.08030479399344276,0.0011183474786800932,-0.0014918385059693295
0.007419897696474539,0.006110710727794081,0.004435869869813693,0.08593571544997079,0.004984691585187594,0.12351290848273153,0.012553126463564842,0.02030832142820472,0.0038960936519366815,0.0007251362534863937,-0.0022875920852086853,0.00797615558764524,0.02350777115702607,-0.004844765220795785,0.0028423169184050995,0.015937285924553648,0.06846111792482532,0.012633151086120616,0.12345023307685168,0.11647485341624188,0.015121829804113744,-0.0011950325109680825,0.0096853514132205,0.1210186458557715,0.007310176235465672,0.004093165288857041,0.015143422740185227,0.009073626426119294,0.11794360319480715,0.1213273003178186,0.002894017652649594,0.06943904570241269,0.006341361034129112,0.006236266624650091,0.013117985277864007,0.016893512729324114,0.010073199894396432,0.011507909555585909,0.07658224703966998,0.009994665496466094
0.007246608401055448,0.008827834553833774,0.0035898995035539625,0.02927397452133218,0.005590614774527462,0.12193402637369641,0.12401157108969961,0.007756684141766209,0.002594767235197199,0.12147250611326946,0.058563394567217875,0.06618589732148784,0.0010929056628283197,0.011191881573690736,0.006274161523296694,0.12128515834073743,-0.0011576513864746778,0.011340158213280641,0.13014393856588036,0.00681451797898147,0.004537750216283646,0.12346596301878648,0.01168674621243679,-0.0016195659630708588,0.004527329051239728,0.010683737254039738,0.12221200524008281,0.07159160021630218,0.000977851358454018,0.007655470790040876,0.1226556660233074,0.006689621119945583,-0.0013078227756330046,0.010450550955307775,0.0031592144998190868,0.11765038765452722,0.06772535153937902,0.01395610495839885,0.011708228483698721,0.005358110607923892
0.00890671640362205,0.0051830968054723415,0.08742995977176979,0.006724424689663392,0.00012613220452681296,0.010607331109479189,0.07025401904701681,0.12067184643454623,0.12351086843688862,0.005764915192122761,0.011955154244358732,0.005465620452824562,-0.0011204998053002799,0.006439772187324024,0.11694862337108108,0.06850021253672697,0.006423184548210785,0.044720542619671226,0.00561697853862963,0.005308168700321876,0.00921497276451524,0.002204254767098846,0.025837485815847158,0.06444800855836308,0.12565206726391762,0.010511396734088982,0.004109401737087472,0.12083476050911164,0.008735713425963972,0.004161304489480824,0.004697448492879358,0.00955321642807688,0.005252114429290909,0.12097548960723066,0.12569508123921658,0.009417443932994382,0.009801305402495072,0.008196672282734765,0.004268103698792155,0.0067550213810057425
0.11880753165251406,0.0069999678871696955,0.11991466819033596,0.11714903907721053,0.1204304925085935,0.005478254288037261,0.06102417594595543,0.011108054604792427,0.12060115416413339,0.00218754911381558,0.010066107312914555,0.004404648380013356,0.12331711926504525,0.05976330482598269,0.12206116318507677,0.0054291909406862324,0.007677335548548648,0.00944300744155115,0.009780332959921883,0.0900500577900428,0.017482189276149897,-0.0007717590536056997,0.06719010246851041,0.0044968994439039105,0.009306717231957298,0.004681832432457582,0.007042432101424824,0.002458303926822185,0.12077879757342348,0.06702180667292239,0.003893443709204372,0.010295182385151865,0.0019112794375806955,0.011428068386020748,0.0071451609244752405,0.12114240844466652,-0.0007080107623625095,0.06380363981305712,0.003867918740827952,0.11841203378487528
0.06219366380840483,0.0017173186523851917,0.0023585005837448267,0.01145726766593785,0.0067908808023198,0.007637904183291733,0.006569131941557481,-0.004256088978301291,0.009597788865369898,0.008598712677607838,0.01304661365251219,0.006670212058020153,-0.003936578582461379,0.0065972127953402735,0.00558187511840423,0.12157129670760605,0.007139622564510977,0.00494819029450932,0.005678225228087024,-0.0025199646537653526,0.12051174762797137,0.0674217389146957,0.008974994651818922,0.01062099072827355,0.06523543020482474,0.12323039811101921,0.008682023362713509,0.002030537117558492,0.07033964603266905,0.005237755112693566,0.0033198003352513062,0.0099139090699834,-0.0015856730338384595,0.0023951395637361803,0.12198397582240322,0.11905368438211272,-0.00054361768753002,-1.0787244798792592e-05,0.008404605597664167,0.009922260894110812
0.006516844841810607,0.05841160368045622,0.11262366961509637,0.0063705487754445,0.06757848294867495,0.0015889091419831172,0.0011561628202257862,0.007856319872364346,0.005349879901639376,0.12182764380847645,0.010432804951988716,0.0034031444047831058,0.0074046238445140185,0.007293480025044922,0.11400041984915198,0.11998095860569356,0.12155208923637507,0.0031131436716721954,0.00368203658569956,0.07264990731928003,0.12287329159976822,0.11537033429808745,-0.005623301638855156,0.11734829928743341,0.007356947538074245,0.1189644778007787,-0.0016182640350629984,0.1267725268197507,0.0026957274098438873,-0.0022351764393840354,0.12154491625725282,0.12149550545822227,0.002804448699276462,-0.0048403678257870454,0.017856356909964337,0.0014912346353835812,0.005804712656291949,0.0030661275318354777,0.12353028332314833,0.005528062788825762
0.045473558298369576,0.119571701340945,0.0011531383550299982,0.003815824619186485,0.12218461731246767,-0.003646050895345573,0.11530128200234413,0.017504929640704322,0.002478179935566164,0.11921825449578749,0.006374201063104945,0.12310878422167154,0.11982943897542137,0.06803214683357137,0.11789154446739769,0.12169553160986457,0.1197405311131307,0.11537434408353651,0.06219728248192912,0.11476811588165341,0.12329808475154029,0.11902090811851936,0.0061470774636294655,-0.001063797005020342,0.009402642757818151,0.11872731330095884,0.120131250148918,0.1164372329990027,0.003954908550900302,0.118108530911218,0.005047810212025081,0.12235444023363701,0.0019043099910852012,0.0017299290114015653,-0.004282685793604446,0.003163953450823962,-0.002814241542692749,0.11612979312165636,-0.001953821886981408,0.006142875690968875
0.11605463234501452,0.11792641553323796,0.11842465476705445,0.004533661139921078,0.12019189963205916,0.00610859024606771,0.12633277095980516,0.00010824060293859008,0.003574283835575019,0.0012391831629041613,0.006147221981431818,0.004291202129833433,0.007408891071999254,0.0026058728951361427,0.0016353554334376454,-0.0036870456793323732,0.00383921291703758,-0.001956137276209275,0.07206353724502775,0.06629342747313635,-0.0009605597854685009,0.005128106784161821,0.014117150539281795,0.058431157708202196,0.002695954419178971,0.12013689772974316,0.11570388054620578,0.12137969489245529,0.11560358982954212,0.07333619472105873,0.0661702548301197,0.0007188669702890007,0.05893620868797027,0.007182657432284875,0.11535569463665851,0.11575315594177343,0.06878975991820525,0.004412749560813361,0.11980145212452116,0.11895847232283303
0.004514712894575456,0.12180444358889704,0.004646354912143688,0.1221267581419644,0.1226845979455045,0.12283460470234804,-0.0011354861032875124,-0.0038726614825129895,-0.0005182775656067618,0.0023362002914368487,0.12066079302030615,0.04013589422362484,0.0668064155702271,0.010156014950598093,0.12097775434062726,-0.003971659175722118,0.12154671116004734,0.06617944955416934,0.08361833780673242,-0.002627075535979765,0.0010222271279924375,0.0016910179642902973,0.0015883392568821506,0.12091959271086293,-0.0036795756082280127,0.0015010614550071246,0.12262471421295572,0.06343810174477892,0.12308333291250734,0.12382463380901536,0.12096898816961157,0.06447413380861591,0.11798285903764681,-0.0005629732423781393,-0.00016927448806571942,0.0003040264515818202,0.11645890630791449,0.12332789718939545,0.005963525355472306,0.06186334296420587
0.11916547390431562,0.11810428965081504,0.0035270855536698857,0.12316426740630103,0.0007410602480477379,0.11432476718896369,-0.0013783415744320396,0.009191913825917337,0.07341887811535851,0.11663818129861946,0.0017508508163534442,-0.004319970771920185,0.12081285223531639,0.11940914448684888,0.07174213256360329,-0.0009008993312587766,0.12219565006195052,0.12100570970665446,0.11646976553834003,0.11789388693982474,0.11760168446056596,0.11790175058707734,0.11901171466944285,-0.00811824169091667,0.004754225018257359,0.0029109636940949316,-0.0026545285879177078,0.011541436828830649,0.12175635721667141,0.005586662939762244,0.0033966882431518877,0.006121069196303805,0.11901186851658609,0.12762258161447165,-0.002475892983174406,-0.0004254909953239927,0.11771983110004998,0.07010836134533692,0.11743953246678702,-0.0011881545107178687
0.11402580988269413,0.004236142699188703,0.0044132738362858215,0.06258204882997431,0.004446085876930533,0.12007690900421271,0.06822308184708983,0.11936813073431933,0.11799686059390617,0.008068538642265507,0.11823919111635148,0.11957936930491166,0.1212889931394011,0.1173818085275761,0.07533849541910947,-0.002139695960091311,0.0033718758652029977,-0.0022323633642128355,0.0015890930603126923,0.12176833333518287,0.01202737841135153,0.11592068390259441,0.005795592411751168,0.06259333442053365,0.11814324110214143,0.12028222891177283,0.0003912898871326639,0.002715768304332969,0.0002773759593445336,0.002639951976667457,0.11913700546978609,-0.0017105084209879274,0.11939157819995823,0.007076860823527434,0.11869610595069746,-0.0017203796823120811,0.11783219370912328,0.0002173440112920272,0.002324611873703044,0.06705397975294407
0.0125398159449946,0.00674159585298184,0.11720105578505029,0.12175800428096369,0.06880618449498417,-0.002212180729956546,0.07502170989105196,0.11800056140655003,0.11965088524050234,0.11985262939570067,0.11871188983216638,0.0015197461999441192,-0.00069574290912704,0.06906939978529084,0.0014959817834265007,0.12019687738484969,0.12289149763402414,0.11852946670639722,0.11771810007417718,0.11964036937071772,-4.848970889795815e-05,0.007360099103548118,0.0011859242179830271,0.06234853873255888,0.12255723616154426,0.11857444157043569,0.0701089679556085,-0.0023698816112682586,0.06429860194559264,-0.004363485299458038,-0.004256658081987208,0.11999933697334368,0.1206669921285677,0.12305785895967504,0.004021385546760069,-0.0017728716252753886,0.0050130129481732125,0.005867704310726778,0.12123145455738854,0.0031952184837990903
0.1211134377159843,0.06883568730267314,0.0024610196446299758,-0.0015846569129873008,0.11992939696497963,0.0006711885310797578,0.006874142603304681,0.0033929972092454656,0.006774378301014631,0.11807612785938568,0.0015308657282330092,0.0019434551179200485,-0.00038572333431028045,0.12077094279944323,0.11806974663959366,0.11989442021711427,0.12384756764487062,-0.003591931728657498,0.11760296081562574,0.0019029432552007365,0.0024145051035143997,0.120780537017343,0.11541026464871558,-4.021830263928478e-05,0.12096272900521227,0.0033712147383449676,0.005951771288698404,-0.0001902516495287881,0.11628773606361269,0.000198169340409516,0.1185505928795669,-0.001133793154813974,-0.00066426004046379,0.11872384943221345,0.006004128377068587,0.0007350902000343024,0.1225703998776275,0.005392434066287338,0.11733979100768147,0.11939086508979933
0.00012221160003037977,0.006850614231242026,0.11922146711292325,0.006009907696037276,0.12086950895369,0.12353195859631637,0.11804831005917739,0.12020904316923274,0.12116529589727536,-0.0016623883477640178,0.0027328238109711207,0.08589572410767382,0.12035335122068273,-0.0034523511459918247,0.11859353217878654,0.004034413478075916,0.119834872259947,0.004789581609245639,0.12231142581630366,0.06757088713180757,0.0016102742245217452,-0.0014879629139535689,0.0009940743970972771,-0.001430728446755246,0.066264025004599,-2.8849565713125797e-05,0.00640511052563942,0.07227051636394025,0.11937856393869227,0.006448917300890213,-0.00022402783088783452,0.006948576350978362,0.006483412526776707,0.0002982737229945127,-0.00024126199932848373,0.12171662212017594,0.12075831194954331,-0.00038665104811199335,0.009755069007136173,0.12340993351722464
0.002529099554700743,0.061553325945506,0.014090755675636635,0.0008772983688353054,0.0025751440210409265,0.12298711920666279,0.004051419814954433,0.0010979075421246693,0.011961125460266482,0.12230355620201498,0.12266113169966755,0.00028745346993706595,0.1214359913801682,0.006309143201775426,0.006061783366645392,0.12011096439081059,-0.0019435346187126978,0.11706540638408003,0.11850033427650247,-0.002194086440984637,0.12047201654673084,0.1194855287019939,0.0791158115635554,-0.00012493864415946871,0.0063665675667795,0.003001962834401632,0.003542538922310701,0.06594066628207201,0.1202516917647379,0.0025692008268875686,0.008908770890988566,0.004982251942356703,0.005661417435984384,0.00486021599455805,0.005844899738552176,0.12223076752671605,0.1219054698712546,-0.0013997949735891375,0.0032782852064555217,0.002948096323513235
0.12080901643349012,0.11966076045362395,0.004219058303508858,0.06727656716768175,0.0026940967519113197,0.00242653306555754,0.12311414578894324,0.06837517532263981,-0.002518004292066187,0.000698936837733909,0.0024363716683528606,0.1209242200377202,0.09185423686728927,0.006187441068319491,0.0009911172455035087,-0.0010967252272487949,0.10148067559269525,-0.0005779565050327601,0.12062885795446344,-0.0009004761130386474,0.12155448564600248,0.11787295545343662,0.1180328208543716,0.00030128862308470246,0.005647899731198563,0.0011376444139419343,0.00034061344533029746,-0.00028037225027127243,-0.0004840146598041465,0.11822288353073969,0.006681570650385355,0.12030429093443785,0.002359021036104244,0.0007564656184483279,0.009286959667272521,0.06460773501523598,0.12293828880830128,0.005651592718999224,-0.006640417931906472,0.060528026938576576
-0.0010002582200535181,0.00010898572317035853,0.0057246412825937626,0.0048637687550082695,0.0014122010707977636,0.12012833624050487,0.12144975601805624,0.06438651810871533,0.12205915272107422,-0.0014613799529534803,0.12122180949616354,0.0031116512989360465,0.009606908230514615,-0.003954951347318077,-0.0011360591132251819,0.005772377217536627,0.010273047262402543,0.11948299725267308,0.12048297418747003,0.11914304861635457,0.11947083161157848,0.0035408426731783627,0.007475340221077369,-0.0021829483640322354,0.004244072009005489,0.11804383653466125,0.08171852434127459,0.11392885187278166,0.11919989268651049,0.002853935160333117,0.06762610963144726,0.0003300039681521631,0.004457738553174543,-0.0008649798164348568,-0.00038887340306992653,0.004023151708293799,-0.0050023402311661185,0.0028374731623445042,0.0002578135410753838,0.0013340753500864918
0.06544569652816594,0.003720067542145783,0.11890930851907151,0.11869671384801883,-0.006848572349729283,-0.0018283461067840877,0.12163271484742849,0.002686338154349059,0.005366289076844325,0.004226281256501042,0.12383806902659392,0.12217227951226432,0.0033162751529656658,-0.002986024913876169,0.0024220654137274847,-0.0011151342003386877,0.07615008187345529,0.000133901692854316,-0.0012030616654209404,-0.00564496051923662,-0.0005201935898135072,0.12070841543008384,0.12015045285205639,0.0006998055092478504,0.0007203985710134714,0.004438437611479786,0.06975002587378354,0.00042699349899874133,0.00023033162029395434,0.12297702325895385,0.11865517553197011,0.12170763022956256,-0.003335613745046942,0.00030385856447454486,0.005783068604167784,0.0032191317231575214,0.1196952819079778,0.002268566066685101,-0.007689398512002158,0.005861689103507561
0.12026064746455954,0.1195986128467837,-0.0005733856048327602,0.0030647815729839263,0.12060799549063347,-0.001605738428778639,0.00960260492054898,0.11656652252613918,-0.000693811224241754,0.003750698449016575,0.12100851933000852,0.12157635386247237,-0.003171091888646678,0.002608469832568879,-0.0028957929058148306,-0.00017822600450287526,0.0046431028199793774,-0.0022204502267868104,0.12254128627987886,-0.004323918341798748,0.1197183247792905,0.005064346099359396,0.00722842118161,-0.0007251700368429857,0.12539431710759635,0.12056527587604249,-0.0018325600534607463,0.004188974439083204,8.696530883085276e-05,-0.00278418422635572,-0.003400104121747613,0.0024289590273545727,0.001630140222100604,0.0053581002454508595,0.12050364358042553,0.005420690769277996,3.876711025157561e-05,0.07008511877949154,0.11989976725534812,-0.0035835726539161683
0.11959471891312917,0.12039035915239124,0.006714853654875256,0.06091838815656403,-0.002919669146539948,-0.000302601955003543,0.0016874460490000646,-0.0051119761048797185,-0.000507165740131728,0.075656915568008,0.0055284899704088975,0.0030471856214802804,0.004066981560609995,0.0038386113871101968,0.12181637695518503,-6.646644743222836e-05,0.11972607613683953,0.010081928550390069,0.12104908775952483,0.11881302261009115,0.06039446592553352,0.12088406485335529,0.0028526748153169705,0.12042187696796056,-0.0020554757104585116,0.007252065697026578,0.12135742030429714,0.12210727162738876,-0.0007002128462002517,-0.0020787513863370017,0.06785630560515515,0.006397850886292485,0.07570513603045169,0.006882418161759295,0.008922123477078037,0.12074992826461214,0.003215778684180317,0.11936435754210624,0.0028256508703749204,0.12031270217636998
0.12133148250310073,0.006004280291947285,0.1202651861025261,0.12196784242111505,0.0032042813366702674,-0.00045596989695769103,0.006285932557798802,-0.0010212553751621255,0.12001147529782952,0.06959078476424252,-0.00047628360177307005,0.12033725875103227,0.11829347562062248,0.12175053638396033,0.12027020055803718,0.11718686937188295,0.12022670169581996,0.12009078250746835,0.0032402677032821684,0.12035726697138348,0.11963177804875741,0.0010931394446468388,0.0027067147313610783,0.00674835491109914,0.001824181893612517,0.07682862470348074,0.004734233001281433,-0.0020832132379392165,0.0015310096121757823,0.05884175553050656,0.00533562670408355,0.12062822008059118,0.0016573889572065387,0.12036186281977576,0.1189174147698017,0.0068148146641909355,0.07407061780055677,0.00033498948021014384,0.0006772440440526817,0.06518551754673885
0.006417479553307431,0.06229479313820464,0.12162306951054666,-0.0003570863927922617,0.11943901346396715,0.0034851438452212858,0.002524935145055812,0.11998575902912106,0.11855041340493927,0.12182156034822401,0.11890202933391074,-0.006100457424251409,0.12127894990500923,-0.00036998891686449814,0.00773445478164969,0.0033109552575162505,0.11986446202501878,0.0628168608261483,0.12132312978544929,0.0004304509699044677,0.005127849467712532,0.11774712370230485,0.06735643800155004,0.0005366620606456861,-0.00554112611670061,0.11981075022501937,0.12086312687742792,0.0016775863270109092,0.0010599006246949016,0.0003243179044174811,0.005254315123525635,0.0008827554092956354,0.12032955044738257,0.12084727501822827,0.005092159476791705,0.006275303458624484,-0.00043951303343633675,-0.0024961996302640516,0.12230974380745098,-0.003295198589597863
0.00368504251305585,0.004372141243142202,0.0006574849080834878,0.002640419009590925,-0.00029220085239839563,0.0001200058933909186,-0.0003767111223828317,0.06525366389180987,0.004114419238773636,0.007535235134703914,-0.0021679300699218662,-0.0016605635326893782,0.0615485613578176,0.001994986677176455,-0.00048589830025279633,0.12051297090484724,-0.002133290964220635,-0.0037980450154476712,0.001274637335962461,0.0047544783197273335,0.002333509157522583,0.0007457228352269384,0.12015457319779499,0.00161090420438454,0.0031824022909192635,0.0017526096331262422,0.126957454291671,-0.0016040850799733401,0.0017649369502501394,0.0031889728687953083,0.0024606560043261023,0.061513004137810696,-0.0037617679210597867,0.12135035380136315,0.008921295894293227,0.12029419452464982,0.11960485922646696,0.11799638244033513,0.003263805792489919,0.06884869305408474
0.11888025294031711,0.0030552584374581044,-0.0026261028484130967,0.00115373926111145,0.002470875368237968,0.12007192676880359,0.0043751973660305105,0.00422418928894293,0.11917814594507886,0.12182620746417573,0.12065294395875763,-0.0006550360358423,0.06678883484087775,0.06660312399407183,0.0010760994890000955,-0.00010793780798124629,0.11871774018737713,-0.0008898881732922781,0.002167871312533488,6.543533282304408e-05,0.002851072988656112,0.0029678606110789957,0.0035413827118210093,0.0033573133127924684,0.12229776069436565,0.12134529538527958,0.1205068901429722,0.001994759988391978,0.0033664242776326914,0.0027574734301200835,0.0006174720369803836,-0.0028540654320434898,-0.003759977349139658,0.0020816851560004237,0.0044928469824451304,0.05893870234960333,0.004322587962762267,-0.0030307138075735913,0.0015909221618443953,0.12170341694824302
0.11927186056451998,0.0031933405808637527,0.06863824502303777,0.0036336445036063685,0.006677456950811331,0.004274400695287672,0.0017749799521412993,0.12108169293066678,0.0037051239590185463,0.11952507526065466,0.06225713889839845,0.12185123738235251,0.1198009772831986,0.002331069340116075,0.0652557842090509,0.007589125682827773,-0.002574895014450928,0.12043824543817692,-0.0021967501406577198,0.06241029901726987,-0.0014872207815428773,0.11824057336565838,0.0034958360613856856,0.1194798721381724,0.004565863092395893,0.002275211701215684,-9.855068314270054e-05,0.12092048498249472,-0.001856114470391507,0.003235754884185452,0.11927748715878321,0.12211482833731177,-0.005799286611131508,0.12182015509828817,0.11923633638277531,0.06623833947773806,0.11985629036254769,-0.002662594589510689,0.0005886014100583708,0.11987512400952889
3.689582798784532e-05,0.06458771535141536,-0.002349716853229831,0.12083104933134108,0.11678781206839497,-0.0029235917642661115,-0.004775677184737329,0.12080366572475298,0.12196907746709998,0.06336830855797848,0.11863903869345378,0.0027195073345830114,0.002038838088293157,0.0038956331293263547,6.562107941295466e-05,-5.4842367903490416e-05,-0.00209191718692084,0.1198337516983407,0.12151654985416903,-3.6330288588602017e-05,4.54959320634716e-05,0.11873361976761988,-0.0021629595521370595,0.12132565381696427,-0.001969159801349166,0.11953694003143231,0.0013456879730180682,0.11987088113196924,0.00035919966068657217,0.0027359734286826723,0.002777894787485021,0.06335489637271163,0.1215146148272197,-0.004129642432520455,-0.002466148297834776,7.58488815172464e-05,0.000908678878456271,-0.0004061798024523935,0.002579589264548155,0.11790223154429548
-0.004190622110071482,0.06852815455448172,0.0020465258632866743,0.11862062346367193,-0.004189402568592002,0.0019926619315759385,0.12072247983049807,0.12017444339413054,0.000828143616622004,0.11917822085982058,0.0003943003402174114,0.0006002926376301733,-0.0011815655878556095,0.1211661895377774,-0.0009532109708428389,0.11981338584187505,0.11789208332537697,-0.0017513544232369016,0.12205868574826395,0.06994221631211354,0.0029297168985029424,0.12294602454432725,0.12145744110257932,0.11953275794221623,-0.0016682564460602349,0.12178573879950676,-9.744292180950155e-05,-0.0029085514492003762,0.11980130144282729,0.0012672723784882853,0.1201588514042213,0.12240314499388943,0.12067621770367852,-0.0009734694838292997,0.11894385486205426,0.06586165777642161,0.1170219535610534,0.000556560024429921,0.06857677144784521,0.11944994865581948
0.06500405416182187,0.004645695040570472,0.0009493963638400698,0.06297084504909854,0.00028412247679762134,0.060148658915420386,-0.0022910192272892105,0.0028409033644547672,0.00022185627953969704,0.0010055217925888033,-0.0026309134093395257,0.0015784806661033822,0.0019707239367019636,0.11971585143163138,0.11785788123349057,0.0029188673080617223,0.12013558719563887,0.06196623658682854,0.12143586120965445,0.005968470637289554,0.1211841302698914,0.06838975380490205,-0.001101057410271122,0.11985326936660873,0.11940614970833914,0.12144336041659895,0.0006701815693605892,0.11942513345841038,0.12014614275291823,0.12031673336912026,0.0018909096822651709,0.0024681210545111987,0.06372991309511171,0.0013553990065179595,0.11975935337632235,0.12049166798494623,0.0034254390366227883,0.0007368554737601535,0.0035926804568420386,0.11970385587293181
0.12013264844835474,0.0008981884970260147,0.12013277872051895,-0.00044305609547342967,0.00045702717980745987,0.003502938177031104,-0.0004867668241255771,0.12061676223707155,0.12023153189059711,-0.00028042448508530015,0.12078578015062047,0.008645550469701863,0.12155017499182379,0.12125371144536756,0.004275445625417795,0.000914263077580673,-0.0037583180305687794,0.11992170035477402,0.006707004997432157,0.12359543743794517,0.002469687469041635,0.07315648339827255,0.12491578810432098,-0.004969045349743397,0.003375541191238648,-0.0012871820805581957,0.003726131616574865,-0.004409632657843268,-0.0002842802909116377,-0.0023871232916507818,0.0009589564811756443,0.0033237407816914914,0.003148292770738702,0.0009834742360974517,0.003037201718243646,0.1202766584280429,0.006552090426904239,0.11874164331199767,0.1197767809959245,0.11935965687327933
0.0022223051814854525,0.0031060650218232887,-0.0017610407612460195,0.12043358935706053,0.12034761838951849,0.0005432628377269755,-0.0017823681265844247,0.003944908212254273,0.06582384901396647,-0.0028868725566438044,0.12016971019532406,0.005432782916648675,0.005851909180551703,0.11905700093988036,0.11884663023865408,0.12458224743303091,0.003679198382697065,-0.001517618768091607,0.12158483444347683,0.11962199490361593,0.11855630916342094,0.00020337173076117373,0.005626094804162718,0.12110965553346584,0.12312600650400422,0.1192183038717165,1.1923741526484283e-05,0.0015910891216340147,-0.0025720371134931403,7.296820480493936e-06,0.11996953861375091,0.11854323140851279,0.11837763806744185,0.12127665916832363,-0.0014868729062208574,0.11943072926248846,-0.000191290110565182,-0.001595632963084412,-0.003840088853023317,0.1190562968764906
2.5322593374179872e-05,0.0069672954765102315,0.002130109295898298,0.11922856422809981,0.12010327514851167,-0.0026290713103306867,0.001283864594919408,0.12180878584715465,0.0002236273119054296,0.00685485588488524,0.001158307074543314,0.0004308202051282601,0.12024242290217142,0.12059000832915644,0.11961145824740231,0.0012836669281474412,0.004047442113860629,0.0034238383625794216,0.12107638217733353,0.00048078368463701845,-0.002828063014499825,0.12056302308148775,-0.00016488908111212986,0.12068020298568723,0.001899317232263962,0.11958448573467757,0.12059946463633772,5.986730577584281e-06,0.06463317135205937,0.06345686123931576,0.123176761290856,-0.0028720357671906806,0.12039028772033603,0.0007397329158196548,0.12028206472260565,0.0031855597353995188,-0.002199647576180603,0.001970123294740312,-0.003267107909166131,-0.002106983311807596
-0.0019683587286581537,0.0034075984692354872,0.002907817247608121,0.12021179186741755,-0.0010826757105857534,0.00032890548500427876,0.0018990107224150152,0.11894907578019562,0.11881838785279654,0.1203362748382094,0.1198477004148726,0.12143971017028328,-0.0031062082341922507,0.003967846697944934,0.004807321844878435,0.12018369415016775,0.12080527539375734,0.11983180632362365,0.12124266661895096,0.05895746731909938,0.06699176484158133,0.004395316627953006,-0.0013776388146823882,0.12052927861035048,0.11713748397891555,-0.0038213967594497716,-0.0020074784366701493,-0.0030344039464455753,-0.002974443624832564,0.0047812934361181015,-0.004333723072857046,0.00407528630025517,0.0008206957031861342,0.12117154135969192,0.11773598144912248,-0.0012968311868226355,0.11918169561137894,0.12043451644184805,0.06984956025757237,0.1202940489406335
0.1185204626803462,0.000931277085717978,0.06316911782332967,0.06627848462878635,0.12190229123499795,0.12067618632912973,0.06375901375859432,0.06686510969743753,-0.00500832755007063,0.004146855330068974,0.12152777068549843,0.06615648160767786,0.12163563110420456,0.12142749354676431,0.0032639257525979184,-0.0005384217367396356,0.12070746216135304,0.12172436049774579,-0.000622445226867212,0.0074458807925002835,0.005487674110812617,0.12167624983348102,0.11727084854624113,0.0011677500938669318,0.12070213919600993,0.12136955543044134,0.001241154064119161,0.0015093939061989188,0.0008395905137468882,0.12026744959126635,0.002584361723309465,0.004882764061763281,0.1203998430325831,0.12069157477471133,0.12078372671699679,0.12003033291254842,0.0033982579325562345,0.0044438832343346195,-0.007140326708144463,-0.0016829940411610535
0.11911865257575252,0.000832863252550541,-0.0023566218639973955,0.12114094367079718,0.0010583654361269854,0.12064650020018852,0.11909544175337934,0.000172269752823529,0.07003278989480548,0.11979014616866715,-0.00042978242142250884,0.12093471064633891,0.0012313943721984151,-0.003099616222893015,0.12052732454757935,0.11960335006522108,0.1241191335570248,0.0020487321235186933,-0.0008003835925261934,0.12139543956429917,0.12089371850806432,0.12080999999421224,0.12175143169025429,-0.0006165242262672002,-0.0021976480293632956,0.12064773317768902,0.12199179900150874,0.1208762944880167,0.12184755786033838,0.006324934609152098,0.12008905461232096,-0.0025926020450553373,-0.0046196322049811295,0.12186363798366291,0.12135286852022911,0.0013295254983130384,0.1211605988556133,0.06879427497388087,0.0009287456746159863,-0.0026712531672507616
-0.00044580439765943354,0.12234771385298142,0.011014369721156962,0.0012469624333645572,0.003760081265569283,-0.0010315751212073695,0.12080366549676962,0.12104404949003912,-0.0010478166119559137,0.002879161348872447,0.0009991906611959418,0.1276036586579696,0.1219045436696301,0.001964879502747044,0.12031255720929913,0.11935312358081036,0.1200643752324155,0.07008083472098983,0.12327614983516488,0.0014267400368503636,-0.002623563230340428,0.07655177887243005,0.09011082299237493,-0.0006420960266656507,0.06420944937037998,-0.00022409357364563758,0.0003978607696505464,0.002239159073543277,0.0010205780471071423,0.1216065342043898,0.006835076512652414,0.06758085927990894,0.006497668207770303,0.06665235714447613,0.0021765671373082914,0.0029942913465617195,0.0004414013263382144,0.12026614650895981,0.08796012426643632,0.12163781465854732
-0.0032131214629125635,0.12175020340954054,0.0011198796570009984,-0.0017560637800498112,0.005202614598602396,0.003123641961551454,0.05888631564528162,-0.00035958520299841077,0.003915531940965204,0.001108658933795012,0.1222055943820799,-0.003667786558191636,0.0009462433908301478,-0.0024660914315585325,0.12127709037067654,0.002695843625529752,0.0007951730726242164,0.05816872676858767,0.12184290056295947,0.12178852304786322,0.0016661693144597893,0.1196396326861618,0.006594779961096762,0.12054003402415428,0.005776648960385656,0.12016072836549896,0.12143615400664222,0.0060719798473807705,0.005265323038187317,0.0005123236471560963,0.12057192603970447,0.12004802314988539,0.004745861127951606,0.0024633494555419393,0.11948635404587409,0.12104176223451747,0.12485783597713324,0.002200275624415295,0.06416510410241621,0.0007725240813752196
0.1208081415663229,0.002710250873907918,-0.002672729621174605,0.12044090010531038,0.070448481637471,0.12120130207721341,0.06553845852004513,-0.002991561468798316,0.008673677321570811,0.0003282683866545974,0.12079871792087458,0.1208338241730947,0.0774104674674395,0.12052935115132846,0.004273334878508062,0.12148829174978354,0.12015614614232623,-0.00028602877435332416,0.1203625709423801,0.00021210214518741782,0.12129613212311421,-0.001111014463448039,0.12015814259239115,0.0013183865661187668,0.12100493404308826,-1.177581670547056e-05,0.12126624695026327,0.005633585141128181,0.00590324387781162,0.0008577571102756547,0.12118195531283772,0.12132615213676194,-0.0009516010381523999,0.001984171304036378,0.004155625553566309,0.0037858773897079894,-0.0023599708330254137,0.11977555247398397,-0.00146992411337263,0.12208097249913416
0.00241078039411337,0.11852683898717561,0.008235260282631473,-0.0004964173324595146,0.05953388453959032,0.0005432244927590358,0.0022223693625644074,0.12118064966288904,-0.00040520368527194897,0.002285555288741224,0.004815045475046453,0.0033909883459955154,0.009658463798814793,0.12032257859457612,0.12221521137377159,0.12067242423775562,0.0030784494825371643,-0.002468365314329404,0.12027257098182485,-0.0021026245142801454,0.12557275646056595,0.005031365444508983,0.12007803195075854,-0.00040847076501969595,-0.0014927375450433725,0.05977400575607185,0.11960210687681952,0.00031838733524034357,0.000221299475999478,0.11918985936683411,-0.001494971671922401,0.002136524138719664,0.12095151425333331,0.0009391904087427003,0.0035058781903675776,-0.004969267057541046,0.003323077902376963,0.0034750695560454028,0.0018286488028343487,0.007245762613890726
0.005837134759463821,0.11871777316210747,0.005475482896794427,-0.005408736335312707,0.0008123591145670834,0.004285556283021274,0.00568803824034481,0.12129638803360199,0.1197310630116801,0.12233393657767497,0.002820077385033827,0.11971115991426727,-0.0019367143587684687,0.12133106646993225,0.12005402925904729,0.06666644995953137,-0.002096505044457296,0.12226726598449275,0.007394598326675701,0.0036665818322759937,0.006213857314909858,0.0010614971511118511,0.06862259178168595,-0.0023371022884988873,0.0035185430051780636,-0.0025350999713843517,0.0049555146825209055,0.06670366068464786,0.08810485335231547,-0.0020622798706818463,-0.0016087183086975442,0.06568844485658341,-0.004033865480873475,0.05810725885537746,0.003454758551568055,0.0024758862752763556,-0.0004262885044923804,-0.0018685538748188194,0.0008439750781044738,0.004380104269413944
0.11950600470095502,-0.001456858230618492,0.07424887988575299,0.0028611144138045784,0.0037031247680007796,0.12118455354313121,0.06570103589824777,-0.004595988128088478,0.003976258506194377,0.004482943275682044,-0.0022019465133127675,0.06700917008187773,0.0021366141645580016,0.12075887476882516,0.12083113948423621,0.0024204716410030393,0.12006289599827516,0.0056647762447744115,0.11952768561483633,0.005214657481914465,0.07812718065964215,0.11967544004054106,0.00024887889572039414,0.11972317954323665,0.005479372579878731,0.123516700174136,0.0011825026093790734,0.002445685809184499,0.1212833387247105,-0.0006900733218290638,0.1222360329836849,0.0010971781909861285,-0.0012197516265280075,0.07883358761890623,0.00147177892645116,-0.004116562061787586,0.1214453580067754,0.0057113101639822104,0.0707938622990858,0.008018645705749075
0.12085818099269588,0.12136781884259512,0.12012975274768674,0.0011601998343091808,0.0014450923165394642,0.11961997832609088,0.00417202268859972,0.00988701803893537,0.0010587848919868972,0.11862126387160259,0.005959399384795708,0.004610317679010445,0.001195013581365412,0.12191371752413355,0.0016254617898162412,0.004814095155606133,0.12011997776777515,0.0030281091607212932,0.12161123737689963,0.12172975069809465,0.003295421702654286,0.0005047088044605067,0.06824203496149098,0.06078589915703212,0.12101468454183477,0.007643685939995515,0.0030737351684186243,0.00011678715378135108,0.007091338933695475,0.00021016606669373725,-0.0006636041696896385,0.06141008192429698,0.11922928513685582,-0.0031698887970524345,-0.0009840316840839247,0.0020943679521869887,-0.001876850089073944,0.06860669595629293,0.12422586749768488,0.009648706472469402
0.0006949635715126494,-0.005737686338000958,0.0026429809810078115,-0.0013800188185013145,0.06018950107453446,-0.0008071351236756179,0.0005522855719470964,-0.0012633324513870185,0.00024318597517781178,0.0631409468812876,0.0006261099568224969,0.1194966487649888,0.11999687643506392,0.00026852199210282803,0.011019583036717602,0.003455944429448984,0.06197619632620777,0.07925779618984788,0.12012713718269961,0.12024610284289836,0.0050725801981978316,0.07106217309048521,0.0060507404693100255,0.0014355778200883203,0.12264322176211269,0.12143065499762985,0.0019482425992031775,-0.001418852313163371,0.004133295916214153,0.0024616290495265564,0.06322747021730639,-0.0016660938106227991,0.12250886177183874,0.008215867975040885,0.11783310026278235,0.0034366428600262123,0.08131095036550363,0.000538144620028039,0.1269898572670583,0.12229791257506417
0.11979264069562823,0.004418901028073727,0.0010908674883323487,0.1216352384532868,-0.0011342906024938437,0.12151182937704477,0.11867586111218609,0.12108355467141792,0.12072742310604871,0.0023837362005976023,0.0029648994130864487,0.11920153305856299,0.00025668662891048825,0.000521378087249094,0.004712037839777031,0.0008022366746906599,0.1199748158167165,0.12028713790396786,-0.00045295910579592265,0.12049058047712652,0.12140753149941638,0.003360356218609201,0.002256762845755159,0.043650346000630384,0.11990355971384396,0.12075012902603208,0.0024745376919605897,0.0005035707027603152,0.1202205790548979,0.006087955018591742,0.06573958160397815,0.12096594589226799,0.12181895394897316,0.0046112688469073385,0.0029957999877095777,0.11968992294384113,0.007244669067433573,0.12187034810482646,0.0014759780988101373,-0.00031086081317154273
0.1230669406459716,0.11822821432387541,0.00029289205384636595,0.0008596546722786276,0.0023187958571371436,0.12013689811000405,0.000483776302992823,0.0015044898538598092,0.12140429794853612,-0.0015967263147651932,0.00044664666283553085,0.06377484077648737,0.06268793883803044,0.0032121014139251066,0.12109461075364131,0.007261574400580383,-0.0016977996522396567,0.12180128243155618,0.007276642015586624,0.000691354857453901,0.00755113998741956,0.12076265099375691,0.00016756662480246412,0.121131912055909,0.1204085478625272,0.0014524103570105126,0.003439400260967709,0.0013535528366118363,0.05696546742918667,-0.0016025169582577542,0.11955143889945624,0.12242438810244943,0.002248522854503213,5.692041189293517e-05,-0.0004273256799321484,0.06288113875567675,0.0016976175805840604,0.007152512403066949,-0.0014923736379617734,0.06644915572118812
0.12354897117668233,-0.002318555374570193,0.119743112674361,0.004356579503210092,0.003544080651527132,0.0026160598527384814,0.004174766438822167,0.0056112146885187435,0.12042750823594699,0.120415426889383,0.0005342567135081407,0.0003849811352119465,0.0016656521002847745,0.12078868332074957,0.0005269864189287972,-0.001226402575342625,0.0039093001897728815,-0.002082846802347651,-0.0010508609424093136,5.616512554058438e-05,0.0022836455910186376,0.005918525964340659,-0.002393422332950156,0.0005211039957986528,0.0050845946682340284,0.004049811011096244,-0.0014697541508053471,0.00041255438738000035,0.06342635202413124,0.0672813509042416,-0.00037829280843023466,-0.0015735225130493948,0.0030915976694616838,0.12035057184909209,0.004520083685246467,0.0026812178970893126,-0.002696240582886917,0.002065721020222905,-0.00046260741113370225,0.003835395264678772
0.002706497712870311,-0.0016375988769165265,0.006824172783146248,0.12249509780246447,0.0003661935254407168,0.12302774533246869,0.06378517415302913,0.06569521456609712,0.12062270778779627,-0.003632148239192906,-0.0008837019424081532,0.0005491504503955193,0.0017903231301565983,0.010829556094646677,-0.0012491825781221803,0.0035849531682259172,0.06311675532455388,0.004253171454847749,0.0014539962464855797,0.002090911919729976,0.12043950120669603,0.0022458064098600126,0.004474555101660788,0.11999203093735981,0.00504592205547851,0.001977151320988935,-0.0017899659749962265,0.005475857791579677,0.12079292595656024,0.0013612536636248118,0.11964267068547889,0.00533311753755732,0.004620742885734151,0.0037085062214823102,0.12153367605385738,0.06685378754020699,0.0005762494779948658,0.12876565175394108,-0.000704782582294324,-0.0018911225520551562
0.0023384873880133447,0.0025273355802344984,-0.002441948450770157,0.003367947848704581,0.004929424346809442,0.004599961147726316,0.12115599060439883,0.12009109600428242,-0.0014662499266145633,0.12139240073662737,0.0001916338964875348,0.12158617816463584,0.005275249402980154,-0.0027867174550092306,0.0033230459887638756,0.12142239439320163,0.007032203323156208,0.004108979329680051,3.529384559779879e-05,0.005153175150816461,0.003358976678586103,0.0025981605085151323,0.005178143903695373,0.0017725880225663861,-0.0053893363799379125,0.06401582242645236,0.004620441841497993,-0.002250614498709341,0.004969911497525953,0.12092532095168859,0.12069760277838354,0.002632627303471155,0.0011048872192854357,0.12141823375056163,0.0032927758670768625,0.0036316310693769653,0.007036165566354262,0.00602347080185185,0.006394008736765631,0.00031764099884543475
0.003965062677782662,0.003709735899446899,0.005911195692430214,0.003205647874689468,0.0026822551727233666,0.0027643660418927383,0.0005975525297203068,0.1223021201646158,0.06377404542711954,0.0068980497687318645,0.0042583102631739735,0.06968075303257588,0.06448530257402761,0.0019540933816069492,0.001915532464681928,0.005570563011342664,0.06986307011072332,-0.0012990395009659199,0.1212884626050493,0.0011241117072350476,0.002751486332098124,-0.0008727617901812204,-0.0010590949925542781,0.12150794489817839,0.0002944050045591414,-0.0017818022596856288,0.0028200162753823734,0.00145999244866549,-0.0007171087215011813,-0.0017926147560897116,-0.002650725051775834,0.06637652962727766,0.0035768459620660275,0.1238597769722531,0.000653979613495878,0.002408689102791536,0.1206922355366472,0.0041789180126262405,0.12046288225203022,0.0053011512899344485
0.0007194337977871861,-0.0037364830770040026,0.0008359374116335377,0.005883148964606692,-0.0007635779238433702,0.12116597948674866,-0.003087814955295941,0.06217573134077209,0.12106829730952465,0.12093989471990824,0.07867617096090161,0.0034603991858588733,-0.00016051689097025258,-0.0006557406003407609,0.00393969732570119,0.0027873580308832597,0.12351370065315906,0.0036184628087256874,0.0699899677537496,0.12141018966965143,0.0030137120527267062,0.06878686546682622,0.0015054285111405065,0.0018606702949152353,0.001820705871442916,0.12587076397070293,0.001638735073306904,0.1211422803275291,0.0013259336208914496,0.12155893542267826,0.12077703467336932,0.007201099217603511,0.0015515506029870959,0.0013111436873254878,0.0015088705409758547,0.12118173511722384,0.12160996842149323,0.06315620483942215,0.12121125758085015,0.12159313544976014
0.005921554248746124,0.0035031216683250577,0.00199557308109532,0.006040043533116721,0.0067107695273079014,0.005988110175180282,0.12198455873317403,0.12120201073093478,-0.0009402293876851632,0.058332405043792175,-0.0021462897247520245,0.12164479619747716,0.002902222643196729,0.12139513306881965,0.004421763406525249,0.1217736898257646,0.12139900499299919,-0.0016981597594896167,-0.0007868359896622144,0.0034261202553954036,0.12132903311908748,0.12153314605034556,0.00465030739775338,0.06020217563287653,0.006468047062501127,0.0021432917555892625,-0.0015098598023100612,0.12295506023812493,0.010494963457419633,0.12109379157880383,0.06357510465660515,-0.003912646665990289,-0.004001348416585132,-0.0008372767734627683,0.00266730481123318,0.12445818885975517,0.12117821245812792,0.0018149161114449953,0.0034766715353601995,0.06362355363981352
0.12115717675093583,0.12119618979666329,0.06012948036229633,-0.0019741394816766827,0.0006121758608888638,0.0666974845266602,0.003330746228794464,-0.004124481317612888,0.0028428789393268095,0.12143190634497687,0.004248826705606488,0.004782176574248393,0.12089407660572195,0.12087749534138328,0.12363824816784363,0.0006956545253057391,-0.0009850194318025242,0.05848912174872943,-0.0026135547263446955,0.005003942421622531,0.12136763382774485,0.0009581124619006285,-0.004553671393993776,0.004197197801968415,0.006946881102983145,0.005801643637590027,-0.0008811997246042768,-0.002747810721861399,0.006280990167272877,0.0022441772757899278,0.1206275459377138,-0.0018331604524332292,0.0038964676758230527,-0.0003084866248548044,0.12141676183277805,0.0011585232950451962,0.007442858198877645,0.0015573474993077754,0.12115726749225439,-0.0031756306174569667
0.12699048786832742,0.12137418562751597,-4.446098883311439e-05,-0.0032098148479098977,0.06161472885122069,0.004984392585939456,0.0027442266976999566,0.007771520689471864,0.12071446393731487,0.002899036385111313,0.0019763045973748977,0.06340395818911244,-0.0027583591474500554,0.06745705979563275,0.12110839945305543,0.12106191647674884,0.06620633687908734,0.058299043100801765,-0.0014044740543806954,0.004345731215305424,0.1219779114360576,-7.519092775477236e-05,0.0015130098217946764,0.12093653250283469,0.002660977277912892,0.0034893616496337746,0.0011453301067289577,0.0045218172348945734,0.12055323089877411,-0.004787696181538795,0.1208078040909636,-0.000529950419708597,-0.0026039422277910583,0.0006919414426333359,-0.00044534259103618467,0.0004364363719792815,0.001935846215264687,0.0021666796953355876,0.0009678104541689664,-0.003153307816320646
0.003201646986232379,0.00250010928163563,0.12095101706767528,0.12111504436144498,0.0007347458244593576,0.0061479314570174635,-0.0003721916959467109,0.12145419244760913,0.12108233418827731,0.00010501381230928153,0.006045550596439736,0.06306143586356452,0.0009921718616063958,0.12115873258248913,0.11987133088957212,0.1253997381942635,0.0653488556746894,0.12206058372840636,0.12126316928274343,0.0034379527078899214,0.003170639744356526,-0.0014983170571564784,0.069405880811556,-0.0016822252383861492,0.0035336810238697823,0.06002472354455979,-0.00047914642269038097,0.004504514552604916,0.11798581460071063,0.1213032459826828,0.06651575042834419,0.12110534677169581,0.07222327149053778,0.12176377980545255,0.0035505232713709954,0.0004557435747092483,0.0036601720785572516,0.006992753792585485,-0.0017391795821916402,0.11999875790282617
0.12063381936437319,0.07135857481968516,0.07265691679379561,0.12111779410525053,0.003447776710765838,0.0004092714287841689,0.12140711081229293,0.0004361266119244262,0.1221942865315926,0.0028931328607190118,0.12047341307098533,0.12120807194143618,0.009621657554346876,0.12093934940811266,0.12036814387878036,0.003085049627270397,-0.0011924649428164378,0.003186800609255865,0.06826864543298118,-0.004904184800991665,0.0025187935194759784,0.06813532234052369,0.001078925016828251,0.12095058658420027,0.12185432412099634,0.12357618856061657,-0.00268416612872668,0.003695214008068739,0.007077665755629427,0.12118796422812736,-0.006020611517868639,0.003036587196778106,0.12188176520064103,0.00017772638108795244,-0.0005318880252906987,0.1281014388539936,-0.00207382974805584,0.0009258816178619796,0.004978206398714143,0.0018395641760437591
0.0008507555387466561,0.1210403791120956,0.0005680951400667059,-0.003233926927304997,0.12124545209778398,0.06790154842502676,0.004145839918501313,0.06905371189215692,0.003130715487686614,0.06990167681941908,0.00192843860570311,0.06601777617537573,0.0026646109968055756,0.1207380130261591,0.06472333256978939,0.005608705208232013,0.12097308716079366,-0.003347015609292793,0.12030520007764017,-0.0023327921679460765,0.005447497238824455,0.002550701858798803,-0.0002385716649688759,0.12135519924363444,-0.0025633474316098053,0.0026617516701424888,-0.004077391988554943,0.004017022888892661,-0.00046356529297581926,0.12029873740787424,0.12163519875310855,0.0021911920852019087,0.006619771343677329,0.002599640654095531,0.001998526111787385,0.00576451394883303,0.0647524410359487,0.0024265449493025663,0.0012972716595316726,0.0011054911432390956
-0.0015031690635343954,-0.0017718054085984918,0.0646261432748417,0.12145160686446559,0.12132717527363579,0.010820898537561137,0.12290901231225737,-0.00101058548750353,0.12095534234636034,0.007397468810350728,0.06245273164591236,-0.0014539392177479098,0.12095886585256253,0.0013771313038884344,-0.0020322442777223554,0.12094961491703607,0.12122521262193266,0.12152252321067165,-0.0006629041155118152,0.004819786822588405,0.12134355543980023,0.0012527229822914565,-0.002006191926236522,0.12061602581516227,0.0628740629563337,-0.00145295050938838,0.12155914839937369,0.0012778798622483378,0.0007413532069225285,0.06894752175353253,0.11975526696697564,0.00388091617520831,-0.0007546195682519016,0.07035526475839761,0.004331736253565552,0.005972543198676653,0.06626324562095535,-0.0022012636236219962,0.0009570287077310503,0.06559766263922033
0.0657489160644452,0.0014003590163970128,0.11918519273766293,0.06813390945431223,-0.0023381693467709034,0.12212402546410857,-0.0032761125786317773,0.08642795763221636,-0.0009065374631325545,0.00999704002851555,0.12098227381791395,0.0019326773423077137,0.07151944043045888,-0.0021190985161899127,0.004934210199447234,0.01053018786008113,-0.001339911500774756,0.001138976717964796,0.12061042022286436,-0.0004552184688504203,0.12085754087360723,-0.0014534878668282967,0.12171553746209508,0.005934010334274151,5.843448578066521e-05,-0.004822476131332748,0.12137393536656109,0.00033406842003447056,-5.156058754783733e-05,0.00200078535370707,0.12081647587314476,0.0025047693052149406,0.0037605452663813455,0.12005626953391846,-0.0027637212215864296,0.007517766447441164,0.002901125619615247,0.11982587845303466,0.12135238044142045,0.005750953129809904
0.12520720682702524,0.0015458960376064342,0.007719805358684453,-0.0012772563987445014,0.12146711959531911,-0.0035144563158341384,0.12130634998314072,-0.0017588344762676567,0.12092385745667814,0.001762947871941493,0.07123110574869128,0.1218758634569002,-0.0007821935250616988,-0.001074606145773354,0.005076245942597223,0.008196177279254604,0.0007561371124590016,0.004684434507793271,-0.001919630078098424,0.12151528922119181,0.003564978926124425,0.06520745322472533,0.003610987193216107,0.001805279605255762,0.12319201924923853,-0.0005218974767160073,0.002690502226952854,-0.0011347186211680032,0.007862319795496071,0.0018106035290497877,-0.0012039732941126337,0.0034057585816479863,0.0023187000017238606,-0.0038220735340609934,-0.0009338609885428162,-0.0007275965366404924,0.006285427604249629,0.005421402813273117,0.007225595421814548,0.00451769853089242
0.0005689874392135537,0.004401979442314543,0.12120095156236542,0.12680789925071614,0.00250943107691319,0.0018300146800981072,0.12095428565115728,-0.0013812993739991326,0.0005004044997283788,0.002402248512386781,0.00402154814738647,0.1213706790520393,-0.0009249202919246964,0.006921328221049493,0.12085236914189132,0.001345337047723828,0.0021810236311203593,0.00370325289145417,0.0023818855770223603,0.0048942258310339945,0.0007866569335978386,0.001418638788478786,0.003962910459117411,0.12124698318706648,0.06136536295098825,0.006033674167031898,0.0010071119832118483,-0.0029662062150709574,-0.0002054829450984505,0.00507269654943699,0.07671494602570406,-0.003257337263714429,-0.0014799161363493513,0.12158659100848727,0.058542996209476436,0.008266959864484846,0.000353102103873399,0.0008916146902530809,0.00555475097141581,0.004268105505468238
0.00410624984678487,0.12208602709336405,0.12128111313052488,0.12113862064212375,0.12153183433475377,0.12108004943018293,-0.002093210820406524,0.12152046956475622,-0.0032174880522528536,-2.268148951889447e-05,0.0034136194348412473,-0.003869257145596216,0.12131115114590693,-0.003433834119600556,0.001010636660813499,-0.001642314199531659,-0.0007583806235364052,-0.001975738816213007,0.12138996720688228,0.06417709422274967,0.0002524925388890926,0.0023181732453991973,0.11913421092435934,0.0056086242634399,0.0001629649852429677,0.001721382715054234,-0.002273778905094796,0.0697009852597125,0.008413788571486712,0.12093978463487458,-0.0004076081066793979,-0.004300827369841811,0.004416165508304025,0.12128820200630992,0.12183837280757609,0.12114444481757061,0.12127969331177352,0.12118739821199047,0.1210750019875164,0.0009765725546579808
0.12138475646122249,-0.0018614881161437649,0.0023869497630917046,0.12230739346186688,0.006768030185375529,0.12136441732510234,0.12181475003790526,-4.5068940442005e-05,0.07878621829091541,0.0006384246291307588,0.12403037154573288,0.0027694231458569862,0.002178988495856035,0.0038349359176392856,0.0006551906918170005,0.1229879550038596,0.12272290173018698,0.0016588933288430865,0.12188767694110969,-0.0009267156188476107,-0.0006607277925525159,0.12125313718782119,-0.0006341104410509286,0.0015677224602857992,0.0032603088782136576,0.00020013736354747313,0.008142612790671466,0.003551845954542522,0.002974557528479908,0.0021700109334215987,-0.003942040813510785,0.0020554592541977704,0.06785309019892061,0.0018898853340548435,0.12108816101256108,0.1217791862225718,0.0005289192720847053,-0.002394402441277661,0.12046458578210334,0.12187219926137224
0.006617340251708262,0.004033847087386201,0.12111593457653914,0.12538532404650476,0.06160971957371525,0.004446325360491831,0.0042632662821033345,0.12121663781375835,0.0019309197260375863,0.12685593791341124,0.0026780180931954964,0.005972030906485219,0.0037193844365466704,0.1215205378298053,0.003872742368859292,0.12083532113947994,0.06492701740666973,0.00808253630812687,0.005736871871231196,0.009542389555435628,0.0008198236941839247,0.12118289121528271,-9.577246250789212e-05,0.1216478523468942,0.0016564210685832898,-0.0010477889289738646,0.12099014746190288,0.12114943074316396,0.005016560243164679,0.004299854290247423,0.0065833845361263745,-0.0011570106042283824,0.004033932420780919,-0.001135215863032318,0.12129640677637815,-0.001851503201972337,-0.001185982324334707,0.1218398843588847,0.0017729307343095023,-0.0001876268809102217
0.0017762255197880557,0.1211703665236308,0.007521500881181811,0.12269393868667866,0.003136732765101459,0.06908732340773391,-0.0019539538628756178,0.12170109447780912,0.12247818808185802,0.008538147253124857,0.0015937579768134052,0.1212031099161152,0.06492649031163904,0.12128588194313214,0.0013082373217452835,0.004822102774412345,0.12076976236966745,0.12103195617119114,0.00043874259797211306,0.0005311070433788697,0.003336801807363833,2.9335000703239546e-05,0.12118616779738735,0.12058909857054743,0.0003909178673992851,0.0014248110467790025,-0.0017827133213591294,0.002956870451204441,-0.0003186024286852712,0.12128764775313164,0.004685343070734273,-0.001776854613085937,0.12633628663058757,0.0011011052845811067,0.12156209230149469,0.0041420746087568894,-0.0014502300600731529,-0.0021706794033492845,0.12082182173623307,-0.0029431113747414956
-0.00016860962679978326,-0.0034615030981930664,0.12404114790338161,0.12128243265484076,0.00026675800457968637,0.0051868310715087,0.006400884286403021,0.12069371900975277,0.004982856259981702,0.0014590777996731155,0.003762500661353202,0.0005310837504841734,-0.0006920038846383917,0.12111446665803874,0.003570784832747336,0.1184664289967207,0.011143322274223457,0.06779554609025625,0.12132965083079099,-0.0004313461064224205,0.00046388259224845036,-0.0005104574245051753,0.0028222349010649577,0.12094035087114384,0.06860022624940025,0.0011179882513433226,0.005977871323876045,0.0008530601901019587,0.002188833538971819,0.12084386153406403,-0.0020444669187984627,0.12245518826267426,0.0008534892442129655,0.005087496957335778,-0.0005599458714847724,0.0036783571777104797,3.9380988069030314e-05,0.12129033614573798,0.0010146729192656676,0.12094426715813292
0.06778116000596343,0.00010488301222503497,0.07223609368395184,0.0005205865642695182,0.0005154097485776897,-0.00250175623330627,0.12055344444768056,-0.0012855303837776347,0.06427158851133491,0.12125703677758742,0.12212683232674715,0.06207508978858762,-0.004323596712321899,0.0639728764767896,2.6025654830932485e-05,0.07255261589608927,0.12101175693021479,0.0024958040667863238,0.005325427838621347,0.0022765350915929378,0.006142757479434691,0.061034077305237924,0.0016241823404051937,0.12093375109456503,0.007761717089192966,-0.0008802003224180153,0.12125168167862942,-0.0023564052439289137,0.005117507481051379,0.12116210154242611,0.0014827298733362019,0.0634404981467561,0.12032356367422375,0.0013147997794851142,-0.0009691556168154872,0.12152964210338234,0.0009066573702005733,0.08700921984180224,0.12050303153509842,0.0007658202852119808
0.0021809857781714967,0.12147221880333282,0.12131134252770197,0.1213041232750484,0.0019445149779350648,0.006476120683545565,0.00023389772230328175,0.12041011076770247,0.0011538895239592557,-0.0016111977037577233,0.004920308427129506,0.12124297246264654,0.12103332793594393,-0.004335823715908099,0.00014217886078828464,0.005257219769040726,0.005327162799237907,-0.0003340916568668923,0.0038041186828098503,0.0015153370209553003,0.12284900846329816,0.1213225619971023,0.12145198275622365,0.00019086948689409238,0.12470675234758585,-0.001908647623614751,-0.0032161710319182526,-0.0013215729057077632,0.12120074155951475,0.0008784199360510093,0.1223222694347456,0.12080342346659426,0.0060079818527999825,-0.00411692800341788,0.005640669416924765,0.12113255730540605,0.12212401717760671,0.12062748189810933,0.09361203169617456,-0.0017420215895683827
-0.005187057335403162,0.0019106137036334473,-0.002509752319273349,0.12534177022958468,-0.0009641436658316665,0.0011143727498884412,0.12061352036094618,-0.0018208393878093626,0.009223737756551546,0.12727246011693152,-0.000590411551490306,0.006673520988439101,-0.002208087652645148,-0.0023832653926225303,0.12126125087591808,0.0021851460374756877,0.003809061619447831,0.003833580338228068,0.12097710323757632,0.004801328675942269,0.00706476839822064,0.0019901240284195087,0.12322214592333121,0.0014729120888963196,0.0012530728442517124,0.06353654211562608,0.004817935796721183,0.12125233910508561,0.12030955547539302,0.12073425795890441,0.06972559708835005,0.0015184858665318677,0.11853976104349781,0.12129213353402812,0.12231988498608547,0.0017924267370978016,-0.0034054508818436233,0.0006999055285985839,0.0029624493382191756,0.12046077565542897
0.004177490627906858,0.002489214161521682,0.06572829087855452,0.12082408009321109,-3.083420512244957e-05,-0.001420443608196873,0.001502628887956762,-0.0015349529877984587,-0.002278577790848899,0.12125869878921548,0.07178993998905293,0.1209776190501568,0.004361831951891489,0.001905842864372723,0.0010046527006584854,0.006515991693445178,0.06304784406422348,0.12135797829680636,-0.004904328478773895,2.7537458484367697e-05,0.0012466160465813877,-0.0019321004470177928,-0.005112030193987423,0.0026635112876195674,-0.0012895692955390207,0.0022783540837853023,-0.0008720773516776769,0.1211535646356635,-0.0008959472616469974,0.0055321159506500775,6.055597862789968e-05,0.003956247292358484,-0.0016967168033788233,-0.0006166332470043764,0.0008031073012631322,0.0007672378623769845,0.1203164053347437,0.0008257012362960485,0.006189657766610342,0.06830209382538666
0.12122767982057664,-0.00045470502318183744,-0.0010302327080139596,0.002770058413157982,-0.0032359255635189075,-6.727228976363984e-06,0.004524641387487057,0.003317439476232057,0.06386204032602431,0.010122102828958599,-0.0005597259087402194,0.07324705107468997,0.12144702099617374,-0.0036155396304063474,0.0032528199201191936,0.0028734068886041523,0.1217543378360072,0.12120298267627524,0.11943028433458955,0.0002588876482222609,0.003137455250013273,-0.0014307573778090893,0.0008108116957413756,0.0038493733017776395,0.06830883408482923,-0.00014787361514468446,0.12172891962793318,0.0021138096923645536,0.0005067797931208079,0.06907267953937161,0.12039749109898186,0.0017134173621787749,0.06384979148550654,0.002079981106709055,0.06600352322963106,0.12113045792256008,0.12004864650369436,0.0020291489580383073,0.12214696028901817,0.1213057397628562
0.012374673552453697,0.12094372731842797,0.00014840377152720903,0.06007043972502627,0.0003432084912132191,-0.00015773400955257507,0.06601271278474573,0.12128174707841526,-0.001954310934543164,-0.006371615407126398,-0.001029321698969368,0.0010030384431143852,0.06469719745390069,0.0009550108238370221,-0.001891275102063253,0.006995950050988788,0.12118127982337076,2.8983950300132595e-05,0.005830300179656428,0.12169523664406269,0.12127127760531589,0.05641563855247911,0.12095733106143655,0.004537794010628317,-0.0005406099368837656,0.0019539816482005575,0.06496615853529342,0.06568910639522431,0.12308462901275767,0.003315083671969661,0.06521247029740472,0.12090602226212356,0.12110776438345242,-0.001820393850767976,-0.0004651025605613027,0.0033714637723815917,0.12301913644651227,0.005275901382432637,0.12066818858643266,-0.001928029763026275
0.002759853509167794,0.0032228510878879076,0.002667499923037909,0.0011974872228473175,0.12114724111825954,0.12125976587842054,0.0011908823324675378,0.0022531501476314346,-0.0020328263494174196,0.0005697035515478582,0.006251316091088842,0.1208863318472716,0.12161756635598969,0.12138910506900824,0.12064090687607407,0.12103258906759791,0.0033690474111650235,0.004666970791334772,0.12260494068053587,0.0009679823436727724,0.0029524296034698695,0.12120384047797729,0.12127889734128434,0.06534413748810458,0.0607606143641486,0.0004979070483068229,0.12214648789322835,-0.003586958279602046,0.12171577948449236,-0.005925425794168708,0.12056520744665936,0.005460171758635693,0.00046379968306062866,0.12090447226296103,0.12092659098819818,0.0031668250640599534,-0.00015051910451742426,0.0020859647907509314,0.003878800391797164,0.0010236441309986514
0.12099792962335354,0.00015176551390097204,0.0013217233558044097,0.003133483573440873,0.0015226475479190498,0.12074015603037223,0.06290253009245059,0.0003333912124453638,0.0058770908868247965,-0.001927346779377475,-0.0029890157246037947,0.0019675461183809293,0.0015622922579264992,0.0028877252122853254,0.12097915329693607,0.1219250741705629,0.12146816971615455,0.12385223127488597,0.06407539202109654,0.0017357252629487457,0.005412771142837579,0.0002946504706397015,0.12069381691660153,-0.0006036990559469547,0.12045768253046124,0.12256410638224809,0.12169365902295541,0.007820334474272012,0.1233843907950316,-0.001323227405406633,0.0010687355746081622,0.0018840323378608514,0.0038408767194552996,0.005494715553074231,0.12123512444938983,0.0033761044807087658,0.12211815953744,-0.0026725281746511555,0.0014864447447043997,0.12121941670916284
0.0022971235403658205,-0.0013730708197409935,0.0006739149471498584,0.07082293451696513,0.0013549966497695763,0.060603618222208576,0.12187790806434243,-0.0019574976274119617,0.003916235855039148,0.12142382098898391,-0.003112097622840105,0.0026504663223462428,0.002568225393343316,0.002071286302602598,0.08405056462714583,0.0018260674623437002,0.0026589066311832684,-0.0001732966244780318,0.007559096575727615,0.0010281666566909803,0.1212297780164408,0.1211927469066777,0.0012762664628743236,-0.0001326829373120124,0.0011940665565041812,0.0034682746744614645,0.009907504109316205,-0.0021034562608329543,0.005671861323541261,0.0013033023096562528,0.0016677519535876826,0.005451830485300331,-0.0017398498405559203,0.005299837934610292,0.005909100542082955,0.12159832833677946,0.12131020438122182,0.0032354750513390374,0.12150551442408278,0.057600604642115326
0.0024764565162145847,0.004579215592392716,0.0007745489863346111,0.0018209030933198952,-0.001107246966057276,0.004528479540368552,0.008420802595822643,0.12108168965005671,0.0012908724351457163,0.0038375782540504035,7.476625648550155e-05,0.06372914967873143,0.06452315677366517,0.0037767645424111396,0.005462849118819861,0.12139857023498186,0.12336879008352075,0.005509325355043203,0.12089849195159266,0.0030501885490044336,0.12147932004180713,0.12137961354965952,0.0030274250771457492,0.11987346305705793,-0.00041976516393254956,0.002514814742097025,-0.00548349547901649,0.06169640182279984,0.12140149243892978,-0.0015067265398503132,0.0019003731206471029,-0.002952885951057784,0.12125868954369412,0.0011423709634872427,0.007256114763665271,0.0010068928917461176,-0.0013360262686136048,-0.002534485197800732,-0.001192214838861406,0.001258878431251659
-0.0036959934118220737,-0.002780877338636689,-0.0001365259245037385,-0.001727466899216526,-0.0007021827261789018,0.12284830399012957,0.0038940715844586766,0.07335475575521588,-0.00016150581967776552,0.0013392489407752133,0.0029869494584724276,0.0033929864392876563,0.0007766138789645058,-0.0021403391264942727,0.0032615953312107172,0.06322712356934855,-0.0009271756358748815,0.00413505100080978,-0.0018354073542928052,0.0009176972555972414,-0.0007564258933029052,0.06775958176716558,0.12101758692527359,0.12011170538670972,-0.0005105979590424539,0.0037761132874342728,0.12241486987794341,0.009156021853486452,0.009669708652989753,-0.0002663186319760492,-0.0017298518089560529,0.12048510912840134,9.982496563628221e-05,0.004852839882288235,0.001031180234378693,0.12013086685388943,0.002478969681868709,0.12294311254679675,0.005114235840066056,0.004123149764196262
0.004210485584707099,0.06319615805775959,0.12122322362640366,0.0005793720350902786,0.004063370119829775,0.006958628053669721,0.12431388404164527,-0.0011616322369911816,0.0016130897489851621,0.0032597492622354622,0.12094742411419503,0.12150867612699776,0.004072390391097338,0.0011205155710647186,-0.005179234508472524,0.006239440505641457,0.00015638458776355216,0.0012637741737166791,0.08776325961445049,0.000429760103194428,0.004946212110160798,0.0025649116511486016,-0.0022280073985367402,0.007085201590332304,0.12133536170952787,0.006096309778687071,0.12139341470218754,0.0021008344239321296,0.002785588804580347,0.009408847493406767,-0.0007904926482422202,0.0001266013349856949,0.0011200509226143554,0.0010498265867243364,0.010547101366585555,0.12157996305311586,0.0029702526879202846,0.007020906997141339,0.005923040991670702,0.0653885594502255
0.0020355093549736677,0.06314085782878753,0.06506088129171841,0.12037300204712167,0.00593133742889205,0.12370390174810766,0.12108204608211177,0.06388113134469059,-0.001525065103853132,0.0044163098586125025,0.00272980784534136,0.12090899036831168,-0.0009084061446172574,0.0010118171390841842,0.0016565444262155555,0.002441789937422155,0.005722704238815747,0.014072615675098725,0.004154697802696562,-0.003337121733612387,0.0006679596586285887,0.002870214451107582,0.0034300452519932974,0.12125031239360909,0.12116801709182885,0.004943666164565389,0.005521424008819037,0.0003671658051652773,0.06539146639997175,0.008588845005055249,0.11956653898616336,0.0010936641481669512,0.0027084334570454277,-0.0005584158725505979,0.004553850602464657,0.0693000360778964,0.0016817684102029033,-0.0003775396176419735,0.005242730999061132,0.1208690200714625
0.06778520088972383,0.12318248055132115,0.061253953726053925,0.12085491457715446,0.0016001921910722325,-0.0024980046059008615,0.0016015240014343578,0.12202990280225452,-0.006203257635850232,0.008289339397975238,0.12121931809201895,0.12340099223221754,0.0038371691977833857,0.003343977082363994,0.06799299998728078,0.0037917125972529537,0.0007307924989946246,0.12114996437382576,0.12310052948258282,-0.0006122112434854143,0.003802490236172443,0.007698272584249208,0.07025216886106944,0.12091646521294461,0.06349402334804494,0.0034545219052892757,0.007436837014597993,0.005855674683446619,0.1206462137645232,0.0034119803403766667,-0.0028410812398355495,-0.0014041020722644407,-0.0027505987804421843,0.006390234881927443,-0.00023514459361352358,-0.001577415175781202,0.004400454025244786,0.06962507808455373,0.0008068440769051965,-0.00027755706110528874
